(1001)
(T1  D=3. CR=0. - ZMIN=-10. - FLAT END MILL)
G90 G94 G91.1 G40 G49 G17
G21

(2D 3)
M5
M9
T1 M6
S10000 M3
G54
M8
G0 X101.298 Y2.165
G43 Z1. H1
G1 Z0.5 F30.
G2 X98.909 Y0. Z0.496 I-2.388 J0.235 F720.
G1 X61.395 Z0.454
G2 Y4.8 Z0.446 I0. J2.4
G1 X98.909 Z0.404
G2 X101.309 Y2.4 Z0.4 I0. J-2.4
X101.298 Y2.165 I-2.4 J0.
X98.909 Y0. Z0.396 I-2.388 J0.235
G1 X61.395 Z0.354
G2 Y4.8 Z0.346 I0. J2.4
G1 X98.909 Z0.304
G2 X101.309 Y2.4 Z0.3 I0. J-2.4
X101.298 Y2.165 I-2.4 J0.
X98.909 Y0. Z0.296 I-2.388 J0.235
G1 X61.395 Z0.254
G2 Y4.8 Z0.246 I0. J2.4
G1 X98.909 Z0.204
G2 X101.309 Y2.4 Z0.2 I0. J-2.4
X101.298 Y2.165 I-2.4 J0.
X98.909 Y0. Z0.196 I-2.388 J0.235
G1 X61.395 Z0.154
G2 Y4.8 Z0.146 I0. J2.4
G1 X98.909 Z0.104
G2 X101.309 Y2.4 Z0.1 I0. J-2.4
X101.298 Y2.165 I-2.4 J0.
X98.909 Y0. Z0.096 I-2.388 J0.235
G1 X61.395 Z0.054
G2 Y4.8 Z0.046 I0. J2.4
G1 X98.909 Z0.004
G2 X101.309 Y2.4 Z0. I0. J-2.4
X101.298 Y2.165 I-2.4 J0.
X98.909 Y0. Z-0.004 I-2.388 J0.235
G1 X61.395 Z-0.046
G2 Y4.8 Z-0.054 I0. J2.4
G1 X98.909 Z-0.096
G2 X101.309 Y2.4 Z-0.1 I0. J-2.4
X101.298 Y2.165 I-2.4 J0.
X98.909 Y0. Z-0.104 I-2.388 J0.235
G1 X61.395 Z-0.146
G2 Y4.8 Z-0.154 I0. J2.4
G1 X98.909 Z-0.196
G2 X101.309 Y2.4 Z-0.2 I0. J-2.4
X101.298 Y2.165 I-2.4 J0.
X98.909 Y0. Z-0.204 I-2.388 J0.235
G1 X61.395 Z-0.246
G2 Y4.8 Z-0.254 I0. J2.4
G1 X98.909 Z-0.296
G2 X101.309 Y2.4 Z-0.3 I0. J-2.4
X101.298 Y2.165 I-2.4 J0.
X98.909 Y0. Z-0.304 I-2.388 J0.235
G1 X61.395 Z-0.346
G2 Y4.8 Z-0.354 I0. J2.4
G1 X98.909 Z-0.396
G2 X101.309 Y2.4 Z-0.4 I0. J-2.4
X101.298 Y2.165 I-2.4 J0.
X98.909 Y0. Z-0.404 I-2.388 J0.235
G1 X61.395 Z-0.446
G2 Y4.8 Z-0.454 I0. J2.4
G1 X98.909 Z-0.496
G2 X101.309 Y2.4 Z-0.5 I0. J-2.4
X101.298 Y2.165 I-2.4 J0.
X98.909 Y0. Z-0.504 I-2.388 J0.235
G1 X61.395 Z-0.546
G2 Y4.8 Z-0.554 I0. J2.4
G1 X98.909 Z-0.596
G2 X101.309 Y2.4 Z-0.6 I0. J-2.4
X101.298 Y2.165 I-2.4 J0.
X98.909 Y0. Z-0.604 I-2.388 J0.235
G1 X61.395 Z-0.646
G2 Y4.8 Z-0.654 I0. J2.4
G1 X98.909 Z-0.696
G2 X101.309 Y2.4 Z-0.7 I0. J-2.4
X101.298 Y2.165 I-2.4 J0.
X98.909 Y0. Z-0.704 I-2.388 J0.235
G1 X61.395 Z-0.746
G2 Y4.8 Z-0.754 I0. J2.4
G1 X98.909 Z-0.796
G2 X101.309 Y2.4 Z-0.8 I0. J-2.4
X101.298 Y2.165 I-2.4 J0.
X98.909 Y0. Z-0.804 I-2.388 J0.235
G1 X61.395 Z-0.846
G2 Y4.8 Z-0.854 I0. J2.4
G1 X98.909 Z-0.896
G2 X101.309 Y2.4 Z-0.9 I0. J-2.4
X101.298 Y2.165 I-2.4 J0.
X98.909 Y0. Z-0.904 I-2.388 J0.235
G1 X61.395 Z-0.946
G2 Y4.8 Z-0.954 I0. J2.4
G1 X98.909 Z-0.996
G2 X101.309 Y2.4 Z-1. I0. J-2.4
X101.298 Y2.165 I-2.4 J0.
X98.909 Y0. Z-1.004 I-2.388 J0.235
G1 X61.395 Z-1.046
G2 Y4.8 Z-1.054 I0. J2.4
G1 X98.909 Z-1.096
G2 X101.309 Y2.4 Z-1.1 I0. J-2.4
X101.298 Y2.165 I-2.4 J0.
X98.909 Y0. Z-1.104 I-2.388 J0.235
G1 X61.395 Z-1.146
G2 Y4.8 Z-1.154 I0. J2.4
G1 X98.909 Z-1.196
G2 X101.309 Y2.4 Z-1.2 I0. J-2.4
X101.298 Y2.165 I-2.4 J0.
X98.909 Y0. Z-1.204 I-2.388 J0.235
G1 X61.395 Z-1.246
G2 Y4.8 Z-1.254 I0. J2.4
G1 X98.909 Z-1.296
G2 X101.309 Y2.4 Z-1.3 I0. J-2.4
X101.298 Y2.165 I-2.4 J0.
X98.909 Y0. Z-1.304 I-2.388 J0.235
G1 X61.395 Z-1.346
G2 Y4.8 Z-1.354 I0. J2.4
G1 X98.909 Z-1.396
G2 X101.309 Y2.4 Z-1.4 I0. J-2.4
X101.298 Y2.165 I-2.4 J0.
X98.909 Y0. Z-1.404 I-2.388 J0.235
G1 X61.395 Z-1.446
G2 Y4.8 Z-1.454 I0. J2.4
G1 X98.909 Z-1.496
G2 X101.309 Y2.4 Z-1.5 I0. J-2.4
X101.298 Y2.165 I-2.4 J0.
X98.909 Y0. Z-1.504 I-2.388 J0.235
G1 X61.395 Z-1.546
G2 Y4.8 Z-1.554 I0. J2.4
G1 X98.909 Z-1.596
G2 X101.309 Y2.4 Z-1.6 I0. J-2.4
X101.298 Y2.165 I-2.4 J0.
X98.909 Y0. Z-1.604 I-2.388 J0.235
G1 X61.395 Z-1.646
G2 Y4.8 Z-1.654 I0. J2.4
G1 X98.909 Z-1.696
G2 X101.309 Y2.4 Z-1.7 I0. J-2.4
X101.298 Y2.165 I-2.4 J0.
X98.909 Y0. Z-1.704 I-2.388 J0.235
G1 X61.395 Z-1.746
G2 Y4.8 Z-1.754 I0. J2.4
G1 X98.909 Z-1.796
G2 X101.309 Y2.4 Z-1.8 I0. J-2.4
X101.298 Y2.165 I-2.4 J0.
X98.909 Y0. Z-1.804 I-2.388 J0.235
G1 X61.395 Z-1.846
G2 Y4.8 Z-1.854 I0. J2.4
G1 X98.909 Z-1.896
G2 X101.309 Y2.4 Z-1.9 I0. J-2.4
X101.298 Y2.165 I-2.4 J0.
X98.909 Y0. Z-1.904 I-2.388 J0.235
G1 X61.395 Z-1.946
G2 Y4.8 Z-1.954 I0. J2.4
G1 X98.909 Z-1.996
G2 X101.309 Y2.4 Z-2. I0. J-2.4
X101.298 Y2.165 I-2.4 J0.
X98.909 Y0. Z-2.004 I-2.388 J0.235
G1 X61.395 Z-2.046
G2 Y4.8 Z-2.054 I0. J2.4
G1 X98.909 Z-2.096
G2 X101.309 Y2.4 Z-2.1 I0. J-2.4
X101.298 Y2.165 I-2.4 J0.
X98.909 Y0. Z-2.104 I-2.388 J0.235
G1 X61.395 Z-2.146
G2 Y4.8 Z-2.154 I0. J2.4
G1 X98.909 Z-2.196
G2 X101.309 Y2.4 Z-2.2 I0. J-2.4
X101.298 Y2.165 I-2.4 J0.
X98.909 Y0. Z-2.204 I-2.388 J0.235
G1 X61.395 Z-2.246
G2 Y4.8 Z-2.254 I0. J2.4
G1 X98.909 Z-2.296
G2 X101.309 Y2.4 Z-2.3 I0. J-2.4
X101.298 Y2.165 I-2.4 J0.
X98.909 Y0. Z-2.304 I-2.388 J0.235
G1 X61.395 Z-2.346
G2 Y4.8 Z-2.354 I0. J2.4
G1 X98.909 Z-2.396
G2 X101.309 Y2.4 Z-2.4 I0. J-2.4
X101.298 Y2.165 I-2.4 J0.
X98.909 Y0. Z-2.404 I-2.388 J0.235
G1 X61.395 Z-2.446
G2 Y4.8 Z-2.454 I0. J2.4
G1 X98.909 Z-2.496
G2 X101.309 Y2.4 Z-2.5 I0. J-2.4
X101.298 Y2.165 I-2.4 J0.
X98.909 Y0. Z-2.504 I-2.388 J0.235
G1 X61.395 Z-2.546
G2 Y4.8 Z-2.554 I0. J2.4
G1 X98.909 Z-2.596
G2 X101.309 Y2.4 Z-2.6 I0. J-2.4
X101.298 Y2.165 I-2.4 J0.
X98.909 Y0. Z-2.604 I-2.388 J0.235
G1 X61.395 Z-2.646
G2 Y4.8 Z-2.654 I0. J2.4
G1 X98.909 Z-2.696
G2 X101.309 Y2.4 Z-2.7 I0. J-2.4
X101.298 Y2.165 I-2.4 J0.
X98.909 Y0. Z-2.704 I-2.388 J0.235
G1 X61.395 Z-2.746
G2 Y4.8 Z-2.754 I0. J2.4
G1 X98.909 Z-2.796
G2 X101.309 Y2.4 Z-2.8 I0. J-2.4
X101.298 Y2.165 I-2.4 J0.
X98.909 Y0. Z-2.804 I-2.388 J0.235
G1 X61.395 Z-2.846
G2 Y4.8 Z-2.854 I0. J2.4
G1 X98.909 Z-2.896
G2 X101.309 Y2.4 Z-2.9 I0. J-2.4
X101.298 Y2.165 I-2.4 J0.
X98.909 Y0. Z-2.904 I-2.388 J0.235
G1 X61.395 Z-2.946
G2 Y4.8 Z-2.954 I0. J2.4
G1 X98.909 Z-2.996
G2 X101.309 Y2.4 Z-3. I0. J-2.4
X101.298 Y2.165 I-2.4 J0.
X98.909 Y0. Z-3.004 I-2.388 J0.235
G1 X61.395 Z-3.046
G2 Y4.8 Z-3.054 I0. J2.4
G1 X98.909 Z-3.096
G2 X101.309 Y2.4 Z-3.1 I0. J-2.4
X101.298 Y2.165 I-2.4 J0.
X98.909 Y0. Z-3.104 I-2.388 J0.235
G1 X61.395 Z-3.146
G2 Y4.8 Z-3.154 I0. J2.4
G1 X98.909 Z-3.196
G2 X101.309 Y2.4 Z-3.2 I0. J-2.4
X101.298 Y2.165 I-2.4 J0.
X98.909 Y0. Z-3.204 I-2.388 J0.235
G1 X61.395 Z-3.246
G2 Y4.8 Z-3.254 I0. J2.4
G1 X98.909 Z-3.296
G2 X101.309 Y2.4 Z-3.3 I0. J-2.4
X101.298 Y2.165 I-2.4 J0.
X98.909 Y0. Z-3.304 I-2.388 J0.235
G1 X61.395 Z-3.346
G2 Y4.8 Z-3.354 I0. J2.4
G1 X98.909 Z-3.396
G2 X101.309 Y2.4 Z-3.4 I0. J-2.4
X101.298 Y2.165 I-2.4 J0.
X98.909 Y0. Z-3.404 I-2.388 J0.235
G1 X61.395 Z-3.446
G2 Y4.8 Z-3.454 I0. J2.4
G1 X98.909 Z-3.496
G2 X101.309 Y2.4 Z-3.5 I0. J-2.4
X101.298 Y2.165 I-2.4 J0.
X98.909 Y0. Z-3.504 I-2.388 J0.235
G1 X61.395 Z-3.546
G2 Y4.8 Z-3.554 I0. J2.4
G1 X98.909 Z-3.596
G2 X101.309 Y2.4 Z-3.6 I0. J-2.4
X101.298 Y2.165 I-2.4 J0.
X98.909 Y0. Z-3.604 I-2.388 J0.235
G1 X61.395 Z-3.646
G2 Y4.8 Z-3.654 I0. J2.4
G1 X98.909 Z-3.696
G2 X101.309 Y2.4 Z-3.7 I0. J-2.4
X101.298 Y2.165 I-2.4 J0.
X98.909 Y0. Z-3.704 I-2.388 J0.235
G1 X61.395 Z-3.746
G2 Y4.8 Z-3.754 I0. J2.4
G1 X98.909 Z-3.796
G2 X101.309 Y2.4 Z-3.8 I0. J-2.4
X101.298 Y2.165 I-2.4 J0.
X98.909 Y0. Z-3.804 I-2.388 J0.235
G1 X61.395 Z-3.846
G2 Y4.8 Z-3.854 I0. J2.4
G1 X98.909 Z-3.896
G2 X101.309 Y2.4 Z-3.9 I0. J-2.4
X101.298 Y2.165 I-2.4 J0.
X98.909 Y0. Z-3.904 I-2.388 J0.235
G1 X61.395 Z-3.946
G2 Y4.8 Z-3.954 I0. J2.4
G1 X98.909 Z-3.996
G2 X101.309 Y2.4 Z-4. I0. J-2.4
X101.298 Y2.165 I-2.4 J0.
X98.909 Y0. Z-4.004 I-2.388 J0.235
G1 X61.395 Z-4.046
G2 Y4.8 Z-4.054 I0. J2.4
G1 X98.909 Z-4.096
G2 X101.309 Y2.4 Z-4.1 I0. J-2.4
X101.298 Y2.165 I-2.4 J0.
X98.909 Y0. Z-4.104 I-2.388 J0.235
G1 X61.395 Z-4.146
G2 Y4.8 Z-4.154 I0. J2.4
G1 X98.909 Z-4.196
G2 X101.309 Y2.4 Z-4.2 I0. J-2.4
X101.298 Y2.165 I-2.4 J0.
X98.909 Y0. Z-4.204 I-2.388 J0.235
G1 X61.395 Z-4.246
G2 Y4.8 Z-4.254 I0. J2.4
G1 X98.909 Z-4.296
G2 X101.309 Y2.4 Z-4.3 I0. J-2.4
X101.298 Y2.165 I-2.4 J0.
X98.909 Y0. Z-4.304 I-2.388 J0.235
G1 X61.395 Z-4.346
G2 Y4.8 Z-4.354 I0. J2.4
G1 X98.909 Z-4.396
G2 X101.309 Y2.4 Z-4.4 I0. J-2.4
X101.298 Y2.165 I-2.4 J0.
X98.909 Y0. Z-4.404 I-2.388 J0.235
G1 X61.395 Z-4.446
G2 Y4.8 Z-4.454 I0. J2.4
G1 X98.909 Z-4.496
G2 X101.309 Y2.4 Z-4.5 I0. J-2.4
X101.298 Y2.165 I-2.4 J0.
X98.909 Y0. Z-4.504 I-2.388 J0.235
G1 X61.395 Z-4.546
G2 Y4.8 Z-4.554 I0. J2.4
G1 X98.909 Z-4.596
G2 X101.309 Y2.4 Z-4.6 I0. J-2.4
X101.298 Y2.165 I-2.4 J0.
X98.909 Y0. Z-4.604 I-2.388 J0.235
G1 X61.395 Z-4.646
G2 Y4.8 Z-4.654 I0. J2.4
G1 X98.909 Z-4.696
G2 X101.309 Y2.4 Z-4.7 I0. J-2.4
X101.298 Y2.165 I-2.4 J0.
X98.909 Y0. Z-4.704 I-2.388 J0.235
G1 X61.395 Z-4.746
G2 Y4.8 Z-4.754 I0. J2.4
G1 X98.909 Z-4.796
G2 X101.309 Y2.4 Z-4.8 I0. J-2.4
X101.298 Y2.165 I-2.4 J0.
X98.909 Y0. Z-4.804 I-2.388 J0.235
G1 X61.395 Z-4.846
G2 Y4.8 Z-4.854 I0. J2.4
G1 X98.909 Z-4.896
G2 X101.309 Y2.4 Z-4.9 I0. J-2.4
X101.298 Y2.165 I-2.4 J0.
X98.909 Y0. Z-4.904 I-2.388 J0.235
G1 X61.395 Z-4.946
G2 Y4.8 Z-4.954 I0. J2.4
G1 X98.909 Z-4.996
G2 X101.309 Y2.4 Z-5. I0. J-2.4
X101.298 Y2.165 I-2.4 J0.
X98.909 Y0. Z-5.004 I-2.388 J0.235
G1 X61.395 Z-5.046
G2 Y4.8 Z-5.054 I0. J2.4
G1 X98.909 Z-5.096
G2 X101.309 Y2.4 Z-5.1 I0. J-2.4
X101.298 Y2.165 I-2.4 J0.
X98.909 Y0. Z-5.104 I-2.388 J0.235
G1 X61.395 Z-5.146
G2 Y4.8 Z-5.154 I0. J2.4
G1 X98.909 Z-5.196
G2 X101.309 Y2.4 Z-5.2 I0. J-2.4
X101.298 Y2.165 I-2.4 J0.
X98.909 Y0. Z-5.204 I-2.388 J0.235
G1 X61.395 Z-5.246
G2 Y4.8 Z-5.254 I0. J2.4
G1 X98.909 Z-5.296
G2 X101.309 Y2.4 Z-5.3 I0. J-2.4
X101.298 Y2.165 I-2.4 J0.
X98.909 Y0. Z-5.304 I-2.388 J0.235
G1 X61.395 Z-5.346
G2 Y4.8 Z-5.354 I0. J2.4
G1 X98.909 Z-5.396
G2 X101.309 Y2.4 Z-5.4 I0. J-2.4
X101.298 Y2.165 I-2.4 J0.
X98.909 Y0. Z-5.404 I-2.388 J0.235
G1 X61.395 Z-5.446
G2 Y4.8 Z-5.454 I0. J2.4
G1 X98.909 Z-5.496
G2 X101.309 Y2.4 Z-5.5 I0. J-2.4
X101.298 Y2.165 I-2.4 J0.
X98.909 Y0. Z-5.504 I-2.388 J0.235
G1 X61.395 Z-5.546
G2 Y4.8 Z-5.554 I0. J2.4
G1 X98.909 Z-5.596
G2 X101.309 Y2.4 Z-5.6 I0. J-2.4
X101.298 Y2.165 I-2.4 J0.
X98.909 Y0. Z-5.604 I-2.388 J0.235
G1 X61.395 Z-5.646
G2 Y4.8 Z-5.654 I0. J2.4
G1 X98.909 Z-5.696
G2 X101.309 Y2.4 Z-5.7 I0. J-2.4
X101.298 Y2.165 I-2.4 J0.
X98.909 Y0. Z-5.704 I-2.388 J0.235
G1 X61.395 Z-5.746
G2 Y4.8 Z-5.754 I0. J2.4
G1 X98.909 Z-5.796
G2 X101.309 Y2.4 Z-5.8 I0. J-2.4
X101.298 Y2.165 I-2.4 J0.
X98.909 Y0. Z-5.804 I-2.388 J0.235
G1 X61.395 Z-5.846
G2 Y4.8 Z-5.854 I0. J2.4
G1 X98.909 Z-5.896
G2 X101.309 Y2.4 Z-5.9 I0. J-2.4
X101.298 Y2.165 I-2.4 J0.
X98.909 Y0. Z-5.904 I-2.388 J0.235
G1 X61.395 Z-5.946
G2 Y4.8 Z-5.954 I0. J2.4
G1 X98.909 Z-5.996
G2 X101.309 Y2.4 Z-6. I0. J-2.4
X101.298 Y2.165 I-2.4 J0.
X98.909 Y0. Z-6.004 I-2.388 J0.235
G1 X61.395 Z-6.046
G2 Y4.8 Z-6.054 I0. J2.4
G1 X98.909 Z-6.096
G2 X101.309 Y2.4 Z-6.1 I0. J-2.4
X101.298 Y2.165 I-2.4 J0.
X98.909 Y0. Z-6.104 I-2.388 J0.235
G1 X61.395 Z-6.146
G2 Y4.8 Z-6.154 I0. J2.4
G1 X98.909 Z-6.196
G2 X101.309 Y2.4 Z-6.2 I0. J-2.4
X101.298 Y2.165 I-2.4 J0.
X98.909 Y0. Z-6.204 I-2.388 J0.235
G1 X61.395 Z-6.246
G2 Y4.8 Z-6.254 I0. J2.4
G1 X98.909 Z-6.296
G2 X101.309 Y2.4 Z-6.3 I0. J-2.4
X101.298 Y2.165 I-2.4 J0.
X98.909 Y0. Z-6.304 I-2.388 J0.235
G1 X61.395 Z-6.346
G2 Y4.8 Z-6.354 I0. J2.4
G1 X98.909 Z-6.396
G2 X101.309 Y2.4 Z-6.4 I0. J-2.4
X101.298 Y2.165 I-2.4 J0.
X98.909 Y0. Z-6.404 I-2.388 J0.235
G1 X61.395 Z-6.446
G2 Y4.8 Z-6.454 I0. J2.4
G1 X98.909 Z-6.496
G2 X101.309 Y2.4 Z-6.5 I0. J-2.4
X101.298 Y2.165 I-2.4 J0.
X98.909 Y0. Z-6.504 I-2.388 J0.235
G1 X61.395 Z-6.546
G2 Y4.8 Z-6.554 I0. J2.4
G1 X98.909 Z-6.596
G2 X101.309 Y2.4 Z-6.6 I0. J-2.4
X101.298 Y2.165 I-2.4 J0.
X98.909 Y0. Z-6.604 I-2.388 J0.235
G1 X61.395 Z-6.646
G2 Y4.8 Z-6.654 I0. J2.4
G1 X98.909 Z-6.696
G2 X101.309 Y2.4 Z-6.7 I0. J-2.4
X101.298 Y2.165 I-2.4 J0.
X98.909 Y0. Z-6.704 I-2.388 J0.235
G1 X61.395 Z-6.746
G2 Y4.8 Z-6.754 I0. J2.4
G1 X98.909 Z-6.796
G2 X101.309 Y2.4 Z-6.8 I0. J-2.4
X101.298 Y2.165 I-2.4 J0.
X98.909 Y0. Z-6.804 I-2.388 J0.235
G1 X61.395 Z-6.846
G2 Y4.8 Z-6.854 I0. J2.4
G1 X98.909 Z-6.896
G2 X101.309 Y2.4 Z-6.9 I0. J-2.4
X101.298 Y2.165 I-2.4 J0.
X98.909 Y0. Z-6.904 I-2.388 J0.235
G1 X61.395 Z-6.946
G2 Y4.8 Z-6.954 I0. J2.4
G1 X98.909 Z-6.996
G2 X101.309 Y2.4 Z-7. I0. J-2.4
X101.298 Y2.165 I-2.4 J0.
X98.909 Y0. I-2.388 J0.235 F600.
G1 X61.395
G2 Y4.8 I0. J2.4
G1 X98.909
G2 X101.298 Y2.165 I0. J-2.4
G1 Z1. F720.
G0 X99.65 Y7.981
G1 Z0.5 F30.
G2 X99.721 Y7.4 Z0.499 I-2.329 J-0.581 F720.
X97.321 Y5. Z0.495 I-2.4 J0.
G1 X62.983 Z0.454
G2 Y9.8 Z0.445 I0. J2.4
G1 X97.321 Z0.404
G2 X99.65 Y7.981 Z0.4 I0. J-2.4
X99.721 Y7.4 Z0.399 I-2.329 J-0.581
X97.321 Y5. Z0.395 I-2.4 J0.
G1 X62.983 Z0.354
G2 Y9.8 Z0.345 I0. J2.4
G1 X97.321 Z0.304
G2 X99.65 Y7.981 Z0.3 I0. J-2.4
X99.721 Y7.4 Z0.299 I-2.329 J-0.581
X97.321 Y5. Z0.295 I-2.4 J0.
G1 X62.983 Z0.254
G2 Y9.8 Z0.245 I0. J2.4
G1 X97.321 Z0.204
G2 X99.65 Y7.981 Z0.2 I0. J-2.4
X99.721 Y7.4 Z0.199 I-2.329 J-0.581
X97.321 Y5. Z0.195 I-2.4 J0.
G1 X62.983 Z0.154
G2 Y9.8 Z0.145 I0. J2.4
G1 X97.321 Z0.104
G2 X99.65 Y7.981 Z0.1 I0. J-2.4
X99.721 Y7.4 Z0.099 I-2.329 J-0.581
X97.321 Y5. Z0.095 I-2.4 J0.
G1 X62.983 Z0.054
G2 Y9.8 Z0.045 I0. J2.4
G1 X97.321 Z0.004
G2 X99.65 Y7.981 Z0. I0. J-2.4
X99.721 Y7.4 Z-0.001 I-2.329 J-0.581
X97.321 Y5. Z-0.005 I-2.4 J0.
G1 X62.983 Z-0.046
G2 Y9.8 Z-0.055 I0. J2.4
G1 X97.321 Z-0.096
G2 X99.65 Y7.981 Z-0.1 I0. J-2.4
X99.721 Y7.4 Z-0.101 I-2.329 J-0.581
X97.321 Y5. Z-0.105 I-2.4 J0.
G1 X62.983 Z-0.146
G2 Y9.8 Z-0.155 I0. J2.4
G1 X97.321 Z-0.196
G2 X99.65 Y7.981 Z-0.2 I0. J-2.4
X99.721 Y7.4 Z-0.201 I-2.329 J-0.581
X97.321 Y5. Z-0.205 I-2.4 J0.
G1 X62.983 Z-0.246
G2 Y9.8 Z-0.255 I0. J2.4
G1 X97.321 Z-0.296
G2 X99.65 Y7.981 Z-0.3 I0. J-2.4
X99.721 Y7.4 Z-0.301 I-2.329 J-0.581
X97.321 Y5. Z-0.305 I-2.4 J0.
G1 X62.983 Z-0.346
G2 Y9.8 Z-0.355 I0. J2.4
G1 X97.321 Z-0.396
G2 X99.65 Y7.981 Z-0.4 I0. J-2.4
X99.721 Y7.4 Z-0.401 I-2.329 J-0.581
X97.321 Y5. Z-0.405 I-2.4 J0.
G1 X62.983 Z-0.446
G2 Y9.8 Z-0.455 I0. J2.4
G1 X97.321 Z-0.496
G2 X99.65 Y7.981 Z-0.5 I0. J-2.4
X99.721 Y7.4 Z-0.501 I-2.329 J-0.581
X97.321 Y5. Z-0.505 I-2.4 J0.
G1 X62.983 Z-0.546
G2 Y9.8 Z-0.555 I0. J2.4
G1 X97.321 Z-0.596
G2 X99.65 Y7.981 Z-0.6 I0. J-2.4
X99.721 Y7.4 Z-0.601 I-2.329 J-0.581
X97.321 Y5. Z-0.605 I-2.4 J0.
G1 X62.983 Z-0.646
G2 Y9.8 Z-0.655 I0. J2.4
G1 X97.321 Z-0.696
G2 X99.65 Y7.981 Z-0.7 I0. J-2.4
X99.721 Y7.4 Z-0.701 I-2.329 J-0.581
X97.321 Y5. Z-0.705 I-2.4 J0.
G1 X62.983 Z-0.746
G2 Y9.8 Z-0.755 I0. J2.4
G1 X97.321 Z-0.796
G2 X99.65 Y7.981 Z-0.8 I0. J-2.4
X99.721 Y7.4 Z-0.801 I-2.329 J-0.581
X97.321 Y5. Z-0.805 I-2.4 J0.
G1 X62.983 Z-0.846
G2 Y9.8 Z-0.855 I0. J2.4
G1 X97.321 Z-0.896
G2 X99.65 Y7.981 Z-0.9 I0. J-2.4
X99.721 Y7.4 Z-0.901 I-2.329 J-0.581
X97.321 Y5. Z-0.905 I-2.4 J0.
G1 X62.983 Z-0.946
G2 Y9.8 Z-0.955 I0. J2.4
G1 X97.321 Z-0.996
G2 X99.65 Y7.981 Z-1. I0. J-2.4
X99.721 Y7.4 Z-1.001 I-2.329 J-0.581
X97.321 Y5. Z-1.005 I-2.4 J0.
G1 X62.983 Z-1.046
G2 Y9.8 Z-1.055 I0. J2.4
G1 X97.321 Z-1.096
G2 X99.65 Y7.981 Z-1.1 I0. J-2.4
X99.721 Y7.4 Z-1.101 I-2.329 J-0.581
X97.321 Y5. Z-1.105 I-2.4 J0.
G1 X62.983 Z-1.146
G2 Y9.8 Z-1.155 I0. J2.4
G1 X97.321 Z-1.196
G2 X99.65 Y7.981 Z-1.2 I0. J-2.4
X99.721 Y7.4 Z-1.201 I-2.329 J-0.581
X97.321 Y5. Z-1.205 I-2.4 J0.
G1 X62.983 Z-1.246
G2 Y9.8 Z-1.255 I0. J2.4
G1 X97.321 Z-1.296
G2 X99.65 Y7.981 Z-1.3 I0. J-2.4
X99.721 Y7.4 Z-1.301 I-2.329 J-0.581
X97.321 Y5. Z-1.305 I-2.4 J0.
G1 X62.983 Z-1.346
G2 Y9.8 Z-1.355 I0. J2.4
G1 X97.321 Z-1.396
G2 X99.65 Y7.981 Z-1.4 I0. J-2.4
X99.721 Y7.4 Z-1.401 I-2.329 J-0.581
X97.321 Y5. Z-1.405 I-2.4 J0.
G1 X62.983 Z-1.446
G2 Y9.8 Z-1.455 I0. J2.4
G1 X97.321 Z-1.496
G2 X99.65 Y7.981 Z-1.5 I0. J-2.4
X99.721 Y7.4 Z-1.501 I-2.329 J-0.581
X97.321 Y5. Z-1.505 I-2.4 J0.
G1 X62.983 Z-1.546
G2 Y9.8 Z-1.555 I0. J2.4
G1 X97.321 Z-1.596
G2 X99.65 Y7.981 Z-1.6 I0. J-2.4
X99.721 Y7.4 Z-1.601 I-2.329 J-0.581
X97.321 Y5. Z-1.605 I-2.4 J0.
G1 X62.983 Z-1.646
G2 Y9.8 Z-1.655 I0. J2.4
G1 X97.321 Z-1.696
G2 X99.65 Y7.981 Z-1.7 I0. J-2.4
X99.721 Y7.4 Z-1.701 I-2.329 J-0.581
X97.321 Y5. Z-1.705 I-2.4 J0.
G1 X62.983 Z-1.746
G2 Y9.8 Z-1.755 I0. J2.4
G1 X97.321 Z-1.796
G2 X99.65 Y7.981 Z-1.8 I0. J-2.4
X99.721 Y7.4 Z-1.801 I-2.329 J-0.581
X97.321 Y5. Z-1.805 I-2.4 J0.
G1 X62.983 Z-1.846
G2 Y9.8 Z-1.855 I0. J2.4
G1 X97.321 Z-1.896
G2 X99.65 Y7.981 Z-1.9 I0. J-2.4
X99.721 Y7.4 Z-1.901 I-2.329 J-0.581
X97.321 Y5. Z-1.905 I-2.4 J0.
G1 X62.983 Z-1.946
G2 Y9.8 Z-1.955 I0. J2.4
G1 X97.321 Z-1.996
G2 X99.65 Y7.981 Z-2. I0. J-2.4
X99.721 Y7.4 Z-2.001 I-2.329 J-0.581
X97.321 Y5. Z-2.005 I-2.4 J0.
G1 X62.983 Z-2.046
G2 Y9.8 Z-2.055 I0. J2.4
G1 X97.321 Z-2.096
G2 X99.65 Y7.981 Z-2.1 I0. J-2.4
X99.721 Y7.4 Z-2.101 I-2.329 J-0.581
X97.321 Y5. Z-2.105 I-2.4 J0.
G1 X62.983 Z-2.146
G2 Y9.8 Z-2.155 I0. J2.4
G1 X97.321 Z-2.196
G2 X99.65 Y7.981 Z-2.2 I0. J-2.4
X99.721 Y7.4 Z-2.201 I-2.329 J-0.581
X97.321 Y5. Z-2.205 I-2.4 J0.
G1 X62.983 Z-2.246
G2 Y9.8 Z-2.255 I0. J2.4
G1 X97.321 Z-2.296
G2 X99.65 Y7.981 Z-2.3 I0. J-2.4
X99.721 Y7.4 Z-2.301 I-2.329 J-0.581
X97.321 Y5. Z-2.305 I-2.4 J0.
G1 X62.983 Z-2.346
G2 Y9.8 Z-2.355 I0. J2.4
G1 X97.321 Z-2.396
G2 X99.65 Y7.981 Z-2.4 I0. J-2.4
X99.721 Y7.4 Z-2.401 I-2.329 J-0.581
X97.321 Y5. Z-2.405 I-2.4 J0.
G1 X62.983 Z-2.446
G2 Y9.8 Z-2.455 I0. J2.4
G1 X97.321 Z-2.496
G2 X99.65 Y7.981 Z-2.5 I0. J-2.4
X99.721 Y7.4 Z-2.501 I-2.329 J-0.581
X97.321 Y5. Z-2.505 I-2.4 J0.
G1 X62.983 Z-2.546
G2 Y9.8 Z-2.555 I0. J2.4
G1 X97.321 Z-2.596
G2 X99.65 Y7.981 Z-2.6 I0. J-2.4
X99.721 Y7.4 Z-2.601 I-2.329 J-0.581
X97.321 Y5. Z-2.605 I-2.4 J0.
G1 X62.983 Z-2.646
G2 Y9.8 Z-2.655 I0. J2.4
G1 X97.321 Z-2.696
G2 X99.65 Y7.981 Z-2.7 I0. J-2.4
X99.721 Y7.4 Z-2.701 I-2.329 J-0.581
X97.321 Y5. Z-2.705 I-2.4 J0.
G1 X62.983 Z-2.746
G2 Y9.8 Z-2.755 I0. J2.4
G1 X97.321 Z-2.796
G2 X99.65 Y7.981 Z-2.8 I0. J-2.4
X99.721 Y7.4 Z-2.801 I-2.329 J-0.581
X97.321 Y5. Z-2.805 I-2.4 J0.
G1 X62.983 Z-2.846
G2 Y9.8 Z-2.855 I0. J2.4
G1 X97.321 Z-2.896
G2 X99.65 Y7.981 Z-2.9 I0. J-2.4
X99.721 Y7.4 Z-2.901 I-2.329 J-0.581
X97.321 Y5. Z-2.905 I-2.4 J0.
G1 X62.983 Z-2.946
G2 Y9.8 Z-2.955 I0. J2.4
G1 X97.321 Z-2.996
G2 X99.65 Y7.981 Z-3. I0. J-2.4
X99.721 Y7.4 Z-3.001 I-2.329 J-0.581
X97.321 Y5. Z-3.005 I-2.4 J0.
G1 X62.983 Z-3.046
G2 Y9.8 Z-3.055 I0. J2.4
G1 X97.321 Z-3.096
G2 X99.65 Y7.981 Z-3.1 I0. J-2.4
X99.721 Y7.4 Z-3.101 I-2.329 J-0.581
X97.321 Y5. Z-3.105 I-2.4 J0.
G1 X62.983 Z-3.146
G2 Y9.8 Z-3.155 I0. J2.4
G1 X97.321 Z-3.196
G2 X99.65 Y7.981 Z-3.2 I0. J-2.4
X99.721 Y7.4 Z-3.201 I-2.329 J-0.581
X97.321 Y5. Z-3.205 I-2.4 J0.
G1 X62.983 Z-3.246
G2 Y9.8 Z-3.255 I0. J2.4
G1 X97.321 Z-3.296
G2 X99.65 Y7.981 Z-3.3 I0. J-2.4
X99.721 Y7.4 Z-3.301 I-2.329 J-0.581
X97.321 Y5. Z-3.305 I-2.4 J0.
G1 X62.983 Z-3.346
G2 Y9.8 Z-3.355 I0. J2.4
G1 X97.321 Z-3.396
G2 X99.65 Y7.981 Z-3.4 I0. J-2.4
X99.721 Y7.4 Z-3.401 I-2.329 J-0.581
X97.321 Y5. Z-3.405 I-2.4 J0.
G1 X62.983 Z-3.446
G2 Y9.8 Z-3.455 I0. J2.4
G1 X97.321 Z-3.496
G2 X99.65 Y7.981 Z-3.5 I0. J-2.4
X99.721 Y7.4 Z-3.501 I-2.329 J-0.581
X97.321 Y5. Z-3.505 I-2.4 J0.
G1 X62.983 Z-3.546
G2 Y9.8 Z-3.555 I0. J2.4
G1 X97.321 Z-3.596
G2 X99.65 Y7.981 Z-3.6 I0. J-2.4
X99.721 Y7.4 Z-3.601 I-2.329 J-0.581
X97.321 Y5. Z-3.605 I-2.4 J0.
G1 X62.983 Z-3.646
G2 Y9.8 Z-3.655 I0. J2.4
G1 X97.321 Z-3.696
G2 X99.65 Y7.981 Z-3.7 I0. J-2.4
X99.721 Y7.4 Z-3.701 I-2.329 J-0.581
X97.321 Y5. Z-3.705 I-2.4 J0.
G1 X62.983 Z-3.746
G2 Y9.8 Z-3.755 I0. J2.4
G1 X97.321 Z-3.796
G2 X99.65 Y7.981 Z-3.8 I0. J-2.4
X99.721 Y7.4 Z-3.801 I-2.329 J-0.581
X97.321 Y5. Z-3.805 I-2.4 J0.
G1 X62.983 Z-3.846
G2 Y9.8 Z-3.855 I0. J2.4
G1 X97.321 Z-3.896
G2 X99.65 Y7.981 Z-3.9 I0. J-2.4
X99.721 Y7.4 Z-3.901 I-2.329 J-0.581
X97.321 Y5. Z-3.905 I-2.4 J0.
G1 X62.983 Z-3.946
G2 Y9.8 Z-3.955 I0. J2.4
G1 X97.321 Z-3.996
G2 X99.65 Y7.981 Z-4. I0. J-2.4
X99.721 Y7.4 Z-4.001 I-2.329 J-0.581
X97.321 Y5. Z-4.005 I-2.4 J0.
G1 X62.983 Z-4.046
G2 Y9.8 Z-4.055 I0. J2.4
G1 X97.321 Z-4.096
G2 X99.65 Y7.981 Z-4.1 I0. J-2.4
X99.721 Y7.4 Z-4.101 I-2.329 J-0.581
X97.321 Y5. Z-4.105 I-2.4 J0.
G1 X62.983 Z-4.146
G2 Y9.8 Z-4.155 I0. J2.4
G1 X97.321 Z-4.196
G2 X99.65 Y7.981 Z-4.2 I0. J-2.4
X99.721 Y7.4 Z-4.201 I-2.329 J-0.581
X97.321 Y5. Z-4.205 I-2.4 J0.
G1 X62.983 Z-4.246
G2 Y9.8 Z-4.255 I0. J2.4
G1 X97.321 Z-4.296
G2 X99.65 Y7.981 Z-4.3 I0. J-2.4
X99.721 Y7.4 Z-4.301 I-2.329 J-0.581
X97.321 Y5. Z-4.305 I-2.4 J0.
G1 X62.983 Z-4.346
G2 Y9.8 Z-4.355 I0. J2.4
G1 X97.321 Z-4.396
G2 X99.65 Y7.981 Z-4.4 I0. J-2.4
X99.721 Y7.4 Z-4.401 I-2.329 J-0.581
X97.321 Y5. Z-4.405 I-2.4 J0.
G1 X62.983 Z-4.446
G2 Y9.8 Z-4.455 I0. J2.4
G1 X97.321 Z-4.496
G2 X99.65 Y7.981 Z-4.5 I0. J-2.4
X99.721 Y7.4 Z-4.501 I-2.329 J-0.581
X97.321 Y5. Z-4.505 I-2.4 J0.
G1 X62.983 Z-4.546
G2 Y9.8 Z-4.555 I0. J2.4
G1 X97.321 Z-4.596
G2 X99.65 Y7.981 Z-4.6 I0. J-2.4
X99.721 Y7.4 Z-4.601 I-2.329 J-0.581
X97.321 Y5. Z-4.605 I-2.4 J0.
G1 X62.983 Z-4.646
G2 Y9.8 Z-4.655 I0. J2.4
G1 X97.321 Z-4.696
G2 X99.65 Y7.981 Z-4.7 I0. J-2.4
X99.721 Y7.4 Z-4.701 I-2.329 J-0.581
X97.321 Y5. Z-4.705 I-2.4 J0.
G1 X62.983 Z-4.746
G2 Y9.8 Z-4.755 I0. J2.4
G1 X97.321 Z-4.796
G2 X99.65 Y7.981 Z-4.8 I0. J-2.4
X99.721 Y7.4 Z-4.801 I-2.329 J-0.581
X97.321 Y5. Z-4.805 I-2.4 J0.
G1 X62.983 Z-4.846
G2 Y9.8 Z-4.855 I0. J2.4
G1 X97.321 Z-4.896
G2 X99.65 Y7.981 Z-4.9 I0. J-2.4
X99.721 Y7.4 Z-4.901 I-2.329 J-0.581
X97.321 Y5. Z-4.905 I-2.4 J0.
G1 X62.983 Z-4.946
G2 Y9.8 Z-4.955 I0. J2.4
G1 X97.321 Z-4.996
G2 X99.65 Y7.981 Z-5. I0. J-2.4
X99.721 Y7.4 Z-5.001 I-2.329 J-0.581
X97.321 Y5. Z-5.005 I-2.4 J0.
G1 X62.983 Z-5.046
G2 Y9.8 Z-5.055 I0. J2.4
G1 X97.321 Z-5.096
G2 X99.65 Y7.981 Z-5.1 I0. J-2.4
X99.721 Y7.4 Z-5.101 I-2.329 J-0.581
X97.321 Y5. Z-5.105 I-2.4 J0.
G1 X62.983 Z-5.146
G2 Y9.8 Z-5.155 I0. J2.4
G1 X97.321 Z-5.196
G2 X99.65 Y7.981 Z-5.2 I0. J-2.4
X99.721 Y7.4 Z-5.201 I-2.329 J-0.581
X97.321 Y5. Z-5.205 I-2.4 J0.
G1 X62.983 Z-5.246
G2 Y9.8 Z-5.255 I0. J2.4
G1 X97.321 Z-5.296
G2 X99.65 Y7.981 Z-5.3 I0. J-2.4
X99.721 Y7.4 Z-5.301 I-2.329 J-0.581
X97.321 Y5. Z-5.305 I-2.4 J0.
G1 X62.983 Z-5.346
G2 Y9.8 Z-5.355 I0. J2.4
G1 X97.321 Z-5.396
G2 X99.65 Y7.981 Z-5.4 I0. J-2.4
X99.721 Y7.4 Z-5.401 I-2.329 J-0.581
X97.321 Y5. Z-5.405 I-2.4 J0.
G1 X62.983 Z-5.446
G2 Y9.8 Z-5.455 I0. J2.4
G1 X97.321 Z-5.496
G2 X99.65 Y7.981 Z-5.5 I0. J-2.4
X99.721 Y7.4 Z-5.501 I-2.329 J-0.581
X97.321 Y5. Z-5.505 I-2.4 J0.
G1 X62.983 Z-5.546
G2 Y9.8 Z-5.555 I0. J2.4
G1 X97.321 Z-5.596
G2 X99.65 Y7.981 Z-5.6 I0. J-2.4
X99.721 Y7.4 Z-5.601 I-2.329 J-0.581
X97.321 Y5. Z-5.605 I-2.4 J0.
G1 X62.983 Z-5.646
G2 Y9.8 Z-5.655 I0. J2.4
G1 X97.321 Z-5.696
G2 X99.65 Y7.981 Z-5.7 I0. J-2.4
X99.721 Y7.4 Z-5.701 I-2.329 J-0.581
X97.321 Y5. Z-5.705 I-2.4 J0.
G1 X62.983 Z-5.746
G2 Y9.8 Z-5.755 I0. J2.4
G1 X97.321 Z-5.796
G2 X99.65 Y7.981 Z-5.8 I0. J-2.4
X99.721 Y7.4 Z-5.801 I-2.329 J-0.581
X97.321 Y5. Z-5.805 I-2.4 J0.
G1 X62.983 Z-5.846
G2 Y9.8 Z-5.855 I0. J2.4
G1 X97.321 Z-5.896
G2 X99.65 Y7.981 Z-5.9 I0. J-2.4
X99.721 Y7.4 Z-5.901 I-2.329 J-0.581
X97.321 Y5. Z-5.905 I-2.4 J0.
G1 X62.983 Z-5.946
G2 Y9.8 Z-5.955 I0. J2.4
G1 X97.321 Z-5.996
G2 X99.65 Y7.981 Z-6. I0. J-2.4
X99.721 Y7.4 Z-6.001 I-2.329 J-0.581
X97.321 Y5. Z-6.005 I-2.4 J0.
G1 X62.983 Z-6.046
G2 Y9.8 Z-6.055 I0. J2.4
G1 X97.321 Z-6.096
G2 X99.65 Y7.981 Z-6.1 I0. J-2.4
X99.721 Y7.4 Z-6.101 I-2.329 J-0.581
X97.321 Y5. Z-6.105 I-2.4 J0.
G1 X62.983 Z-6.146
G2 Y9.8 Z-6.155 I0. J2.4
G1 X97.321 Z-6.196
G2 X99.65 Y7.981 Z-6.2 I0. J-2.4
X99.721 Y7.4 Z-6.201 I-2.329 J-0.581
X97.321 Y5. Z-6.205 I-2.4 J0.
G1 X62.983 Z-6.246
G2 Y9.8 Z-6.255 I0. J2.4
G1 X97.321 Z-6.296
G2 X99.65 Y7.981 Z-6.3 I0. J-2.4
X99.721 Y7.4 Z-6.301 I-2.329 J-0.581
X97.321 Y5. Z-6.305 I-2.4 J0.
G1 X62.983 Z-6.346
G2 Y9.8 Z-6.355 I0. J2.4
G1 X97.321 Z-6.396
G2 X99.65 Y7.981 Z-6.4 I0. J-2.4
X99.721 Y7.4 Z-6.401 I-2.329 J-0.581
X97.321 Y5. Z-6.405 I-2.4 J0.
G1 X62.983 Z-6.446
G2 Y9.8 Z-6.455 I0. J2.4
G1 X97.321 Z-6.496
G2 X99.65 Y7.981 Z-6.5 I0. J-2.4
X99.721 Y7.4 Z-6.501 I-2.329 J-0.581
X97.321 Y5. Z-6.505 I-2.4 J0.
G1 X62.983 Z-6.546
G2 Y9.8 Z-6.555 I0. J2.4
G1 X97.321 Z-6.596
G2 X99.65 Y7.981 Z-6.6 I0. J-2.4
X99.721 Y7.4 Z-6.601 I-2.329 J-0.581
X97.321 Y5. Z-6.605 I-2.4 J0.
G1 X62.983 Z-6.646
G2 Y9.8 Z-6.655 I0. J2.4
G1 X97.321 Z-6.696
G2 X99.65 Y7.981 Z-6.7 I0. J-2.4
X99.721 Y7.4 Z-6.701 I-2.329 J-0.581
X97.321 Y5. Z-6.705 I-2.4 J0.
G1 X62.983 Z-6.746
G2 Y9.8 Z-6.755 I0. J2.4
G1 X97.321 Z-6.796
G2 X99.65 Y7.981 Z-6.8 I0. J-2.4
X99.721 Y7.4 Z-6.801 I-2.329 J-0.581
X97.321 Y5. Z-6.805 I-2.4 J0.
G1 X62.983 Z-6.846
G2 Y9.8 Z-6.855 I0. J2.4
G1 X97.321 Z-6.896
G2 X99.65 Y7.981 Z-6.9 I0. J-2.4
X99.721 Y7.4 Z-6.901 I-2.329 J-0.581
X97.321 Y5. Z-6.905 I-2.4 J0.
G1 X62.983 Z-6.946
G2 Y9.8 Z-6.955 I0. J2.4
G1 X97.321 Z-6.996
G2 X99.65 Y7.981 Z-7. I0. J-2.4
X97.321 Y5. I-2.329 J-0.581 F600.
G1 X62.983
G2 Y9.8 I0. J2.4
G1 X97.321
G2 X99.65 Y7.981 I0. J-2.4
G1 Z1. F720.
G0 X59.224 Y13.1
G1 Z0.5 F30.
G2 X61.52 Y14.8 Z0.495 I2.296 J-0.7 F720.
G1 X86.15 Z0.457
G2 Y10. Z0.445 I0. J-2.4
G1 X61.52 Z0.407
G2 Y14.8 Z0.395 I0. J2.4
G1 X86.15 Z0.357
G2 Y10. Z0.345 I0. J-2.4
G1 X61.52 Z0.307
G2 Y14.8 Z0.295 I0. J2.4
G1 X86.15 Z0.257
G2 Y10. Z0.245 I0. J-2.4
G1 X61.52 Z0.207
G2 Y14.8 Z0.195 I0. J2.4
G1 X86.15 Z0.157
G2 Y10. Z0.145 I0. J-2.4
G1 X61.52 Z0.107
G2 Y14.8 Z0.095 I0. J2.4
G1 X86.15 Z0.057
G2 Y10. Z0.045 I0. J-2.4
G1 X61.52 Z0.007
G2 Y14.8 Z-0.005 I0. J2.4
G1 X86.15 Z-0.043
G2 Y10. Z-0.055 I0. J-2.4
G1 X61.52 Z-0.093
G2 Y14.8 Z-0.105 I0. J2.4
G1 X86.15 Z-0.143
G2 Y10. Z-0.155 I0. J-2.4
G1 X61.52 Z-0.193
G2 Y14.8 Z-0.205 I0. J2.4
G1 X86.15 Z-0.243
G2 Y10. Z-0.255 I0. J-2.4
G1 X61.52 Z-0.293
G2 Y14.8 Z-0.305 I0. J2.4
G1 X86.15 Z-0.343
G2 Y10. Z-0.355 I0. J-2.4
G1 X61.52 Z-0.393
G2 Y14.8 Z-0.405 I0. J2.4
G1 X86.15 Z-0.443
G2 Y10. Z-0.455 I0. J-2.4
G1 X61.52 Z-0.493
G2 Y14.8 Z-0.505 I0. J2.4
G1 X86.15 Z-0.543
G2 Y10. Z-0.555 I0. J-2.4
G1 X61.52 Z-0.593
G2 Y14.8 Z-0.605 I0. J2.4
G1 X86.15 Z-0.643
G2 Y10. Z-0.655 I0. J-2.4
G1 X61.52 Z-0.693
G2 Y14.8 Z-0.705 I0. J2.4
G1 X86.15 Z-0.743
G2 Y10. Z-0.755 I0. J-2.4
G1 X61.52 Z-0.793
G2 Y14.8 Z-0.805 I0. J2.4
G1 X86.15 Z-0.843
G2 Y10. Z-0.855 I0. J-2.4
G1 X61.52 Z-0.893
G2 Y14.8 Z-0.905 I0. J2.4
G1 X86.15 Z-0.943
G2 Y10. Z-0.955 I0. J-2.4
G1 X61.52 Z-0.993
G2 Y14.8 Z-1.005 I0. J2.4
G1 X86.15 Z-1.043
G2 Y10. Z-1.055 I0. J-2.4
G1 X61.52 Z-1.093
G2 Y14.8 Z-1.105 I0. J2.4
G1 X86.15 Z-1.143
G2 Y10. Z-1.155 I0. J-2.4
G1 X61.52 Z-1.193
G2 Y14.8 Z-1.205 I0. J2.4
G1 X86.15 Z-1.243
G2 Y10. Z-1.255 I0. J-2.4
G1 X61.52 Z-1.293
G2 Y14.8 Z-1.305 I0. J2.4
G1 X86.15 Z-1.343
G2 Y10. Z-1.355 I0. J-2.4
G1 X61.52 Z-1.393
G2 Y14.8 Z-1.405 I0. J2.4
G1 X86.15 Z-1.443
G2 Y10. Z-1.455 I0. J-2.4
G1 X61.52 Z-1.493
G2 Y14.8 Z-1.505 I0. J2.4
G1 X86.15 Z-1.543
G2 Y10. Z-1.555 I0. J-2.4
G1 X61.52 Z-1.593
G2 Y14.8 Z-1.605 I0. J2.4
G1 X86.15 Z-1.643
G2 Y10. Z-1.655 I0. J-2.4
G1 X61.52 Z-1.693
G2 Y14.8 Z-1.705 I0. J2.4
G1 X86.15 Z-1.743
G2 Y10. Z-1.755 I0. J-2.4
G1 X61.52 Z-1.793
G2 Y14.8 Z-1.805 I0. J2.4
G1 X86.15 Z-1.843
G2 Y10. Z-1.855 I0. J-2.4
G1 X61.52 Z-1.893
G2 Y14.8 Z-1.905 I0. J2.4
G1 X86.15 Z-1.943
G2 Y10. Z-1.955 I0. J-2.4
G1 X61.52 Z-1.993
G2 Y14.8 Z-2.005 I0. J2.4
G1 X86.15 Z-2.043
G2 Y10. Z-2.055 I0. J-2.4
G1 X61.52 Z-2.093
G2 Y14.8 Z-2.105 I0. J2.4
G1 X86.15 Z-2.143
G2 Y10. Z-2.155 I0. J-2.4
G1 X61.52 Z-2.193
G2 Y14.8 Z-2.205 I0. J2.4
G1 X86.15 Z-2.243
G2 Y10. Z-2.255 I0. J-2.4
G1 X61.52 Z-2.293
G2 Y14.8 Z-2.305 I0. J2.4
G1 X86.15 Z-2.343
G2 Y10. Z-2.355 I0. J-2.4
G1 X61.52 Z-2.393
G2 Y14.8 Z-2.405 I0. J2.4
G1 X86.15 Z-2.443
G2 Y10. Z-2.455 I0. J-2.4
G1 X61.52 Z-2.493
G2 Y14.8 Z-2.505 I0. J2.4
G1 X86.15 Z-2.543
G2 Y10. Z-2.555 I0. J-2.4
G1 X61.52 Z-2.593
G2 Y14.8 Z-2.605 I0. J2.4
G1 X86.15 Z-2.643
G2 Y10. Z-2.655 I0. J-2.4
G1 X61.52 Z-2.693
G2 Y14.8 Z-2.705 I0. J2.4
G1 X86.15 Z-2.743
G2 Y10. Z-2.755 I0. J-2.4
G1 X61.52 Z-2.793
G2 Y14.8 Z-2.805 I0. J2.4
G1 X86.15 Z-2.843
G2 Y10. Z-2.855 I0. J-2.4
G1 X61.52 Z-2.893
G2 Y14.8 Z-2.905 I0. J2.4
G1 X86.15 Z-2.943
G2 Y10. Z-2.955 I0. J-2.4
G1 X61.52 Z-2.993
G2 Y14.8 Z-3.005 I0. J2.4
G1 X86.15 Z-3.043
G2 Y10. Z-3.055 I0. J-2.4
G1 X61.52 Z-3.093
G2 Y14.8 Z-3.105 I0. J2.4
G1 X86.15 Z-3.143
G2 Y10. Z-3.155 I0. J-2.4
G1 X61.52 Z-3.193
G2 Y14.8 Z-3.205 I0. J2.4
G1 X86.15 Z-3.243
G2 Y10. Z-3.255 I0. J-2.4
G1 X61.52 Z-3.293
G2 Y14.8 Z-3.305 I0. J2.4
G1 X86.15 Z-3.343
G2 Y10. Z-3.355 I0. J-2.4
G1 X61.52 Z-3.393
G2 Y14.8 Z-3.405 I0. J2.4
G1 X86.15 Z-3.443
G2 Y10. Z-3.455 I0. J-2.4
G1 X61.52 Z-3.493
G2 Y14.8 Z-3.505 I0. J2.4
G1 X86.15 Z-3.543
G2 Y10. Z-3.555 I0. J-2.4
G1 X61.52 Z-3.593
G2 Y14.8 Z-3.605 I0. J2.4
G1 X86.15 Z-3.643
G2 Y10. Z-3.655 I0. J-2.4
G1 X61.52 Z-3.693
G2 Y14.8 Z-3.705 I0. J2.4
G1 X86.15 Z-3.743
G2 Y10. Z-3.755 I0. J-2.4
G1 X61.52 Z-3.793
G2 Y14.8 Z-3.805 I0. J2.4
G1 X86.15 Z-3.843
G2 Y10. Z-3.855 I0. J-2.4
G1 X61.52 Z-3.893
G2 Y14.8 Z-3.905 I0. J2.4
G1 X86.15 Z-3.943
G2 Y10. Z-3.955 I0. J-2.4
G1 X61.52 Z-3.993
G2 Y14.8 Z-4.005 I0. J2.4
G1 X86.15 Z-4.043
G2 Y10. Z-4.055 I0. J-2.4
G1 X61.52 Z-4.093
G2 Y14.8 Z-4.105 I0. J2.4
G1 X86.15 Z-4.143
G2 Y10. Z-4.155 I0. J-2.4
G1 X61.52 Z-4.193
G2 Y14.8 Z-4.205 I0. J2.4
G1 X86.15 Z-4.243
G2 Y10. Z-4.255 I0. J-2.4
G1 X61.52 Z-4.293
G2 Y14.8 Z-4.305 I0. J2.4
G1 X86.15 Z-4.343
G2 Y10. Z-4.355 I0. J-2.4
G1 X61.52 Z-4.393
G2 Y14.8 Z-4.405 I0. J2.4
G1 X86.15 Z-4.443
G2 Y10. Z-4.455 I0. J-2.4
G1 X61.52 Z-4.493
G2 Y14.8 Z-4.505 I0. J2.4
G1 X86.15 Z-4.543
G2 Y10. Z-4.555 I0. J-2.4
G1 X61.52 Z-4.593
G2 Y14.8 Z-4.605 I0. J2.4
G1 X86.15 Z-4.643
G2 Y10. Z-4.655 I0. J-2.4
G1 X61.52 Z-4.693
G2 Y14.8 Z-4.705 I0. J2.4
G1 X86.15 Z-4.743
G2 Y10. Z-4.755 I0. J-2.4
G1 X61.52 Z-4.793
G2 Y14.8 Z-4.805 I0. J2.4
G1 X86.15 Z-4.843
G2 Y10. Z-4.855 I0. J-2.4
G1 X61.52 Z-4.893
G2 Y14.8 Z-4.905 I0. J2.4
G1 X86.15 Z-4.943
G2 Y10. Z-4.955 I0. J-2.4
G1 X61.52 Z-4.993
G2 Y14.8 Z-5.005 I0. J2.4
G1 X86.15 Z-5.043
G2 Y10. Z-5.055 I0. J-2.4
G1 X61.52 Z-5.093
G2 Y14.8 Z-5.105 I0. J2.4
G1 X86.15 Z-5.143
G2 Y10. Z-5.155 I0. J-2.4
G1 X61.52 Z-5.193
G2 Y14.8 Z-5.205 I0. J2.4
G1 X86.15 Z-5.243
G2 Y10. Z-5.255 I0. J-2.4
G1 X61.52 Z-5.293
G2 Y14.8 Z-5.305 I0. J2.4
G1 X86.15 Z-5.343
G2 Y10. Z-5.355 I0. J-2.4
G1 X61.52 Z-5.393
G2 Y14.8 Z-5.405 I0. J2.4
G1 X86.15 Z-5.443
G2 Y10. Z-5.455 I0. J-2.4
G1 X61.52 Z-5.493
G2 Y14.8 Z-5.505 I0. J2.4
G1 X86.15 Z-5.543
G2 Y10. Z-5.555 I0. J-2.4
G1 X61.52 Z-5.593
G2 Y14.8 Z-5.605 I0. J2.4
G1 X86.15 Z-5.643
G2 Y10. Z-5.655 I0. J-2.4
G1 X61.52 Z-5.693
G2 Y14.8 Z-5.705 I0. J2.4
G1 X86.15 Z-5.743
G2 Y10. Z-5.755 I0. J-2.4
G1 X61.52 Z-5.793
G2 Y14.8 Z-5.805 I0. J2.4
G1 X86.15 Z-5.843
G2 Y10. Z-5.855 I0. J-2.4
G1 X61.52 Z-5.893
G2 Y14.8 Z-5.905 I0. J2.4
G1 X86.15 Z-5.943
G2 Y10. Z-5.955 I0. J-2.4
G1 X61.52 Z-5.993
G2 Y14.8 Z-6.005 I0. J2.4
G1 X86.15 Z-6.043
G2 Y10. Z-6.055 I0. J-2.4
G1 X61.52 Z-6.093
G2 Y14.8 Z-6.105 I0. J2.4
G1 X86.15 Z-6.143
G2 Y10. Z-6.155 I0. J-2.4
G1 X61.52 Z-6.193
G2 Y14.8 Z-6.205 I0. J2.4
G1 X86.15 Z-6.243
G2 Y10. Z-6.255 I0. J-2.4
G1 X61.52 Z-6.293
G2 Y14.8 Z-6.305 I0. J2.4
G1 X86.15 Z-6.343
G2 Y10. Z-6.355 I0. J-2.4
G1 X61.52 Z-6.393
G2 Y14.8 Z-6.405 I0. J2.4
G1 X86.15 Z-6.443
G2 Y10. Z-6.455 I0. J-2.4
G1 X61.52 Z-6.493
G2 Y14.8 Z-6.505 I0. J2.4
G1 X86.15 Z-6.543
G2 Y10. Z-6.555 I0. J-2.4
G1 X61.52 Z-6.593
G2 Y14.8 Z-6.605 I0. J2.4
G1 X86.15 Z-6.643
G2 Y10. Z-6.655 I0. J-2.4
G1 X61.52 Z-6.693
G2 Y14.8 Z-6.705 I0. J2.4
G1 X86.15 Z-6.743
G2 Y10. Z-6.755 I0. J-2.4
G1 X61.52 Z-6.793
G2 Y14.8 Z-6.805 I0. J2.4
G1 X86.15 Z-6.843
G2 Y10. Z-6.855 I0. J-2.4
G1 X61.52 Z-6.893
G2 Y14.8 Z-6.905 I0. J2.4
G1 X86.15 Z-6.943
G2 Y10. Z-6.955 I0. J-2.4
G1 X61.52 Z-6.993
G2 X59.224 Y13.1 Z-7. I0. J2.4
X61.52 Y14.8 I2.296 J-0.7 F600.
G1 X86.15
G2 Y10. I0. J-2.4
G1 X61.52
G2 X59.224 Y13.1 I0. J2.4
G1 Z1. F720.
G0 X8.25 Y12.419
G1 Z0.5 F30.
G2 X10.65 Y14.8 Z0.496 I2.4 J-0.019 F720.
G1 X46.12 Z0.454
G2 Y10. Z0.446 I0. J-2.4
G1 X10.65 Z0.404
G2 X8.25 Y12.4 Z0.4 I0. J2.4
G1 Y12.419
G2 X10.65 Y14.8 Z0.396 I2.4 J-0.019
G1 X46.12 Z0.354
G2 Y10. Z0.346 I0. J-2.4
G1 X10.65 Z0.304
G2 X8.25 Y12.4 Z0.3 I0. J2.4
G1 Y12.419
G2 X10.65 Y14.8 Z0.296 I2.4 J-0.019
G1 X46.12 Z0.254
G2 Y10. Z0.246 I0. J-2.4
G1 X10.65 Z0.204
G2 X8.25 Y12.4 Z0.2 I0. J2.4
G1 Y12.419
G2 X10.65 Y14.8 Z0.196 I2.4 J-0.019
G1 X46.12 Z0.154
G2 Y10. Z0.146 I0. J-2.4
G1 X10.65 Z0.104
G2 X8.25 Y12.4 Z0.1 I0. J2.4
G1 Y12.419
G2 X10.65 Y14.8 Z0.096 I2.4 J-0.019
G1 X46.12 Z0.054
G2 Y10. Z0.046 I0. J-2.4
G1 X10.65 Z0.004
G2 X8.25 Y12.4 Z0. I0. J2.4
G1 Y12.419
G2 X10.65 Y14.8 Z-0.004 I2.4 J-0.019
G1 X46.12 Z-0.046
G2 Y10. Z-0.054 I0. J-2.4
G1 X10.65 Z-0.096
G2 X8.25 Y12.4 Z-0.1 I0. J2.4
G1 Y12.419
G2 X10.65 Y14.8 Z-0.104 I2.4 J-0.019
G1 X46.12 Z-0.146
G2 Y10. Z-0.154 I0. J-2.4
G1 X10.65 Z-0.196
G2 X8.25 Y12.4 Z-0.2 I0. J2.4
G1 Y12.419
G2 X10.65 Y14.8 Z-0.204 I2.4 J-0.019
G1 X46.12 Z-0.246
G2 Y10. Z-0.254 I0. J-2.4
G1 X10.65 Z-0.296
G2 X8.25 Y12.4 Z-0.3 I0. J2.4
G1 Y12.419
G2 X10.65 Y14.8 Z-0.304 I2.4 J-0.019
G1 X46.12 Z-0.346
G2 Y10. Z-0.354 I0. J-2.4
G1 X10.65 Z-0.396
G2 X8.25 Y12.4 Z-0.4 I0. J2.4
G1 Y12.419
G2 X10.65 Y14.8 Z-0.404 I2.4 J-0.019
G1 X46.12 Z-0.446
G2 Y10. Z-0.454 I0. J-2.4
G1 X10.65 Z-0.496
G2 X8.25 Y12.4 Z-0.5 I0. J2.4
G1 Y12.419
G2 X10.65 Y14.8 Z-0.504 I2.4 J-0.019
G1 X46.12 Z-0.546
G2 Y10. Z-0.554 I0. J-2.4
G1 X10.65 Z-0.596
G2 X8.25 Y12.4 Z-0.6 I0. J2.4
G1 Y12.419
G2 X10.65 Y14.8 Z-0.604 I2.4 J-0.019
G1 X46.12 Z-0.646
G2 Y10. Z-0.654 I0. J-2.4
G1 X10.65 Z-0.696
G2 X8.25 Y12.4 Z-0.7 I0. J2.4
G1 Y12.419
G2 X10.65 Y14.8 Z-0.704 I2.4 J-0.019
G1 X46.12 Z-0.746
G2 Y10. Z-0.754 I0. J-2.4
G1 X10.65 Z-0.796
G2 X8.25 Y12.4 Z-0.8 I0. J2.4
G1 Y12.419
G2 X10.65 Y14.8 Z-0.804 I2.4 J-0.019
G1 X46.12 Z-0.846
G2 Y10. Z-0.854 I0. J-2.4
G1 X10.65 Z-0.896
G2 X8.25 Y12.4 Z-0.9 I0. J2.4
G1 Y12.419
G2 X10.65 Y14.8 Z-0.904 I2.4 J-0.019
G1 X46.12 Z-0.946
G2 Y10. Z-0.954 I0. J-2.4
G1 X10.65 Z-0.996
G2 X8.25 Y12.4 Z-1. I0. J2.4
G1 Y12.419
G2 X10.65 Y14.8 Z-1.004 I2.4 J-0.019
G1 X46.12 Z-1.046
G2 Y10. Z-1.054 I0. J-2.4
G1 X10.65 Z-1.096
G2 X8.25 Y12.4 Z-1.1 I0. J2.4
G1 Y12.419
G2 X10.65 Y14.8 Z-1.104 I2.4 J-0.019
G1 X46.12 Z-1.146
G2 Y10. Z-1.154 I0. J-2.4
G1 X10.65 Z-1.196
G2 X8.25 Y12.4 Z-1.2 I0. J2.4
G1 Y12.419
G2 X10.65 Y14.8 Z-1.204 I2.4 J-0.019
G1 X46.12 Z-1.246
G2 Y10. Z-1.254 I0. J-2.4
G1 X10.65 Z-1.296
G2 X8.25 Y12.4 Z-1.3 I0. J2.4
G1 Y12.419
G2 X10.65 Y14.8 Z-1.304 I2.4 J-0.019
G1 X46.12 Z-1.346
G2 Y10. Z-1.354 I0. J-2.4
G1 X10.65 Z-1.396
G2 X8.25 Y12.4 Z-1.4 I0. J2.4
G1 Y12.419
G2 X10.65 Y14.8 Z-1.404 I2.4 J-0.019
G1 X46.12 Z-1.446
G2 Y10. Z-1.454 I0. J-2.4
G1 X10.65 Z-1.496
G2 X8.25 Y12.4 Z-1.5 I0. J2.4
G1 Y12.419
G2 X10.65 Y14.8 Z-1.504 I2.4 J-0.019
G1 X46.12 Z-1.546
G2 Y10. Z-1.554 I0. J-2.4
G1 X10.65 Z-1.596
G2 X8.25 Y12.4 Z-1.6 I0. J2.4
G1 Y12.419
G2 X10.65 Y14.8 Z-1.604 I2.4 J-0.019
G1 X46.12 Z-1.646
G2 Y10. Z-1.654 I0. J-2.4
G1 X10.65 Z-1.696
G2 X8.25 Y12.4 Z-1.7 I0. J2.4
G1 Y12.419
G2 X10.65 Y14.8 Z-1.704 I2.4 J-0.019
G1 X46.12 Z-1.746
G2 Y10. Z-1.754 I0. J-2.4
G1 X10.65 Z-1.796
G2 X8.25 Y12.4 Z-1.8 I0. J2.4
G1 Y12.419
G2 X10.65 Y14.8 Z-1.804 I2.4 J-0.019
G1 X46.12 Z-1.846
G2 Y10. Z-1.854 I0. J-2.4
G1 X10.65 Z-1.896
G2 X8.25 Y12.4 Z-1.9 I0. J2.4
G1 Y12.419
G2 X10.65 Y14.8 Z-1.904 I2.4 J-0.019
G1 X46.12 Z-1.946
G2 Y10. Z-1.954 I0. J-2.4
G1 X10.65 Z-1.996
G2 X8.25 Y12.4 Z-2. I0. J2.4
G1 Y12.419
G2 X10.65 Y14.8 Z-2.004 I2.4 J-0.019
G1 X46.12 Z-2.046
G2 Y10. Z-2.054 I0. J-2.4
G1 X10.65 Z-2.096
G2 X8.25 Y12.4 Z-2.1 I0. J2.4
G1 Y12.419
G2 X10.65 Y14.8 Z-2.104 I2.4 J-0.019
G1 X46.12 Z-2.146
G2 Y10. Z-2.154 I0. J-2.4
G1 X10.65 Z-2.196
G2 X8.25 Y12.4 Z-2.2 I0. J2.4
G1 Y12.419
G2 X10.65 Y14.8 Z-2.204 I2.4 J-0.019
G1 X46.12 Z-2.246
G2 Y10. Z-2.254 I0. J-2.4
G1 X10.65 Z-2.296
G2 X8.25 Y12.4 Z-2.3 I0. J2.4
G1 Y12.419
G2 X10.65 Y14.8 Z-2.304 I2.4 J-0.019
G1 X46.12 Z-2.346
G2 Y10. Z-2.354 I0. J-2.4
G1 X10.65 Z-2.396
G2 X8.25 Y12.4 Z-2.4 I0. J2.4
G1 Y12.419
G2 X10.65 Y14.8 Z-2.404 I2.4 J-0.019
G1 X46.12 Z-2.446
G2 Y10. Z-2.454 I0. J-2.4
G1 X10.65 Z-2.496
G2 X8.25 Y12.4 Z-2.5 I0. J2.4
G1 Y12.419
G2 X10.65 Y14.8 Z-2.504 I2.4 J-0.019
G1 X46.12 Z-2.546
G2 Y10. Z-2.554 I0. J-2.4
G1 X10.65 Z-2.596
G2 X8.25 Y12.4 Z-2.6 I0. J2.4
G1 Y12.419
G2 X10.65 Y14.8 Z-2.604 I2.4 J-0.019
G1 X46.12 Z-2.646
G2 Y10. Z-2.654 I0. J-2.4
G1 X10.65 Z-2.696
G2 X8.25 Y12.4 Z-2.7 I0. J2.4
G1 Y12.419
G2 X10.65 Y14.8 Z-2.704 I2.4 J-0.019
G1 X46.12 Z-2.746
G2 Y10. Z-2.754 I0. J-2.4
G1 X10.65 Z-2.796
G2 X8.25 Y12.4 Z-2.8 I0. J2.4
G1 Y12.419
G2 X10.65 Y14.8 Z-2.804 I2.4 J-0.019
G1 X46.12 Z-2.846
G2 Y10. Z-2.854 I0. J-2.4
G1 X10.65 Z-2.896
G2 X8.25 Y12.4 Z-2.9 I0. J2.4
G1 Y12.419
G2 X10.65 Y14.8 Z-2.904 I2.4 J-0.019
G1 X46.12 Z-2.946
G2 Y10. Z-2.954 I0. J-2.4
G1 X10.65 Z-2.996
G2 X8.25 Y12.4 Z-3. I0. J2.4
G1 Y12.419
G2 X10.65 Y14.8 Z-3.004 I2.4 J-0.019
G1 X46.12 Z-3.046
G2 Y10. Z-3.054 I0. J-2.4
G1 X10.65 Z-3.096
G2 X8.25 Y12.4 Z-3.1 I0. J2.4
G1 Y12.419
G2 X10.65 Y14.8 Z-3.104 I2.4 J-0.019
G1 X46.12 Z-3.146
G2 Y10. Z-3.154 I0. J-2.4
G1 X10.65 Z-3.196
G2 X8.25 Y12.4 Z-3.2 I0. J2.4
G1 Y12.419
G2 X10.65 Y14.8 Z-3.204 I2.4 J-0.019
G1 X46.12 Z-3.246
G2 Y10. Z-3.254 I0. J-2.4
G1 X10.65 Z-3.296
G2 X8.25 Y12.4 Z-3.3 I0. J2.4
G1 Y12.419
G2 X10.65 Y14.8 Z-3.304 I2.4 J-0.019
G1 X46.12 Z-3.346
G2 Y10. Z-3.354 I0. J-2.4
G1 X10.65 Z-3.396
G2 X8.25 Y12.4 Z-3.4 I0. J2.4
G1 Y12.419
G2 X10.65 Y14.8 Z-3.404 I2.4 J-0.019
G1 X46.12 Z-3.446
G2 Y10. Z-3.454 I0. J-2.4
G1 X10.65 Z-3.496
G2 X8.25 Y12.4 Z-3.5 I0. J2.4
G1 Y12.419
G2 X10.65 Y14.8 Z-3.504 I2.4 J-0.019
G1 X46.12 Z-3.546
G2 Y10. Z-3.554 I0. J-2.4
G1 X10.65 Z-3.596
G2 X8.25 Y12.4 Z-3.6 I0. J2.4
G1 Y12.419
G2 X10.65 Y14.8 Z-3.604 I2.4 J-0.019
G1 X46.12 Z-3.646
G2 Y10. Z-3.654 I0. J-2.4
G1 X10.65 Z-3.696
G2 X8.25 Y12.4 Z-3.7 I0. J2.4
G1 Y12.419
G2 X10.65 Y14.8 Z-3.704 I2.4 J-0.019
G1 X46.12 Z-3.746
G2 Y10. Z-3.754 I0. J-2.4
G1 X10.65 Z-3.796
G2 X8.25 Y12.4 Z-3.8 I0. J2.4
G1 Y12.419
G2 X10.65 Y14.8 Z-3.804 I2.4 J-0.019
G1 X46.12 Z-3.846
G2 Y10. Z-3.854 I0. J-2.4
G1 X10.65 Z-3.896
G2 X8.25 Y12.4 Z-3.9 I0. J2.4
G1 Y12.419
G2 X10.65 Y14.8 Z-3.904 I2.4 J-0.019
G1 X46.12 Z-3.946
G2 Y10. Z-3.954 I0. J-2.4
G1 X10.65 Z-3.996
G2 X8.25 Y12.4 Z-4. I0. J2.4
G1 Y12.419
G2 X10.65 Y14.8 Z-4.004 I2.4 J-0.019
G1 X46.12 Z-4.046
G2 Y10. Z-4.054 I0. J-2.4
G1 X10.65 Z-4.096
G2 X8.25 Y12.4 Z-4.1 I0. J2.4
G1 Y12.419
G2 X10.65 Y14.8 Z-4.104 I2.4 J-0.019
G1 X46.12 Z-4.146
G2 Y10. Z-4.154 I0. J-2.4
G1 X10.65 Z-4.196
G2 X8.25 Y12.4 Z-4.2 I0. J2.4
G1 Y12.419
G2 X10.65 Y14.8 Z-4.204 I2.4 J-0.019
G1 X46.12 Z-4.246
G2 Y10. Z-4.254 I0. J-2.4
G1 X10.65 Z-4.296
G2 X8.25 Y12.4 Z-4.3 I0. J2.4
G1 Y12.419
G2 X10.65 Y14.8 Z-4.304 I2.4 J-0.019
G1 X46.12 Z-4.346
G2 Y10. Z-4.354 I0. J-2.4
G1 X10.65 Z-4.396
G2 X8.25 Y12.4 Z-4.4 I0. J2.4
G1 Y12.419
G2 X10.65 Y14.8 Z-4.404 I2.4 J-0.019
G1 X46.12 Z-4.446
G2 Y10. Z-4.454 I0. J-2.4
G1 X10.65 Z-4.496
G2 X8.25 Y12.4 Z-4.5 I0. J2.4
G1 Y12.419
G2 X10.65 Y14.8 Z-4.504 I2.4 J-0.019
G1 X46.12 Z-4.546
G2 Y10. Z-4.554 I0. J-2.4
G1 X10.65 Z-4.596
G2 X8.25 Y12.4 Z-4.6 I0. J2.4
G1 Y12.419
G2 X10.65 Y14.8 Z-4.604 I2.4 J-0.019
G1 X46.12 Z-4.646
G2 Y10. Z-4.654 I0. J-2.4
G1 X10.65 Z-4.696
G2 X8.25 Y12.4 Z-4.7 I0. J2.4
G1 Y12.419
G2 X10.65 Y14.8 Z-4.704 I2.4 J-0.019
G1 X46.12 Z-4.746
G2 Y10. Z-4.754 I0. J-2.4
G1 X10.65 Z-4.796
G2 X8.25 Y12.4 Z-4.8 I0. J2.4
G1 Y12.419
G2 X10.65 Y14.8 Z-4.804 I2.4 J-0.019
G1 X46.12 Z-4.846
G2 Y10. Z-4.854 I0. J-2.4
G1 X10.65 Z-4.896
G2 X8.25 Y12.4 Z-4.9 I0. J2.4
G1 Y12.419
G2 X10.65 Y14.8 Z-4.904 I2.4 J-0.019
G1 X46.12 Z-4.946
G2 Y10. Z-4.954 I0. J-2.4
G1 X10.65 Z-4.996
G2 X8.25 Y12.4 Z-5. I0. J2.4
G1 Y12.419
G2 X10.65 Y14.8 Z-5.004 I2.4 J-0.019
G1 X46.12 Z-5.046
G2 Y10. Z-5.054 I0. J-2.4
G1 X10.65 Z-5.096
G2 X8.25 Y12.4 Z-5.1 I0. J2.4
G1 Y12.419
G2 X10.65 Y14.8 Z-5.104 I2.4 J-0.019
G1 X46.12 Z-5.146
G2 Y10. Z-5.154 I0. J-2.4
G1 X10.65 Z-5.196
G2 X8.25 Y12.4 Z-5.2 I0. J2.4
G1 Y12.419
G2 X10.65 Y14.8 Z-5.204 I2.4 J-0.019
G1 X46.12 Z-5.246
G2 Y10. Z-5.254 I0. J-2.4
G1 X10.65 Z-5.296
G2 X8.25 Y12.4 Z-5.3 I0. J2.4
G1 Y12.419
G2 X10.65 Y14.8 Z-5.304 I2.4 J-0.019
G1 X46.12 Z-5.346
G2 Y10. Z-5.354 I0. J-2.4
G1 X10.65 Z-5.396
G2 X8.25 Y12.4 Z-5.4 I0. J2.4
G1 Y12.419
G2 X10.65 Y14.8 Z-5.404 I2.4 J-0.019
G1 X46.12 Z-5.446
G2 Y10. Z-5.454 I0. J-2.4
G1 X10.65 Z-5.496
G2 X8.25 Y12.4 Z-5.5 I0. J2.4
G1 Y12.419
G2 X10.65 Y14.8 Z-5.504 I2.4 J-0.019
G1 X46.12 Z-5.546
G2 Y10. Z-5.554 I0. J-2.4
G1 X10.65 Z-5.596
G2 X8.25 Y12.4 Z-5.6 I0. J2.4
G1 Y12.419
G2 X10.65 Y14.8 Z-5.604 I2.4 J-0.019
G1 X46.12 Z-5.646
G2 Y10. Z-5.654 I0. J-2.4
G1 X10.65 Z-5.696
G2 X8.25 Y12.4 Z-5.7 I0. J2.4
G1 Y12.419
G2 X10.65 Y14.8 Z-5.704 I2.4 J-0.019
G1 X46.12 Z-5.746
G2 Y10. Z-5.754 I0. J-2.4
G1 X10.65 Z-5.796
G2 X8.25 Y12.4 Z-5.8 I0. J2.4
G1 Y12.419
G2 X10.65 Y14.8 Z-5.804 I2.4 J-0.019
G1 X46.12 Z-5.846
G2 Y10. Z-5.854 I0. J-2.4
G1 X10.65 Z-5.896
G2 X8.25 Y12.4 Z-5.9 I0. J2.4
G1 Y12.419
G2 X10.65 Y14.8 Z-5.904 I2.4 J-0.019
G1 X46.12 Z-5.946
G2 Y10. Z-5.954 I0. J-2.4
G1 X10.65 Z-5.996
G2 X8.25 Y12.4 Z-6. I0. J2.4
G1 Y12.419
G2 X10.65 Y14.8 Z-6.004 I2.4 J-0.019
G1 X46.12 Z-6.046
G2 Y10. Z-6.054 I0. J-2.4
G1 X10.65 Z-6.096
G2 X8.25 Y12.4 Z-6.1 I0. J2.4
G1 Y12.419
G2 X10.65 Y14.8 Z-6.104 I2.4 J-0.019
G1 X46.12 Z-6.146
G2 Y10. Z-6.154 I0. J-2.4
G1 X10.65 Z-6.196
G2 X8.25 Y12.4 Z-6.2 I0. J2.4
G1 Y12.419
G2 X10.65 Y14.8 Z-6.204 I2.4 J-0.019
G1 X46.12 Z-6.246
G2 Y10. Z-6.254 I0. J-2.4
G1 X10.65 Z-6.296
G2 X8.25 Y12.4 Z-6.3 I0. J2.4
G1 Y12.419
G2 X10.65 Y14.8 Z-6.304 I2.4 J-0.019
G1 X46.12 Z-6.346
G2 Y10. Z-6.354 I0. J-2.4
G1 X10.65 Z-6.396
G2 X8.25 Y12.4 Z-6.4 I0. J2.4
G1 Y12.419
G2 X10.65 Y14.8 Z-6.404 I2.4 J-0.019
G1 X46.12 Z-6.446
G2 Y10. Z-6.454 I0. J-2.4
G1 X10.65 Z-6.496
G2 X8.25 Y12.4 Z-6.5 I0. J2.4
G1 Y12.419
G2 X10.65 Y14.8 Z-6.504 I2.4 J-0.019
G1 X46.12 Z-6.546
G2 Y10. Z-6.554 I0. J-2.4
G1 X10.65 Z-6.596
G2 X8.25 Y12.4 Z-6.6 I0. J2.4
G1 Y12.419
G2 X10.65 Y14.8 Z-6.604 I2.4 J-0.019
G1 X46.12 Z-6.646
G2 Y10. Z-6.654 I0. J-2.4
G1 X10.65 Z-6.696
G2 X8.25 Y12.4 Z-6.7 I0. J2.4
G1 Y12.419
G2 X10.65 Y14.8 Z-6.704 I2.4 J-0.019
G1 X46.12 Z-6.746
G2 Y10. Z-6.754 I0. J-2.4
G1 X10.65 Z-6.796
G2 X8.25 Y12.4 Z-6.8 I0. J2.4
G1 Y12.419
G2 X10.65 Y14.8 Z-6.804 I2.4 J-0.019
G1 X46.12 Z-6.846
G2 Y10. Z-6.854 I0. J-2.4
G1 X10.65 Z-6.896
G2 X8.25 Y12.4 Z-6.9 I0. J2.4
G1 Y12.419
G2 X10.65 Y14.8 Z-6.904 I2.4 J-0.019
G1 X46.12 Z-6.946
G2 Y10. Z-6.954 I0. J-2.4
G1 X10.65 Z-6.996
G2 X8.25 Y12.4 Z-7. I0. J2.4
G1 Y12.419
G2 X10.65 Y14.8 I2.4 J-0.019 F600.
G1 X46.12
G2 Y10. I0. J-2.4
G1 X10.65
G2 X8.25 Y12.419 I0. J2.4
G1 Z1. F720.
G0 X52.174 Y9.643
G1 Z0.5 F30.
G2 X51.321 Y5. Z0.491 I-0.853 J-2.243 F720.
G1 X20.581 Z0.451
G2 Y9.8 Z0.441 I0. J2.4
G1 X51.321 Z0.401
G2 Y5. Z0.391 I0. J-2.4
G1 X20.581 Z0.351
G2 Y9.8 Z0.341 I0. J2.4
G1 X51.321 Z0.301
G2 Y5. Z0.291 I0. J-2.4
G1 X20.581 Z0.251
G2 Y9.8 Z0.241 I0. J2.4
G1 X51.321 Z0.201
G2 Y5. Z0.191 I0. J-2.4
G1 X20.581 Z0.151
G2 Y9.8 Z0.141 I0. J2.4
G1 X51.321 Z0.101
G2 Y5. Z0.091 I0. J-2.4
G1 X20.581 Z0.051
G2 Y9.8 Z0.041 I0. J2.4
G1 X51.321 Z0.001
G2 Y5. Z-0.009 I0. J-2.4
G1 X20.581 Z-0.049
G2 Y9.8 Z-0.059 I0. J2.4
G1 X51.321 Z-0.099
G2 Y5. Z-0.109 I0. J-2.4
G1 X20.581 Z-0.149
G2 Y9.8 Z-0.159 I0. J2.4
G1 X51.321 Z-0.199
G2 Y5. Z-0.209 I0. J-2.4
G1 X20.581 Z-0.249
G2 Y9.8 Z-0.259 I0. J2.4
G1 X51.321 Z-0.299
G2 Y5. Z-0.309 I0. J-2.4
G1 X20.581 Z-0.349
G2 Y9.8 Z-0.359 I0. J2.4
G1 X51.321 Z-0.399
G2 Y5. Z-0.409 I0. J-2.4
G1 X20.581 Z-0.449
G2 Y9.8 Z-0.459 I0. J2.4
G1 X51.321 Z-0.499
G2 Y5. Z-0.509 I0. J-2.4
G1 X20.581 Z-0.549
G2 Y9.8 Z-0.559 I0. J2.4
G1 X51.321 Z-0.599
G2 Y5. Z-0.609 I0. J-2.4
G1 X20.581 Z-0.649
G2 Y9.8 Z-0.659 I0. J2.4
G1 X51.321 Z-0.699
G2 Y5. Z-0.709 I0. J-2.4
G1 X20.581 Z-0.749
G2 Y9.8 Z-0.759 I0. J2.4
G1 X51.321 Z-0.799
G2 Y5. Z-0.809 I0. J-2.4
G1 X20.581 Z-0.849
G2 Y9.8 Z-0.859 I0. J2.4
G1 X51.321 Z-0.899
G2 Y5. Z-0.909 I0. J-2.4
G1 X20.581 Z-0.949
G2 Y9.8 Z-0.959 I0. J2.4
G1 X51.321 Z-0.999
G2 Y5. Z-1.009 I0. J-2.4
G1 X20.581 Z-1.049
G2 Y9.8 Z-1.059 I0. J2.4
G1 X51.321 Z-1.099
G2 Y5. Z-1.109 I0. J-2.4
G1 X20.581 Z-1.149
G2 Y9.8 Z-1.159 I0. J2.4
G1 X51.321 Z-1.199
G2 Y5. Z-1.209 I0. J-2.4
G1 X20.581 Z-1.249
G2 Y9.8 Z-1.259 I0. J2.4
G1 X51.321 Z-1.299
G2 Y5. Z-1.309 I0. J-2.4
G1 X20.581 Z-1.349
G2 Y9.8 Z-1.359 I0. J2.4
G1 X51.321 Z-1.399
G2 Y5. Z-1.409 I0. J-2.4
G1 X20.581 Z-1.449
G2 Y9.8 Z-1.459 I0. J2.4
G1 X51.321 Z-1.499
G2 Y5. Z-1.509 I0. J-2.4
G1 X20.581 Z-1.549
G2 Y9.8 Z-1.559 I0. J2.4
G1 X51.321 Z-1.599
G2 Y5. Z-1.609 I0. J-2.4
G1 X20.581 Z-1.649
G2 Y9.8 Z-1.659 I0. J2.4
G1 X51.321 Z-1.699
G2 Y5. Z-1.709 I0. J-2.4
G1 X20.581 Z-1.749
G2 Y9.8 Z-1.759 I0. J2.4
G1 X51.321 Z-1.799
G2 Y5. Z-1.809 I0. J-2.4
G1 X20.581 Z-1.849
G2 Y9.8 Z-1.859 I0. J2.4
G1 X51.321 Z-1.899
G2 Y5. Z-1.909 I0. J-2.4
G1 X20.581 Z-1.949
G2 Y9.8 Z-1.959 I0. J2.4
G1 X51.321 Z-1.999
G2 Y5. Z-2.009 I0. J-2.4
G1 X20.581 Z-2.049
G2 Y9.8 Z-2.059 I0. J2.4
G1 X51.321 Z-2.099
G2 Y5. Z-2.109 I0. J-2.4
G1 X20.581 Z-2.149
G2 Y9.8 Z-2.159 I0. J2.4
G1 X51.321 Z-2.199
G2 Y5. Z-2.209 I0. J-2.4
G1 X20.581 Z-2.249
G2 Y9.8 Z-2.259 I0. J2.4
G1 X51.321 Z-2.299
G2 Y5. Z-2.309 I0. J-2.4
G1 X20.581 Z-2.349
G2 Y9.8 Z-2.359 I0. J2.4
G1 X51.321 Z-2.399
G2 Y5. Z-2.409 I0. J-2.4
G1 X20.581 Z-2.449
G2 Y9.8 Z-2.459 I0. J2.4
G1 X51.321 Z-2.499
G2 Y5. Z-2.509 I0. J-2.4
G1 X20.581 Z-2.549
G2 Y9.8 Z-2.559 I0. J2.4
G1 X51.321 Z-2.599
G2 Y5. Z-2.609 I0. J-2.4
G1 X20.581 Z-2.649
G2 Y9.8 Z-2.659 I0. J2.4
G1 X51.321 Z-2.699
G2 Y5. Z-2.709 I0. J-2.4
G1 X20.581 Z-2.749
G2 Y9.8 Z-2.759 I0. J2.4
G1 X51.321 Z-2.799
G2 Y5. Z-2.809 I0. J-2.4
G1 X20.581 Z-2.849
G2 Y9.8 Z-2.859 I0. J2.4
G1 X51.321 Z-2.899
G2 Y5. Z-2.909 I0. J-2.4
G1 X20.581 Z-2.949
G2 Y9.8 Z-2.959 I0. J2.4
G1 X51.321 Z-2.999
G2 Y5. Z-3.009 I0. J-2.4
G1 X20.581 Z-3.049
G2 Y9.8 Z-3.059 I0. J2.4
G1 X51.321 Z-3.099
G2 Y5. Z-3.109 I0. J-2.4
G1 X20.581 Z-3.149
G2 Y9.8 Z-3.159 I0. J2.4
G1 X51.321 Z-3.199
G2 Y5. Z-3.209 I0. J-2.4
G1 X20.581 Z-3.249
G2 Y9.8 Z-3.259 I0. J2.4
G1 X51.321 Z-3.299
G2 Y5. Z-3.309 I0. J-2.4
G1 X20.581 Z-3.349
G2 Y9.8 Z-3.359 I0. J2.4
G1 X51.321 Z-3.399
G2 Y5. Z-3.409 I0. J-2.4
G1 X20.581 Z-3.449
G2 Y9.8 Z-3.459 I0. J2.4
G1 X51.321 Z-3.499
G2 Y5. Z-3.509 I0. J-2.4
G1 X20.581 Z-3.549
G2 Y9.8 Z-3.559 I0. J2.4
G1 X51.321 Z-3.599
G2 Y5. Z-3.609 I0. J-2.4
G1 X20.581 Z-3.649
G2 Y9.8 Z-3.659 I0. J2.4
G1 X51.321 Z-3.699
G2 Y5. Z-3.709 I0. J-2.4
G1 X20.581 Z-3.749
G2 Y9.8 Z-3.759 I0. J2.4
G1 X51.321 Z-3.799
G2 Y5. Z-3.809 I0. J-2.4
G1 X20.581 Z-3.849
G2 Y9.8 Z-3.859 I0. J2.4
G1 X51.321 Z-3.899
G2 Y5. Z-3.909 I0. J-2.4
G1 X20.581 Z-3.949
G2 Y9.8 Z-3.959 I0. J2.4
G1 X51.321 Z-3.999
G2 Y5. Z-4.009 I0. J-2.4
G1 X20.581 Z-4.049
G2 Y9.8 Z-4.059 I0. J2.4
G1 X51.321 Z-4.099
G2 Y5. Z-4.109 I0. J-2.4
G1 X20.581 Z-4.149
G2 Y9.8 Z-4.159 I0. J2.4
G1 X51.321 Z-4.199
G2 Y5. Z-4.209 I0. J-2.4
G1 X20.581 Z-4.249
G2 Y9.8 Z-4.259 I0. J2.4
G1 X51.321 Z-4.299
G2 Y5. Z-4.309 I0. J-2.4
G1 X20.581 Z-4.349
G2 Y9.8 Z-4.359 I0. J2.4
G1 X51.321 Z-4.399
G2 Y5. Z-4.409 I0. J-2.4
G1 X20.581 Z-4.449
G2 Y9.8 Z-4.459 I0. J2.4
G1 X51.321 Z-4.499
G2 Y5. Z-4.509 I0. J-2.4
G1 X20.581 Z-4.549
G2 Y9.8 Z-4.559 I0. J2.4
G1 X51.321 Z-4.599
G2 Y5. Z-4.609 I0. J-2.4
G1 X20.581 Z-4.649
G2 Y9.8 Z-4.659 I0. J2.4
G1 X51.321 Z-4.699
G2 Y5. Z-4.709 I0. J-2.4
G1 X20.581 Z-4.749
G2 Y9.8 Z-4.759 I0. J2.4
G1 X51.321 Z-4.799
G2 Y5. Z-4.809 I0. J-2.4
G1 X20.581 Z-4.849
G2 Y9.8 Z-4.859 I0. J2.4
G1 X51.321 Z-4.899
G2 Y5. Z-4.909 I0. J-2.4
G1 X20.581 Z-4.949
G2 Y9.8 Z-4.959 I0. J2.4
G1 X51.321 Z-4.999
G2 Y5. Z-5.009 I0. J-2.4
G1 X20.581 Z-5.049
G2 Y9.8 Z-5.059 I0. J2.4
G1 X51.321 Z-5.099
G2 Y5. Z-5.109 I0. J-2.4
G1 X20.581 Z-5.149
G2 Y9.8 Z-5.159 I0. J2.4
G1 X51.321 Z-5.199
G2 Y5. Z-5.209 I0. J-2.4
G1 X20.581 Z-5.249
G2 Y9.8 Z-5.259 I0. J2.4
G1 X51.321 Z-5.299
G2 Y5. Z-5.309 I0. J-2.4
G1 X20.581 Z-5.349
G2 Y9.8 Z-5.359 I0. J2.4
G1 X51.321 Z-5.399
G2 Y5. Z-5.409 I0. J-2.4
G1 X20.581 Z-5.449
G2 Y9.8 Z-5.459 I0. J2.4
G1 X51.321 Z-5.499
G2 Y5. Z-5.509 I0. J-2.4
G1 X20.581 Z-5.549
G2 Y9.8 Z-5.559 I0. J2.4
G1 X51.321 Z-5.599
G2 Y5. Z-5.609 I0. J-2.4
G1 X20.581 Z-5.649
G2 Y9.8 Z-5.659 I0. J2.4
G1 X51.321 Z-5.699
G2 Y5. Z-5.709 I0. J-2.4
G1 X20.581 Z-5.749
G2 Y9.8 Z-5.759 I0. J2.4
G1 X51.321 Z-5.799
G2 Y5. Z-5.809 I0. J-2.4
G1 X20.581 Z-5.849
G2 Y9.8 Z-5.859 I0. J2.4
G1 X51.321 Z-5.899
G2 Y5. Z-5.909 I0. J-2.4
G1 X20.581 Z-5.949
G2 Y9.8 Z-5.959 I0. J2.4
G1 X51.321 Z-5.999
G2 Y5. Z-6.009 I0. J-2.4
G1 X20.581 Z-6.049
G2 Y9.8 Z-6.059 I0. J2.4
G1 X51.321 Z-6.099
G2 Y5. Z-6.109 I0. J-2.4
G1 X20.581 Z-6.149
G2 Y9.8 Z-6.159 I0. J2.4
G1 X51.321 Z-6.199
G2 Y5. Z-6.209 I0. J-2.4
G1 X20.581 Z-6.249
G2 Y9.8 Z-6.259 I0. J2.4
G1 X51.321 Z-6.299
G2 Y5. Z-6.309 I0. J-2.4
G1 X20.581 Z-6.349
G2 Y9.8 Z-6.359 I0. J2.4
G1 X51.321 Z-6.399
G2 Y5. Z-6.409 I0. J-2.4
G1 X20.581 Z-6.449
G2 Y9.8 Z-6.459 I0. J2.4
G1 X51.321 Z-6.499
G2 Y5. Z-6.509 I0. J-2.4
G1 X20.581 Z-6.549
G2 Y9.8 Z-6.559 I0. J2.4
G1 X51.321 Z-6.599
G2 Y5. Z-6.609 I0. J-2.4
G1 X20.581 Z-6.649
G2 Y9.8 Z-6.659 I0. J2.4
G1 X51.321 Z-6.699
G2 Y5. Z-6.709 I0. J-2.4
G1 X20.581 Z-6.749
G2 Y9.8 Z-6.759 I0. J2.4
G1 X51.321 Z-6.799
G2 Y5. Z-6.809 I0. J-2.4
G1 X20.581 Z-6.849
G2 Y9.8 Z-6.859 I0. J2.4
G1 X51.321 Z-6.899
G2 Y5. Z-6.909 I0. J-2.4
G1 X20.581 Z-6.949
G2 Y9.8 Z-6.959 I0. J2.4
G1 X51.321 Z-6.999
G2 X52.174 Y9.643 Z-7. I0. J-2.4
X51.321 Y5. I-0.853 J-2.243 F600.
G1 X20.581
G2 Y9.8 I0. J2.4
G1 X51.321
G2 X52.174 Y9.643 I0. J-2.4
G1 Z1. F720.
G0 X52.967 Y0.001
G1 Z0.5 F30.
X52.909 Y0. F720.
X18.993 Z0.459
G2 Y4.8 Z0.45 I0. J2.4
G1 X52.909 Z0.409
G2 X52.967 Y0.001 Z0.4 I0. J-2.4
G1 X52.909 Y0.
X18.993 Z0.359
G2 Y4.8 Z0.35 I0. J2.4
G1 X52.909 Z0.309
G2 X52.967 Y0.001 Z0.3 I0. J-2.4
G1 X52.909 Y0.
X18.993 Z0.259
G2 Y4.8 Z0.25 I0. J2.4
G1 X52.909 Z0.209
G2 X52.967 Y0.001 Z0.2 I0. J-2.4
G1 X52.909 Y0.
X18.993 Z0.159
G2 Y4.8 Z0.15 I0. J2.4
G1 X52.909 Z0.109
G2 X52.967 Y0.001 Z0.1 I0. J-2.4
G1 X52.909 Y0.
X18.993 Z0.059
G2 Y4.8 Z0.05 I0. J2.4
G1 X52.909 Z0.009
G2 X52.967 Y0.001 Z0. I0. J-2.4
G1 X52.909 Y0.
X18.993 Z-0.041
G2 Y4.8 Z-0.05 I0. J2.4
G1 X52.909 Z-0.091
G2 X52.967 Y0.001 Z-0.1 I0. J-2.4
G1 X52.909 Y0.
X18.993 Z-0.141
G2 Y4.8 Z-0.15 I0. J2.4
G1 X52.909 Z-0.191
G2 X52.967 Y0.001 Z-0.2 I0. J-2.4
G1 X52.909 Y0.
X18.993 Z-0.241
G2 Y4.8 Z-0.25 I0. J2.4
G1 X52.909 Z-0.291
G2 X52.967 Y0.001 Z-0.3 I0. J-2.4
G1 X52.909 Y0.
X18.993 Z-0.341
G2 Y4.8 Z-0.35 I0. J2.4
G1 X52.909 Z-0.391
G2 X52.967 Y0.001 Z-0.4 I0. J-2.4
G1 X52.909 Y0.
X18.993 Z-0.441
G2 Y4.8 Z-0.45 I0. J2.4
G1 X52.909 Z-0.491
G2 X52.967 Y0.001 Z-0.5 I0. J-2.4
G1 X52.909 Y0.
X18.993 Z-0.541
G2 Y4.8 Z-0.55 I0. J2.4
G1 X52.909 Z-0.591
G2 X52.967 Y0.001 Z-0.6 I0. J-2.4
G1 X52.909 Y0.
X18.993 Z-0.641
G2 Y4.8 Z-0.65 I0. J2.4
G1 X52.909 Z-0.691
G2 X52.967 Y0.001 Z-0.7 I0. J-2.4
G1 X52.909 Y0.
X18.993 Z-0.741
G2 Y4.8 Z-0.75 I0. J2.4
G1 X52.909 Z-0.791
G2 X52.967 Y0.001 Z-0.8 I0. J-2.4
G1 X52.909 Y0.
X18.993 Z-0.841
G2 Y4.8 Z-0.85 I0. J2.4
G1 X52.909 Z-0.891
G2 X52.967 Y0.001 Z-0.9 I0. J-2.4
G1 X52.909 Y0.
X18.993 Z-0.941
G2 Y4.8 Z-0.95 I0. J2.4
G1 X52.909 Z-0.991
G2 X52.967 Y0.001 Z-1. I0. J-2.4
G1 X52.909 Y0.
X18.993 Z-1.041
G2 Y4.8 Z-1.05 I0. J2.4
G1 X52.909 Z-1.091
G2 X52.967 Y0.001 Z-1.1 I0. J-2.4
G1 X52.909 Y0.
X18.993 Z-1.141
G2 Y4.8 Z-1.15 I0. J2.4
G1 X52.909 Z-1.191
G2 X52.967 Y0.001 Z-1.2 I0. J-2.4
G1 X52.909 Y0.
X18.993 Z-1.241
G2 Y4.8 Z-1.25 I0. J2.4
G1 X52.909 Z-1.291
G2 X52.967 Y0.001 Z-1.3 I0. J-2.4
G1 X52.909 Y0.
X18.993 Z-1.341
G2 Y4.8 Z-1.35 I0. J2.4
G1 X52.909 Z-1.391
G2 X52.967 Y0.001 Z-1.4 I0. J-2.4
G1 X52.909 Y0.
X18.993 Z-1.441
G2 Y4.8 Z-1.45 I0. J2.4
G1 X52.909 Z-1.491
G2 X52.967 Y0.001 Z-1.5 I0. J-2.4
G1 X52.909 Y0.
X18.993 Z-1.541
G2 Y4.8 Z-1.55 I0. J2.4
G1 X52.909 Z-1.591
G2 X52.967 Y0.001 Z-1.6 I0. J-2.4
G1 X52.909 Y0.
X18.993 Z-1.641
G2 Y4.8 Z-1.65 I0. J2.4
G1 X52.909 Z-1.691
G2 X52.967 Y0.001 Z-1.7 I0. J-2.4
G1 X52.909 Y0.
X18.993 Z-1.741
G2 Y4.8 Z-1.75 I0. J2.4
G1 X52.909 Z-1.791
G2 X52.967 Y0.001 Z-1.8 I0. J-2.4
G1 X52.909 Y0.
X18.993 Z-1.841
G2 Y4.8 Z-1.85 I0. J2.4
G1 X52.909 Z-1.891
G2 X52.967 Y0.001 Z-1.9 I0. J-2.4
G1 X52.909 Y0.
X18.993 Z-1.941
G2 Y4.8 Z-1.95 I0. J2.4
G1 X52.909 Z-1.991
G2 X52.967 Y0.001 Z-2. I0. J-2.4
G1 X52.909 Y0.
X18.993 Z-2.041
G2 Y4.8 Z-2.05 I0. J2.4
G1 X52.909 Z-2.091
G2 X52.967 Y0.001 Z-2.1 I0. J-2.4
G1 X52.909 Y0.
X18.993 Z-2.141
G2 Y4.8 Z-2.15 I0. J2.4
G1 X52.909 Z-2.191
G2 X52.967 Y0.001 Z-2.2 I0. J-2.4
G1 X52.909 Y0.
X18.993 Z-2.241
G2 Y4.8 Z-2.25 I0. J2.4
G1 X52.909 Z-2.291
G2 X52.967 Y0.001 Z-2.3 I0. J-2.4
G1 X52.909 Y0.
X18.993 Z-2.341
G2 Y4.8 Z-2.35 I0. J2.4
G1 X52.909 Z-2.391
G2 X52.967 Y0.001 Z-2.4 I0. J-2.4
G1 X52.909 Y0.
X18.993 Z-2.441
G2 Y4.8 Z-2.45 I0. J2.4
G1 X52.909 Z-2.491
G2 X52.967 Y0.001 Z-2.5 I0. J-2.4
G1 X52.909 Y0.
X18.993 Z-2.541
G2 Y4.8 Z-2.55 I0. J2.4
G1 X52.909 Z-2.591
G2 X52.967 Y0.001 Z-2.6 I0. J-2.4
G1 X52.909 Y0.
X18.993 Z-2.641
G2 Y4.8 Z-2.65 I0. J2.4
G1 X52.909 Z-2.691
G2 X52.967 Y0.001 Z-2.7 I0. J-2.4
G1 X52.909 Y0.
X18.993 Z-2.741
G2 Y4.8 Z-2.75 I0. J2.4
G1 X52.909 Z-2.791
G2 X52.967 Y0.001 Z-2.8 I0. J-2.4
G1 X52.909 Y0.
X18.993 Z-2.841
G2 Y4.8 Z-2.85 I0. J2.4
G1 X52.909 Z-2.891
G2 X52.967 Y0.001 Z-2.9 I0. J-2.4
G1 X52.909 Y0.
X18.993 Z-2.941
G2 Y4.8 Z-2.95 I0. J2.4
G1 X52.909 Z-2.991
G2 X52.967 Y0.001 Z-3. I0. J-2.4
G1 X52.909 Y0.
X18.993 Z-3.041
G2 Y4.8 Z-3.05 I0. J2.4
G1 X52.909 Z-3.091
G2 X52.967 Y0.001 Z-3.1 I0. J-2.4
G1 X52.909 Y0.
X18.993 Z-3.141
G2 Y4.8 Z-3.15 I0. J2.4
G1 X52.909 Z-3.191
G2 X52.967 Y0.001 Z-3.2 I0. J-2.4
G1 X52.909 Y0.
X18.993 Z-3.241
G2 Y4.8 Z-3.25 I0. J2.4
G1 X52.909 Z-3.291
G2 X52.967 Y0.001 Z-3.3 I0. J-2.4
G1 X52.909 Y0.
X18.993 Z-3.341
G2 Y4.8 Z-3.35 I0. J2.4
G1 X52.909 Z-3.391
G2 X52.967 Y0.001 Z-3.4 I0. J-2.4
G1 X52.909 Y0.
X18.993 Z-3.441
G2 Y4.8 Z-3.45 I0. J2.4
G1 X52.909 Z-3.491
G2 X52.967 Y0.001 Z-3.5 I0. J-2.4
G1 X52.909 Y0.
X18.993 Z-3.541
G2 Y4.8 Z-3.55 I0. J2.4
G1 X52.909 Z-3.591
G2 X52.967 Y0.001 Z-3.6 I0. J-2.4
G1 X52.909 Y0.
X18.993 Z-3.641
G2 Y4.8 Z-3.65 I0. J2.4
G1 X52.909 Z-3.691
G2 X52.967 Y0.001 Z-3.7 I0. J-2.4
G1 X52.909 Y0.
X18.993 Z-3.741
G2 Y4.8 Z-3.75 I0. J2.4
G1 X52.909 Z-3.791
G2 X52.967 Y0.001 Z-3.8 I0. J-2.4
G1 X52.909 Y0.
X18.993 Z-3.841
G2 Y4.8 Z-3.85 I0. J2.4
G1 X52.909 Z-3.891
G2 X52.967 Y0.001 Z-3.9 I0. J-2.4
G1 X52.909 Y0.
X18.993 Z-3.941
G2 Y4.8 Z-3.95 I0. J2.4
G1 X52.909 Z-3.991
G2 X52.967 Y0.001 Z-4. I0. J-2.4
G1 X52.909 Y0.
X18.993 Z-4.041
G2 Y4.8 Z-4.05 I0. J2.4
G1 X52.909 Z-4.091
G2 X52.967 Y0.001 Z-4.1 I0. J-2.4
G1 X52.909 Y0.
X18.993 Z-4.141
G2 Y4.8 Z-4.15 I0. J2.4
G1 X52.909 Z-4.191
G2 X52.967 Y0.001 Z-4.2 I0. J-2.4
G1 X52.909 Y0.
X18.993 Z-4.241
G2 Y4.8 Z-4.25 I0. J2.4
G1 X52.909 Z-4.291
G2 X52.967 Y0.001 Z-4.3 I0. J-2.4
G1 X52.909 Y0.
X18.993 Z-4.341
G2 Y4.8 Z-4.35 I0. J2.4
G1 X52.909 Z-4.391
G2 X52.967 Y0.001 Z-4.4 I0. J-2.4
G1 X52.909 Y0.
X18.993 Z-4.441
G2 Y4.8 Z-4.45 I0. J2.4
G1 X52.909 Z-4.491
G2 X52.967 Y0.001 Z-4.5 I0. J-2.4
G1 X52.909 Y0.
X18.993 Z-4.541
G2 Y4.8 Z-4.55 I0. J2.4
G1 X52.909 Z-4.591
G2 X52.967 Y0.001 Z-4.6 I0. J-2.4
G1 X52.909 Y0.
X18.993 Z-4.641
G2 Y4.8 Z-4.65 I0. J2.4
G1 X52.909 Z-4.691
G2 X52.967 Y0.001 Z-4.7 I0. J-2.4
G1 X52.909 Y0.
X18.993 Z-4.741
G2 Y4.8 Z-4.75 I0. J2.4
G1 X52.909 Z-4.791
G2 X52.967 Y0.001 Z-4.8 I0. J-2.4
G1 X52.909 Y0.
X18.993 Z-4.841
G2 Y4.8 Z-4.85 I0. J2.4
G1 X52.909 Z-4.891
G2 X52.967 Y0.001 Z-4.9 I0. J-2.4
G1 X52.909 Y0.
X18.993 Z-4.941
G2 Y4.8 Z-4.95 I0. J2.4
G1 X52.909 Z-4.991
G2 X52.967 Y0.001 Z-5. I0. J-2.4
G1 X52.909 Y0.
X18.993 Z-5.041
G2 Y4.8 Z-5.05 I0. J2.4
G1 X52.909 Z-5.091
G2 X52.967 Y0.001 Z-5.1 I0. J-2.4
G1 X52.909 Y0.
X18.993 Z-5.141
G2 Y4.8 Z-5.15 I0. J2.4
G1 X52.909 Z-5.191
G2 X52.967 Y0.001 Z-5.2 I0. J-2.4
G1 X52.909 Y0.
X18.993 Z-5.241
G2 Y4.8 Z-5.25 I0. J2.4
G1 X52.909 Z-5.291
G2 X52.967 Y0.001 Z-5.3 I0. J-2.4
G1 X52.909 Y0.
X18.993 Z-5.341
G2 Y4.8 Z-5.35 I0. J2.4
G1 X52.909 Z-5.391
G2 X52.967 Y0.001 Z-5.4 I0. J-2.4
G1 X52.909 Y0.
X18.993 Z-5.441
G2 Y4.8 Z-5.45 I0. J2.4
G1 X52.909 Z-5.491
G2 X52.967 Y0.001 Z-5.5 I0. J-2.4
G1 X52.909 Y0.
X18.993 Z-5.541
G2 Y4.8 Z-5.55 I0. J2.4
G1 X52.909 Z-5.591
G2 X52.967 Y0.001 Z-5.6 I0. J-2.4
G1 X52.909 Y0.
X18.993 Z-5.641
G2 Y4.8 Z-5.65 I0. J2.4
G1 X52.909 Z-5.691
G2 X52.967 Y0.001 Z-5.7 I0. J-2.4
G1 X52.909 Y0.
X18.993 Z-5.741
G2 Y4.8 Z-5.75 I0. J2.4
G1 X52.909 Z-5.791
G2 X52.967 Y0.001 Z-5.8 I0. J-2.4
G1 X52.909 Y0.
X18.993 Z-5.841
G2 Y4.8 Z-5.85 I0. J2.4
G1 X52.909 Z-5.891
G2 X52.967 Y0.001 Z-5.9 I0. J-2.4
G1 X52.909 Y0.
X18.993 Z-5.941
G2 Y4.8 Z-5.95 I0. J2.4
G1 X52.909 Z-5.991
G2 X52.967 Y0.001 Z-6. I0. J-2.4
G1 X52.909 Y0.
X18.993 Z-6.041
G2 Y4.8 Z-6.05 I0. J2.4
G1 X52.909 Z-6.091
G2 X52.967 Y0.001 Z-6.1 I0. J-2.4
G1 X52.909 Y0.
X18.993 Z-6.141
G2 Y4.8 Z-6.15 I0. J2.4
G1 X52.909 Z-6.191
G2 X52.967 Y0.001 Z-6.2 I0. J-2.4
G1 X52.909 Y0.
X18.993 Z-6.241
G2 Y4.8 Z-6.25 I0. J2.4
G1 X52.909 Z-6.291
G2 X52.967 Y0.001 Z-6.3 I0. J-2.4
G1 X52.909 Y0.
X18.993 Z-6.341
G2 Y4.8 Z-6.35 I0. J2.4
G1 X52.909 Z-6.391
G2 X52.967 Y0.001 Z-6.4 I0. J-2.4
G1 X52.909 Y0.
X18.993 Z-6.441
G2 Y4.8 Z-6.45 I0. J2.4
G1 X52.909 Z-6.491
G2 X52.967 Y0.001 Z-6.5 I0. J-2.4
G1 X52.909 Y0.
X18.993 Z-6.541
G2 Y4.8 Z-6.55 I0. J2.4
G1 X52.909 Z-6.591
G2 X52.967 Y0.001 Z-6.6 I0. J-2.4
G1 X52.909 Y0.
X18.993 Z-6.641
G2 Y4.8 Z-6.65 I0. J2.4
G1 X52.909 Z-6.691
G2 X52.967 Y0.001 Z-6.7 I0. J-2.4
G1 X52.909 Y0.
X18.993 Z-6.741
G2 Y4.8 Z-6.75 I0. J2.4
G1 X52.909 Z-6.791
G2 X52.967 Y0.001 Z-6.8 I0. J-2.4
G1 X52.909 Y0.
X18.993 Z-6.841
G2 Y4.8 Z-6.85 I0. J2.4
G1 X52.909 Z-6.891
G2 X52.967 Y0.001 Z-6.9 I0. J-2.4
G1 X52.909 Y0.
X18.993 Z-6.941
G2 Y4.8 Z-6.95 I0. J2.4
G1 X52.909 Z-6.991
G2 X52.967 Y0.001 Z-7. I0. J-2.4
G1 X52.909 Y0. F600.
X18.993
G2 Y4.8 I0. J2.4
G1 X52.909
G2 X52.967 Y0.001 I0. J-2.4
G1 Z1. F720.
G0 X8.25 Y52.415
G1 Z0.5 F30.
G2 X10.65 Y54.8 Z0.496 I2.4 J-0.015 F720.
G1 X45.73 Z0.454
G2 Y50. Z0.446 I0. J-2.4
G1 X10.65 Z0.404
G2 X8.25 Y52.4 Z0.4 I0. J2.4
G1 Y52.415
G2 X10.65 Y54.8 Z0.396 I2.4 J-0.015
G1 X45.73 Z0.354
G2 Y50. Z0.346 I0. J-2.4
G1 X10.65 Z0.304
G2 X8.25 Y52.4 Z0.3 I0. J2.4
G1 Y52.415
G2 X10.65 Y54.8 Z0.296 I2.4 J-0.015
G1 X45.73 Z0.254
G2 Y50. Z0.246 I0. J-2.4
G1 X10.65 Z0.204
G2 X8.25 Y52.4 Z0.2 I0. J2.4
G1 Y52.415
G2 X10.65 Y54.8 Z0.196 I2.4 J-0.015
G1 X45.73 Z0.154
G2 Y50. Z0.146 I0. J-2.4
G1 X10.65 Z0.104
G2 X8.25 Y52.4 Z0.1 I0. J2.4
G1 Y52.415
G2 X10.65 Y54.8 Z0.096 I2.4 J-0.015
G1 X45.73 Z0.054
G2 Y50. Z0.046 I0. J-2.4
G1 X10.65 Z0.004
G2 X8.25 Y52.4 Z0. I0. J2.4
G1 Y52.415
G2 X10.65 Y54.8 Z-0.004 I2.4 J-0.015
G1 X45.73 Z-0.046
G2 Y50. Z-0.054 I0. J-2.4
G1 X10.65 Z-0.096
G2 X8.25 Y52.4 Z-0.1 I0. J2.4
G1 Y52.415
G2 X10.65 Y54.8 Z-0.104 I2.4 J-0.015
G1 X45.73 Z-0.146
G2 Y50. Z-0.154 I0. J-2.4
G1 X10.65 Z-0.196
G2 X8.25 Y52.4 Z-0.2 I0. J2.4
G1 Y52.415
G2 X10.65 Y54.8 Z-0.204 I2.4 J-0.015
G1 X45.73 Z-0.246
G2 Y50. Z-0.254 I0. J-2.4
G1 X10.65 Z-0.296
G2 X8.25 Y52.4 Z-0.3 I0. J2.4
G1 Y52.415
G2 X10.65 Y54.8 Z-0.304 I2.4 J-0.015
G1 X45.73 Z-0.346
G2 Y50. Z-0.354 I0. J-2.4
G1 X10.65 Z-0.396
G2 X8.25 Y52.4 Z-0.4 I0. J2.4
G1 Y52.415
G2 X10.65 Y54.8 Z-0.404 I2.4 J-0.015
G1 X45.73 Z-0.446
G2 Y50. Z-0.454 I0. J-2.4
G1 X10.65 Z-0.496
G2 X8.25 Y52.4 Z-0.5 I0. J2.4
G1 Y52.415
G2 X10.65 Y54.8 Z-0.504 I2.4 J-0.015
G1 X45.73 Z-0.546
G2 Y50. Z-0.554 I0. J-2.4
G1 X10.65 Z-0.596
G2 X8.25 Y52.4 Z-0.6 I0. J2.4
G1 Y52.415
G2 X10.65 Y54.8 Z-0.604 I2.4 J-0.015
G1 X45.73 Z-0.646
G2 Y50. Z-0.654 I0. J-2.4
G1 X10.65 Z-0.696
G2 X8.25 Y52.4 Z-0.7 I0. J2.4
G1 Y52.415
G2 X10.65 Y54.8 Z-0.704 I2.4 J-0.015
G1 X45.73 Z-0.746
G2 Y50. Z-0.754 I0. J-2.4
G1 X10.65 Z-0.796
G2 X8.25 Y52.4 Z-0.8 I0. J2.4
G1 Y52.415
G2 X10.65 Y54.8 Z-0.804 I2.4 J-0.015
G1 X45.73 Z-0.846
G2 Y50. Z-0.854 I0. J-2.4
G1 X10.65 Z-0.896
G2 X8.25 Y52.4 Z-0.9 I0. J2.4
G1 Y52.415
G2 X10.65 Y54.8 Z-0.904 I2.4 J-0.015
G1 X45.73 Z-0.946
G2 Y50. Z-0.954 I0. J-2.4
G1 X10.65 Z-0.996
G2 X8.25 Y52.4 Z-1. I0. J2.4
G1 Y52.415
G2 X10.65 Y54.8 Z-1.004 I2.4 J-0.015
G1 X45.73 Z-1.046
G2 Y50. Z-1.054 I0. J-2.4
G1 X10.65 Z-1.096
G2 X8.25 Y52.4 Z-1.1 I0. J2.4
G1 Y52.415
G2 X10.65 Y54.8 Z-1.104 I2.4 J-0.015
G1 X45.73 Z-1.146
G2 Y50. Z-1.154 I0. J-2.4
G1 X10.65 Z-1.196
G2 X8.25 Y52.4 Z-1.2 I0. J2.4
G1 Y52.415
G2 X10.65 Y54.8 Z-1.204 I2.4 J-0.015
G1 X45.73 Z-1.246
G2 Y50. Z-1.254 I0. J-2.4
G1 X10.65 Z-1.296
G2 X8.25 Y52.4 Z-1.3 I0. J2.4
G1 Y52.415
G2 X10.65 Y54.8 Z-1.304 I2.4 J-0.015
G1 X45.73 Z-1.346
G2 Y50. Z-1.354 I0. J-2.4
G1 X10.65 Z-1.396
G2 X8.25 Y52.4 Z-1.4 I0. J2.4
G1 Y52.415
G2 X10.65 Y54.8 Z-1.404 I2.4 J-0.015
G1 X45.73 Z-1.446
G2 Y50. Z-1.454 I0. J-2.4
G1 X10.65 Z-1.496
G2 X8.25 Y52.4 Z-1.5 I0. J2.4
G1 Y52.415
G2 X10.65 Y54.8 Z-1.504 I2.4 J-0.015
G1 X45.73 Z-1.546
G2 Y50. Z-1.554 I0. J-2.4
G1 X10.65 Z-1.596
G2 X8.25 Y52.4 Z-1.6 I0. J2.4
G1 Y52.415
G2 X10.65 Y54.8 Z-1.604 I2.4 J-0.015
G1 X45.73 Z-1.646
G2 Y50. Z-1.654 I0. J-2.4
G1 X10.65 Z-1.696
G2 X8.25 Y52.4 Z-1.7 I0. J2.4
G1 Y52.415
G2 X10.65 Y54.8 Z-1.704 I2.4 J-0.015
G1 X45.73 Z-1.746
G2 Y50. Z-1.754 I0. J-2.4
G1 X10.65 Z-1.796
G2 X8.25 Y52.4 Z-1.8 I0. J2.4
G1 Y52.415
G2 X10.65 Y54.8 Z-1.804 I2.4 J-0.015
G1 X45.73 Z-1.846
G2 Y50. Z-1.854 I0. J-2.4
G1 X10.65 Z-1.896
G2 X8.25 Y52.4 Z-1.9 I0. J2.4
G1 Y52.415
G2 X10.65 Y54.8 Z-1.904 I2.4 J-0.015
G1 X45.73 Z-1.946
G2 Y50. Z-1.954 I0. J-2.4
G1 X10.65 Z-1.996
G2 X8.25 Y52.4 Z-2. I0. J2.4
G1 Y52.415
G2 X10.65 Y54.8 Z-2.004 I2.4 J-0.015
G1 X45.73 Z-2.046
G2 Y50. Z-2.054 I0. J-2.4
G1 X10.65 Z-2.096
G2 X8.25 Y52.4 Z-2.1 I0. J2.4
G1 Y52.415
G2 X10.65 Y54.8 Z-2.104 I2.4 J-0.015
G1 X45.73 Z-2.146
G2 Y50. Z-2.154 I0. J-2.4
G1 X10.65 Z-2.196
G2 X8.25 Y52.4 Z-2.2 I0. J2.4
G1 Y52.415
G2 X10.65 Y54.8 Z-2.204 I2.4 J-0.015
G1 X45.73 Z-2.246
G2 Y50. Z-2.254 I0. J-2.4
G1 X10.65 Z-2.296
G2 X8.25 Y52.4 Z-2.3 I0. J2.4
G1 Y52.415
G2 X10.65 Y54.8 Z-2.304 I2.4 J-0.015
G1 X45.73 Z-2.346
G2 Y50. Z-2.354 I0. J-2.4
G1 X10.65 Z-2.396
G2 X8.25 Y52.4 Z-2.4 I0. J2.4
G1 Y52.415
G2 X10.65 Y54.8 Z-2.404 I2.4 J-0.015
G1 X45.73 Z-2.446
G2 Y50. Z-2.454 I0. J-2.4
G1 X10.65 Z-2.496
G2 X8.25 Y52.4 Z-2.5 I0. J2.4
G1 Y52.415
G2 X10.65 Y54.8 Z-2.504 I2.4 J-0.015
G1 X45.73 Z-2.546
G2 Y50. Z-2.554 I0. J-2.4
G1 X10.65 Z-2.596
G2 X8.25 Y52.4 Z-2.6 I0. J2.4
G1 Y52.415
G2 X10.65 Y54.8 Z-2.604 I2.4 J-0.015
G1 X45.73 Z-2.646
G2 Y50. Z-2.654 I0. J-2.4
G1 X10.65 Z-2.696
G2 X8.25 Y52.4 Z-2.7 I0. J2.4
G1 Y52.415
G2 X10.65 Y54.8 Z-2.704 I2.4 J-0.015
G1 X45.73 Z-2.746
G2 Y50. Z-2.754 I0. J-2.4
G1 X10.65 Z-2.796
G2 X8.25 Y52.4 Z-2.8 I0. J2.4
G1 Y52.415
G2 X10.65 Y54.8 Z-2.804 I2.4 J-0.015
G1 X45.73 Z-2.846
G2 Y50. Z-2.854 I0. J-2.4
G1 X10.65 Z-2.896
G2 X8.25 Y52.4 Z-2.9 I0. J2.4
G1 Y52.415
G2 X10.65 Y54.8 Z-2.904 I2.4 J-0.015
G1 X45.73 Z-2.946
G2 Y50. Z-2.954 I0. J-2.4
G1 X10.65 Z-2.996
G2 X8.25 Y52.4 Z-3. I0. J2.4
G1 Y52.415
G2 X10.65 Y54.8 Z-3.004 I2.4 J-0.015
G1 X45.73 Z-3.046
G2 Y50. Z-3.054 I0. J-2.4
G1 X10.65 Z-3.096
G2 X8.25 Y52.4 Z-3.1 I0. J2.4
G1 Y52.415
G2 X10.65 Y54.8 Z-3.104 I2.4 J-0.015
G1 X45.73 Z-3.146
G2 Y50. Z-3.154 I0. J-2.4
G1 X10.65 Z-3.196
G2 X8.25 Y52.4 Z-3.2 I0. J2.4
G1 Y52.415
G2 X10.65 Y54.8 Z-3.204 I2.4 J-0.015
G1 X45.73 Z-3.246
G2 Y50. Z-3.254 I0. J-2.4
G1 X10.65 Z-3.296
G2 X8.25 Y52.4 Z-3.3 I0. J2.4
G1 Y52.415
G2 X10.65 Y54.8 Z-3.304 I2.4 J-0.015
G1 X45.73 Z-3.346
G2 Y50. Z-3.354 I0. J-2.4
G1 X10.65 Z-3.396
G2 X8.25 Y52.4 Z-3.4 I0. J2.4
G1 Y52.415
G2 X10.65 Y54.8 Z-3.404 I2.4 J-0.015
G1 X45.73 Z-3.446
G2 Y50. Z-3.454 I0. J-2.4
G1 X10.65 Z-3.496
G2 X8.25 Y52.4 Z-3.5 I0. J2.4
G1 Y52.415
G2 X10.65 Y54.8 Z-3.504 I2.4 J-0.015
G1 X45.73 Z-3.546
G2 Y50. Z-3.554 I0. J-2.4
G1 X10.65 Z-3.596
G2 X8.25 Y52.4 Z-3.6 I0. J2.4
G1 Y52.415
G2 X10.65 Y54.8 Z-3.604 I2.4 J-0.015
G1 X45.73 Z-3.646
G2 Y50. Z-3.654 I0. J-2.4
G1 X10.65 Z-3.696
G2 X8.25 Y52.4 Z-3.7 I0. J2.4
G1 Y52.415
G2 X10.65 Y54.8 Z-3.704 I2.4 J-0.015
G1 X45.73 Z-3.746
G2 Y50. Z-3.754 I0. J-2.4
G1 X10.65 Z-3.796
G2 X8.25 Y52.4 Z-3.8 I0. J2.4
G1 Y52.415
G2 X10.65 Y54.8 Z-3.804 I2.4 J-0.015
G1 X45.73 Z-3.846
G2 Y50. Z-3.854 I0. J-2.4
G1 X10.65 Z-3.896
G2 X8.25 Y52.4 Z-3.9 I0. J2.4
G1 Y52.415
G2 X10.65 Y54.8 Z-3.904 I2.4 J-0.015
G1 X45.73 Z-3.946
G2 Y50. Z-3.954 I0. J-2.4
G1 X10.65 Z-3.996
G2 X8.25 Y52.4 Z-4. I0. J2.4
G1 Y52.415
G2 X10.65 Y54.8 Z-4.004 I2.4 J-0.015
G1 X45.73 Z-4.046
G2 Y50. Z-4.054 I0. J-2.4
G1 X10.65 Z-4.096
G2 X8.25 Y52.4 Z-4.1 I0. J2.4
G1 Y52.415
G2 X10.65 Y54.8 Z-4.104 I2.4 J-0.015
G1 X45.73 Z-4.146
G2 Y50. Z-4.154 I0. J-2.4
G1 X10.65 Z-4.196
G2 X8.25 Y52.4 Z-4.2 I0. J2.4
G1 Y52.415
G2 X10.65 Y54.8 Z-4.204 I2.4 J-0.015
G1 X45.73 Z-4.246
G2 Y50. Z-4.254 I0. J-2.4
G1 X10.65 Z-4.296
G2 X8.25 Y52.4 Z-4.3 I0. J2.4
G1 Y52.415
G2 X10.65 Y54.8 Z-4.304 I2.4 J-0.015
G1 X45.73 Z-4.346
G2 Y50. Z-4.354 I0. J-2.4
G1 X10.65 Z-4.396
G2 X8.25 Y52.4 Z-4.4 I0. J2.4
G1 Y52.415
G2 X10.65 Y54.8 Z-4.404 I2.4 J-0.015
G1 X45.73 Z-4.446
G2 Y50. Z-4.454 I0. J-2.4
G1 X10.65 Z-4.496
G2 X8.25 Y52.4 Z-4.5 I0. J2.4
G1 Y52.415
G2 X10.65 Y54.8 Z-4.504 I2.4 J-0.015
G1 X45.73 Z-4.546
G2 Y50. Z-4.554 I0. J-2.4
G1 X10.65 Z-4.596
G2 X8.25 Y52.4 Z-4.6 I0. J2.4
G1 Y52.415
G2 X10.65 Y54.8 Z-4.604 I2.4 J-0.015
G1 X45.73 Z-4.646
G2 Y50. Z-4.654 I0. J-2.4
G1 X10.65 Z-4.696
G2 X8.25 Y52.4 Z-4.7 I0. J2.4
G1 Y52.415
G2 X10.65 Y54.8 Z-4.704 I2.4 J-0.015
G1 X45.73 Z-4.746
G2 Y50. Z-4.754 I0. J-2.4
G1 X10.65 Z-4.796
G2 X8.25 Y52.4 Z-4.8 I0. J2.4
G1 Y52.415
G2 X10.65 Y54.8 Z-4.804 I2.4 J-0.015
G1 X45.73 Z-4.846
G2 Y50. Z-4.854 I0. J-2.4
G1 X10.65 Z-4.896
G2 X8.25 Y52.4 Z-4.9 I0. J2.4
G1 Y52.415
G2 X10.65 Y54.8 Z-4.904 I2.4 J-0.015
G1 X45.73 Z-4.946
G2 Y50. Z-4.954 I0. J-2.4
G1 X10.65 Z-4.996
G2 X8.25 Y52.4 Z-5. I0. J2.4
G1 Y52.415
G2 X10.65 Y54.8 Z-5.004 I2.4 J-0.015
G1 X45.73 Z-5.046
G2 Y50. Z-5.054 I0. J-2.4
G1 X10.65 Z-5.096
G2 X8.25 Y52.4 Z-5.1 I0. J2.4
G1 Y52.415
G2 X10.65 Y54.8 Z-5.104 I2.4 J-0.015
G1 X45.73 Z-5.146
G2 Y50. Z-5.154 I0. J-2.4
G1 X10.65 Z-5.196
G2 X8.25 Y52.4 Z-5.2 I0. J2.4
G1 Y52.415
G2 X10.65 Y54.8 Z-5.204 I2.4 J-0.015
G1 X45.73 Z-5.246
G2 Y50. Z-5.254 I0. J-2.4
G1 X10.65 Z-5.296
G2 X8.25 Y52.4 Z-5.3 I0. J2.4
G1 Y52.415
G2 X10.65 Y54.8 Z-5.304 I2.4 J-0.015
G1 X45.73 Z-5.346
G2 Y50. Z-5.354 I0. J-2.4
G1 X10.65 Z-5.396
G2 X8.25 Y52.4 Z-5.4 I0. J2.4
G1 Y52.415
G2 X10.65 Y54.8 Z-5.404 I2.4 J-0.015
G1 X45.73 Z-5.446
G2 Y50. Z-5.454 I0. J-2.4
G1 X10.65 Z-5.496
G2 X8.25 Y52.4 Z-5.5 I0. J2.4
G1 Y52.415
G2 X10.65 Y54.8 Z-5.504 I2.4 J-0.015
G1 X45.73 Z-5.546
G2 Y50. Z-5.554 I0. J-2.4
G1 X10.65 Z-5.596
G2 X8.25 Y52.4 Z-5.6 I0. J2.4
G1 Y52.415
G2 X10.65 Y54.8 Z-5.604 I2.4 J-0.015
G1 X45.73 Z-5.646
G2 Y50. Z-5.654 I0. J-2.4
G1 X10.65 Z-5.696
G2 X8.25 Y52.4 Z-5.7 I0. J2.4
G1 Y52.415
G2 X10.65 Y54.8 Z-5.704 I2.4 J-0.015
G1 X45.73 Z-5.746
G2 Y50. Z-5.754 I0. J-2.4
G1 X10.65 Z-5.796
G2 X8.25 Y52.4 Z-5.8 I0. J2.4
G1 Y52.415
G2 X10.65 Y54.8 Z-5.804 I2.4 J-0.015
G1 X45.73 Z-5.846
G2 Y50. Z-5.854 I0. J-2.4
G1 X10.65 Z-5.896
G2 X8.25 Y52.4 Z-5.9 I0. J2.4
G1 Y52.415
G2 X10.65 Y54.8 Z-5.904 I2.4 J-0.015
G1 X45.73 Z-5.946
G2 Y50. Z-5.954 I0. J-2.4
G1 X10.65 Z-5.996
G2 X8.25 Y52.4 Z-6. I0. J2.4
G1 Y52.415
G2 X10.65 Y54.8 Z-6.004 I2.4 J-0.015
G1 X45.73 Z-6.046
G2 Y50. Z-6.054 I0. J-2.4
G1 X10.65 Z-6.096
G2 X8.25 Y52.4 Z-6.1 I0. J2.4
G1 Y52.415
G2 X10.65 Y54.8 Z-6.104 I2.4 J-0.015
G1 X45.73 Z-6.146
G2 Y50. Z-6.154 I0. J-2.4
G1 X10.65 Z-6.196
G2 X8.25 Y52.4 Z-6.2 I0. J2.4
G1 Y52.415
G2 X10.65 Y54.8 Z-6.204 I2.4 J-0.015
G1 X45.73 Z-6.246
G2 Y50. Z-6.254 I0. J-2.4
G1 X10.65 Z-6.296
G2 X8.25 Y52.4 Z-6.3 I0. J2.4
G1 Y52.415
G2 X10.65 Y54.8 Z-6.304 I2.4 J-0.015
G1 X45.73 Z-6.346
G2 Y50. Z-6.354 I0. J-2.4
G1 X10.65 Z-6.396
G2 X8.25 Y52.4 Z-6.4 I0. J2.4
G1 Y52.415
G2 X10.65 Y54.8 Z-6.404 I2.4 J-0.015
G1 X45.73 Z-6.446
G2 Y50. Z-6.454 I0. J-2.4
G1 X10.65 Z-6.496
G2 X8.25 Y52.4 Z-6.5 I0. J2.4
G1 Y52.415
G2 X10.65 Y54.8 Z-6.504 I2.4 J-0.015
G1 X45.73 Z-6.546
G2 Y50. Z-6.554 I0. J-2.4
G1 X10.65 Z-6.596
G2 X8.25 Y52.4 Z-6.6 I0. J2.4
G1 Y52.415
G2 X10.65 Y54.8 Z-6.604 I2.4 J-0.015
G1 X45.73 Z-6.646
G2 Y50. Z-6.654 I0. J-2.4
G1 X10.65 Z-6.696
G2 X8.25 Y52.4 Z-6.7 I0. J2.4
G1 Y52.415
G2 X10.65 Y54.8 Z-6.704 I2.4 J-0.015
G1 X45.73 Z-6.746
G2 Y50. Z-6.754 I0. J-2.4
G1 X10.65 Z-6.796
G2 X8.25 Y52.4 Z-6.8 I0. J2.4
G1 Y52.415
G2 X10.65 Y54.8 Z-6.804 I2.4 J-0.015
G1 X45.73 Z-6.846
G2 Y50. Z-6.854 I0. J-2.4
G1 X10.65 Z-6.896
G2 X8.25 Y52.4 Z-6.9 I0. J2.4
G1 Y52.415
G2 X10.65 Y54.8 Z-6.904 I2.4 J-0.015
G1 X45.73 Z-6.946
G2 Y50. Z-6.954 I0. J-2.4
G1 X10.65 Z-6.996
G2 X8.25 Y52.4 Z-7. I0. J2.4
G1 Y52.415
G2 X10.65 Y54.8 I2.4 J-0.015 F600.
G1 X45.73
G2 Y50. I0. J-2.4
G1 X10.65
G2 X8.25 Y52.415 I0. J2.4
G1 Z1. F720.
G0 Y57.441
G1 Z0.5 F30.
G2 X10.65 Y59.8 Z0.496 I2.4 J-0.041 F720.
G1 X45.834 Z0.454
G2 Y55. Z0.446 I0. J-2.4
G1 X10.65 Z0.404
G2 X8.25 Y57.4 Z0.4 I0. J2.4
G1 Y57.441
G2 X10.65 Y59.8 Z0.396 I2.4 J-0.041
G1 X45.834 Z0.354
G2 Y55. Z0.346 I0. J-2.4
G1 X10.65 Z0.304
G2 X8.25 Y57.4 Z0.3 I0. J2.4
G1 Y57.441
G2 X10.65 Y59.8 Z0.296 I2.4 J-0.041
G1 X45.834 Z0.254
G2 Y55. Z0.246 I0. J-2.4
G1 X10.65 Z0.204
G2 X8.25 Y57.4 Z0.2 I0. J2.4
G1 Y57.441
G2 X10.65 Y59.8 Z0.196 I2.4 J-0.041
G1 X45.834 Z0.154
G2 Y55. Z0.146 I0. J-2.4
G1 X10.65 Z0.104
G2 X8.25 Y57.4 Z0.1 I0. J2.4
G1 Y57.441
G2 X10.65 Y59.8 Z0.096 I2.4 J-0.041
G1 X45.834 Z0.054
G2 Y55. Z0.046 I0. J-2.4
G1 X10.65 Z0.004
G2 X8.25 Y57.4 Z0. I0. J2.4
G1 Y57.441
G2 X10.65 Y59.8 Z-0.004 I2.4 J-0.041
G1 X45.834 Z-0.046
G2 Y55. Z-0.054 I0. J-2.4
G1 X10.65 Z-0.096
G2 X8.25 Y57.4 Z-0.1 I0. J2.4
G1 Y57.441
G2 X10.65 Y59.8 Z-0.104 I2.4 J-0.041
G1 X45.834 Z-0.146
G2 Y55. Z-0.154 I0. J-2.4
G1 X10.65 Z-0.196
G2 X8.25 Y57.4 Z-0.2 I0. J2.4
G1 Y57.441
G2 X10.65 Y59.8 Z-0.204 I2.4 J-0.041
G1 X45.834 Z-0.246
G2 Y55. Z-0.254 I0. J-2.4
G1 X10.65 Z-0.296
G2 X8.25 Y57.4 Z-0.3 I0. J2.4
G1 Y57.441
G2 X10.65 Y59.8 Z-0.304 I2.4 J-0.041
G1 X45.834 Z-0.346
G2 Y55. Z-0.354 I0. J-2.4
G1 X10.65 Z-0.396
G2 X8.25 Y57.4 Z-0.4 I0. J2.4
G1 Y57.441
G2 X10.65 Y59.8 Z-0.404 I2.4 J-0.041
G1 X45.834 Z-0.446
G2 Y55. Z-0.454 I0. J-2.4
G1 X10.65 Z-0.496
G2 X8.25 Y57.4 Z-0.5 I0. J2.4
G1 Y57.441
G2 X10.65 Y59.8 Z-0.504 I2.4 J-0.041
G1 X45.834 Z-0.546
G2 Y55. Z-0.554 I0. J-2.4
G1 X10.65 Z-0.596
G2 X8.25 Y57.4 Z-0.6 I0. J2.4
G1 Y57.441
G2 X10.65 Y59.8 Z-0.604 I2.4 J-0.041
G1 X45.834 Z-0.646
G2 Y55. Z-0.654 I0. J-2.4
G1 X10.65 Z-0.696
G2 X8.25 Y57.4 Z-0.7 I0. J2.4
G1 Y57.441
G2 X10.65 Y59.8 Z-0.704 I2.4 J-0.041
G1 X45.834 Z-0.746
G2 Y55. Z-0.754 I0. J-2.4
G1 X10.65 Z-0.796
G2 X8.25 Y57.4 Z-0.8 I0. J2.4
G1 Y57.441
G2 X10.65 Y59.8 Z-0.804 I2.4 J-0.041
G1 X45.834 Z-0.846
G2 Y55. Z-0.854 I0. J-2.4
G1 X10.65 Z-0.896
G2 X8.25 Y57.4 Z-0.9 I0. J2.4
G1 Y57.441
G2 X10.65 Y59.8 Z-0.904 I2.4 J-0.041
G1 X45.834 Z-0.946
G2 Y55. Z-0.954 I0. J-2.4
G1 X10.65 Z-0.996
G2 X8.25 Y57.4 Z-1. I0. J2.4
G1 Y57.441
G2 X10.65 Y59.8 Z-1.004 I2.4 J-0.041
G1 X45.834 Z-1.046
G2 Y55. Z-1.054 I0. J-2.4
G1 X10.65 Z-1.096
G2 X8.25 Y57.4 Z-1.1 I0. J2.4
G1 Y57.441
G2 X10.65 Y59.8 Z-1.104 I2.4 J-0.041
G1 X45.834 Z-1.146
G2 Y55. Z-1.154 I0. J-2.4
G1 X10.65 Z-1.196
G2 X8.25 Y57.4 Z-1.2 I0. J2.4
G1 Y57.441
G2 X10.65 Y59.8 Z-1.204 I2.4 J-0.041
G1 X45.834 Z-1.246
G2 Y55. Z-1.254 I0. J-2.4
G1 X10.65 Z-1.296
G2 X8.25 Y57.4 Z-1.3 I0. J2.4
G1 Y57.441
G2 X10.65 Y59.8 Z-1.304 I2.4 J-0.041
G1 X45.834 Z-1.346
G2 Y55. Z-1.354 I0. J-2.4
G1 X10.65 Z-1.396
G2 X8.25 Y57.4 Z-1.4 I0. J2.4
G1 Y57.441
G2 X10.65 Y59.8 Z-1.404 I2.4 J-0.041
G1 X45.834 Z-1.446
G2 Y55. Z-1.454 I0. J-2.4
G1 X10.65 Z-1.496
G2 X8.25 Y57.4 Z-1.5 I0. J2.4
G1 Y57.441
G2 X10.65 Y59.8 Z-1.504 I2.4 J-0.041
G1 X45.834 Z-1.546
G2 Y55. Z-1.554 I0. J-2.4
G1 X10.65 Z-1.596
G2 X8.25 Y57.4 Z-1.6 I0. J2.4
G1 Y57.441
G2 X10.65 Y59.8 Z-1.604 I2.4 J-0.041
G1 X45.834 Z-1.646
G2 Y55. Z-1.654 I0. J-2.4
G1 X10.65 Z-1.696
G2 X8.25 Y57.4 Z-1.7 I0. J2.4
G1 Y57.441
G2 X10.65 Y59.8 Z-1.704 I2.4 J-0.041
G1 X45.834 Z-1.746
G2 Y55. Z-1.754 I0. J-2.4
G1 X10.65 Z-1.796
G2 X8.25 Y57.4 Z-1.8 I0. J2.4
G1 Y57.441
G2 X10.65 Y59.8 Z-1.804 I2.4 J-0.041
G1 X45.834 Z-1.846
G2 Y55. Z-1.854 I0. J-2.4
G1 X10.65 Z-1.896
G2 X8.25 Y57.4 Z-1.9 I0. J2.4
G1 Y57.441
G2 X10.65 Y59.8 Z-1.904 I2.4 J-0.041
G1 X45.834 Z-1.946
G2 Y55. Z-1.954 I0. J-2.4
G1 X10.65 Z-1.996
G2 X8.25 Y57.4 Z-2. I0. J2.4
G1 Y57.441
G2 X10.65 Y59.8 Z-2.004 I2.4 J-0.041
G1 X45.834 Z-2.046
G2 Y55. Z-2.054 I0. J-2.4
G1 X10.65 Z-2.096
G2 X8.25 Y57.4 Z-2.1 I0. J2.4
G1 Y57.441
G2 X10.65 Y59.8 Z-2.104 I2.4 J-0.041
G1 X45.834 Z-2.146
G2 Y55. Z-2.154 I0. J-2.4
G1 X10.65 Z-2.196
G2 X8.25 Y57.4 Z-2.2 I0. J2.4
G1 Y57.441
G2 X10.65 Y59.8 Z-2.204 I2.4 J-0.041
G1 X45.834 Z-2.246
G2 Y55. Z-2.254 I0. J-2.4
G1 X10.65 Z-2.296
G2 X8.25 Y57.4 Z-2.3 I0. J2.4
G1 Y57.441
G2 X10.65 Y59.8 Z-2.304 I2.4 J-0.041
G1 X45.834 Z-2.346
G2 Y55. Z-2.354 I0. J-2.4
G1 X10.65 Z-2.396
G2 X8.25 Y57.4 Z-2.4 I0. J2.4
G1 Y57.441
G2 X10.65 Y59.8 Z-2.404 I2.4 J-0.041
G1 X45.834 Z-2.446
G2 Y55. Z-2.454 I0. J-2.4
G1 X10.65 Z-2.496
G2 X8.25 Y57.4 Z-2.5 I0. J2.4
G1 Y57.441
G2 X10.65 Y59.8 Z-2.504 I2.4 J-0.041
G1 X45.834 Z-2.546
G2 Y55. Z-2.554 I0. J-2.4
G1 X10.65 Z-2.596
G2 X8.25 Y57.4 Z-2.6 I0. J2.4
G1 Y57.441
G2 X10.65 Y59.8 Z-2.604 I2.4 J-0.041
G1 X45.834 Z-2.646
G2 Y55. Z-2.654 I0. J-2.4
G1 X10.65 Z-2.696
G2 X8.25 Y57.4 Z-2.7 I0. J2.4
G1 Y57.441
G2 X10.65 Y59.8 Z-2.704 I2.4 J-0.041
G1 X45.834 Z-2.746
G2 Y55. Z-2.754 I0. J-2.4
G1 X10.65 Z-2.796
G2 X8.25 Y57.4 Z-2.8 I0. J2.4
G1 Y57.441
G2 X10.65 Y59.8 Z-2.804 I2.4 J-0.041
G1 X45.834 Z-2.846
G2 Y55. Z-2.854 I0. J-2.4
G1 X10.65 Z-2.896
G2 X8.25 Y57.4 Z-2.9 I0. J2.4
G1 Y57.441
G2 X10.65 Y59.8 Z-2.904 I2.4 J-0.041
G1 X45.834 Z-2.946
G2 Y55. Z-2.954 I0. J-2.4
G1 X10.65 Z-2.996
G2 X8.25 Y57.4 Z-3. I0. J2.4
G1 Y57.441
G2 X10.65 Y59.8 Z-3.004 I2.4 J-0.041
G1 X45.834 Z-3.046
G2 Y55. Z-3.054 I0. J-2.4
G1 X10.65 Z-3.096
G2 X8.25 Y57.4 Z-3.1 I0. J2.4
G1 Y57.441
G2 X10.65 Y59.8 Z-3.104 I2.4 J-0.041
G1 X45.834 Z-3.146
G2 Y55. Z-3.154 I0. J-2.4
G1 X10.65 Z-3.196
G2 X8.25 Y57.4 Z-3.2 I0. J2.4
G1 Y57.441
G2 X10.65 Y59.8 Z-3.204 I2.4 J-0.041
G1 X45.834 Z-3.246
G2 Y55. Z-3.254 I0. J-2.4
G1 X10.65 Z-3.296
G2 X8.25 Y57.4 Z-3.3 I0. J2.4
G1 Y57.441
G2 X10.65 Y59.8 Z-3.304 I2.4 J-0.041
G1 X45.834 Z-3.346
G2 Y55. Z-3.354 I0. J-2.4
G1 X10.65 Z-3.396
G2 X8.25 Y57.4 Z-3.4 I0. J2.4
G1 Y57.441
G2 X10.65 Y59.8 Z-3.404 I2.4 J-0.041
G1 X45.834 Z-3.446
G2 Y55. Z-3.454 I0. J-2.4
G1 X10.65 Z-3.496
G2 X8.25 Y57.4 Z-3.5 I0. J2.4
G1 Y57.441
G2 X10.65 Y59.8 Z-3.504 I2.4 J-0.041
G1 X45.834 Z-3.546
G2 Y55. Z-3.554 I0. J-2.4
G1 X10.65 Z-3.596
G2 X8.25 Y57.4 Z-3.6 I0. J2.4
G1 Y57.441
G2 X10.65 Y59.8 Z-3.604 I2.4 J-0.041
G1 X45.834 Z-3.646
G2 Y55. Z-3.654 I0. J-2.4
G1 X10.65 Z-3.696
G2 X8.25 Y57.4 Z-3.7 I0. J2.4
G1 Y57.441
G2 X10.65 Y59.8 Z-3.704 I2.4 J-0.041
G1 X45.834 Z-3.746
G2 Y55. Z-3.754 I0. J-2.4
G1 X10.65 Z-3.796
G2 X8.25 Y57.4 Z-3.8 I0. J2.4
G1 Y57.441
G2 X10.65 Y59.8 Z-3.804 I2.4 J-0.041
G1 X45.834 Z-3.846
G2 Y55. Z-3.854 I0. J-2.4
G1 X10.65 Z-3.896
G2 X8.25 Y57.4 Z-3.9 I0. J2.4
G1 Y57.441
G2 X10.65 Y59.8 Z-3.904 I2.4 J-0.041
G1 X45.834 Z-3.946
G2 Y55. Z-3.954 I0. J-2.4
G1 X10.65 Z-3.996
G2 X8.25 Y57.4 Z-4. I0. J2.4
G1 Y57.441
G2 X10.65 Y59.8 Z-4.004 I2.4 J-0.041
G1 X45.834 Z-4.046
G2 Y55. Z-4.054 I0. J-2.4
G1 X10.65 Z-4.096
G2 X8.25 Y57.4 Z-4.1 I0. J2.4
G1 Y57.441
G2 X10.65 Y59.8 Z-4.104 I2.4 J-0.041
G1 X45.834 Z-4.146
G2 Y55. Z-4.154 I0. J-2.4
G1 X10.65 Z-4.196
G2 X8.25 Y57.4 Z-4.2 I0. J2.4
G1 Y57.441
G2 X10.65 Y59.8 Z-4.204 I2.4 J-0.041
G1 X45.834 Z-4.246
G2 Y55. Z-4.254 I0. J-2.4
G1 X10.65 Z-4.296
G2 X8.25 Y57.4 Z-4.3 I0. J2.4
G1 Y57.441
G2 X10.65 Y59.8 Z-4.304 I2.4 J-0.041
G1 X45.834 Z-4.346
G2 Y55. Z-4.354 I0. J-2.4
G1 X10.65 Z-4.396
G2 X8.25 Y57.4 Z-4.4 I0. J2.4
G1 Y57.441
G2 X10.65 Y59.8 Z-4.404 I2.4 J-0.041
G1 X45.834 Z-4.446
G2 Y55. Z-4.454 I0. J-2.4
G1 X10.65 Z-4.496
G2 X8.25 Y57.4 Z-4.5 I0. J2.4
G1 Y57.441
G2 X10.65 Y59.8 Z-4.504 I2.4 J-0.041
G1 X45.834 Z-4.546
G2 Y55. Z-4.554 I0. J-2.4
G1 X10.65 Z-4.596
G2 X8.25 Y57.4 Z-4.6 I0. J2.4
G1 Y57.441
G2 X10.65 Y59.8 Z-4.604 I2.4 J-0.041
G1 X45.834 Z-4.646
G2 Y55. Z-4.654 I0. J-2.4
G1 X10.65 Z-4.696
G2 X8.25 Y57.4 Z-4.7 I0. J2.4
G1 Y57.441
G2 X10.65 Y59.8 Z-4.704 I2.4 J-0.041
G1 X45.834 Z-4.746
G2 Y55. Z-4.754 I0. J-2.4
G1 X10.65 Z-4.796
G2 X8.25 Y57.4 Z-4.8 I0. J2.4
G1 Y57.441
G2 X10.65 Y59.8 Z-4.804 I2.4 J-0.041
G1 X45.834 Z-4.846
G2 Y55. Z-4.854 I0. J-2.4
G1 X10.65 Z-4.896
G2 X8.25 Y57.4 Z-4.9 I0. J2.4
G1 Y57.441
G2 X10.65 Y59.8 Z-4.904 I2.4 J-0.041
G1 X45.834 Z-4.946
G2 Y55. Z-4.954 I0. J-2.4
G1 X10.65 Z-4.996
G2 X8.25 Y57.4 Z-5. I0. J2.4
G1 Y57.441
G2 X10.65 Y59.8 Z-5.004 I2.4 J-0.041
G1 X45.834 Z-5.046
G2 Y55. Z-5.054 I0. J-2.4
G1 X10.65 Z-5.096
G2 X8.25 Y57.4 Z-5.1 I0. J2.4
G1 Y57.441
G2 X10.65 Y59.8 Z-5.104 I2.4 J-0.041
G1 X45.834 Z-5.146
G2 Y55. Z-5.154 I0. J-2.4
G1 X10.65 Z-5.196
G2 X8.25 Y57.4 Z-5.2 I0. J2.4
G1 Y57.441
G2 X10.65 Y59.8 Z-5.204 I2.4 J-0.041
G1 X45.834 Z-5.246
G2 Y55. Z-5.254 I0. J-2.4
G1 X10.65 Z-5.296
G2 X8.25 Y57.4 Z-5.3 I0. J2.4
G1 Y57.441
G2 X10.65 Y59.8 Z-5.304 I2.4 J-0.041
G1 X45.834 Z-5.346
G2 Y55. Z-5.354 I0. J-2.4
G1 X10.65 Z-5.396
G2 X8.25 Y57.4 Z-5.4 I0. J2.4
G1 Y57.441
G2 X10.65 Y59.8 Z-5.404 I2.4 J-0.041
G1 X45.834 Z-5.446
G2 Y55. Z-5.454 I0. J-2.4
G1 X10.65 Z-5.496
G2 X8.25 Y57.4 Z-5.5 I0. J2.4
G1 Y57.441
G2 X10.65 Y59.8 Z-5.504 I2.4 J-0.041
G1 X45.834 Z-5.546
G2 Y55. Z-5.554 I0. J-2.4
G1 X10.65 Z-5.596
G2 X8.25 Y57.4 Z-5.6 I0. J2.4
G1 Y57.441
G2 X10.65 Y59.8 Z-5.604 I2.4 J-0.041
G1 X45.834 Z-5.646
G2 Y55. Z-5.654 I0. J-2.4
G1 X10.65 Z-5.696
G2 X8.25 Y57.4 Z-5.7 I0. J2.4
G1 Y57.441
G2 X10.65 Y59.8 Z-5.704 I2.4 J-0.041
G1 X45.834 Z-5.746
G2 Y55. Z-5.754 I0. J-2.4
G1 X10.65 Z-5.796
G2 X8.25 Y57.4 Z-5.8 I0. J2.4
G1 Y57.441
G2 X10.65 Y59.8 Z-5.804 I2.4 J-0.041
G1 X45.834 Z-5.846
G2 Y55. Z-5.854 I0. J-2.4
G1 X10.65 Z-5.896
G2 X8.25 Y57.4 Z-5.9 I0. J2.4
G1 Y57.441
G2 X10.65 Y59.8 Z-5.904 I2.4 J-0.041
G1 X45.834 Z-5.946
G2 Y55. Z-5.954 I0. J-2.4
G1 X10.65 Z-5.996
G2 X8.25 Y57.4 Z-6. I0. J2.4
G1 Y57.441
G2 X10.65 Y59.8 Z-6.004 I2.4 J-0.041
G1 X45.834 Z-6.046
G2 Y55. Z-6.054 I0. J-2.4
G1 X10.65 Z-6.096
G2 X8.25 Y57.4 Z-6.1 I0. J2.4
G1 Y57.441
G2 X10.65 Y59.8 Z-6.104 I2.4 J-0.041
G1 X45.834 Z-6.146
G2 Y55. Z-6.154 I0. J-2.4
G1 X10.65 Z-6.196
G2 X8.25 Y57.4 Z-6.2 I0. J2.4
G1 Y57.441
G2 X10.65 Y59.8 Z-6.204 I2.4 J-0.041
G1 X45.834 Z-6.246
G2 Y55. Z-6.254 I0. J-2.4
G1 X10.65 Z-6.296
G2 X8.25 Y57.4 Z-6.3 I0. J2.4
G1 Y57.441
G2 X10.65 Y59.8 Z-6.304 I2.4 J-0.041
G1 X45.834 Z-6.346
G2 Y55. Z-6.354 I0. J-2.4
G1 X10.65 Z-6.396
G2 X8.25 Y57.4 Z-6.4 I0. J2.4
G1 Y57.441
G2 X10.65 Y59.8 Z-6.404 I2.4 J-0.041
G1 X45.834 Z-6.446
G2 Y55. Z-6.454 I0. J-2.4
G1 X10.65 Z-6.496
G2 X8.25 Y57.4 Z-6.5 I0. J2.4
G1 Y57.441
G2 X10.65 Y59.8 Z-6.504 I2.4 J-0.041
G1 X45.834 Z-6.546
G2 Y55. Z-6.554 I0. J-2.4
G1 X10.65 Z-6.596
G2 X8.25 Y57.4 Z-6.6 I0. J2.4
G1 Y57.441
G2 X10.65 Y59.8 Z-6.604 I2.4 J-0.041
G1 X45.834 Z-6.646
G2 Y55. Z-6.654 I0. J-2.4
G1 X10.65 Z-6.696
G2 X8.25 Y57.4 Z-6.7 I0. J2.4
G1 Y57.441
G2 X10.65 Y59.8 Z-6.704 I2.4 J-0.041
G1 X45.834 Z-6.746
G2 Y55. Z-6.754 I0. J-2.4
G1 X10.65 Z-6.796
G2 X8.25 Y57.4 Z-6.8 I0. J2.4
G1 Y57.441
G2 X10.65 Y59.8 Z-6.804 I2.4 J-0.041
G1 X45.834 Z-6.846
G2 Y55. Z-6.854 I0. J-2.4
G1 X10.65 Z-6.896
G2 X8.25 Y57.4 Z-6.9 I0. J2.4
G1 Y57.441
G2 X10.65 Y59.8 Z-6.904 I2.4 J-0.041
G1 X45.834 Z-6.946
G2 Y55. Z-6.954 I0. J-2.4
G1 X10.65 Z-6.996
G2 X8.25 Y57.4 Z-7. I0. J2.4
G1 Y57.441
G2 X10.65 Y59.8 I2.4 J-0.041 F600.
G1 X45.834
G2 Y55. I0. J-2.4
G1 X10.65
G2 X8.25 Y57.441 I0. J2.4
G1 Z1. F720.
G0 X52.851 Y60.25
G1 Z0.5 F30.
G2 X51.785 Y60. Z0.499 I-1.067 J2.15 F720.
G1 X20.117 Z0.458
G2 Y64.8 Z0.449 I0. J2.4
G1 X51.785 Z0.408
G2 Y60. Z0.399 I0. J-2.4
G1 X20.117 Z0.358
G2 Y64.8 Z0.349 I0. J2.4
G1 X51.785 Z0.308
G2 Y60. Z0.299 I0. J-2.4
G1 X20.117 Z0.258
G2 Y64.8 Z0.249 I0. J2.4
G1 X51.785 Z0.208
G2 Y60. Z0.199 I0. J-2.4
G1 X20.117 Z0.158
G2 Y64.8 Z0.149 I0. J2.4
G1 X51.785 Z0.108
G2 Y60. Z0.099 I0. J-2.4
G1 X20.117 Z0.058
G2 Y64.8 Z0.049 I0. J2.4
G1 X51.785 Z0.008
G2 Y60. Z-0.001 I0. J-2.4
G1 X20.117 Z-0.042
G2 Y64.8 Z-0.051 I0. J2.4
G1 X51.785 Z-0.092
G2 Y60. Z-0.101 I0. J-2.4
G1 X20.117 Z-0.142
G2 Y64.8 Z-0.151 I0. J2.4
G1 X51.785 Z-0.192
G2 Y60. Z-0.201 I0. J-2.4
G1 X20.117 Z-0.242
G2 Y64.8 Z-0.251 I0. J2.4
G1 X51.785 Z-0.292
G2 Y60. Z-0.301 I0. J-2.4
G1 X20.117 Z-0.342
G2 Y64.8 Z-0.351 I0. J2.4
G1 X51.785 Z-0.392
G2 Y60. Z-0.401 I0. J-2.4
G1 X20.117 Z-0.442
G2 Y64.8 Z-0.451 I0. J2.4
G1 X51.785 Z-0.492
G2 Y60. Z-0.501 I0. J-2.4
G1 X20.117 Z-0.542
G2 Y64.8 Z-0.551 I0. J2.4
G1 X51.785 Z-0.592
G2 Y60. Z-0.601 I0. J-2.4
G1 X20.117 Z-0.642
G2 Y64.8 Z-0.651 I0. J2.4
G1 X51.785 Z-0.692
G2 Y60. Z-0.701 I0. J-2.4
G1 X20.117 Z-0.742
G2 Y64.8 Z-0.751 I0. J2.4
G1 X51.785 Z-0.792
G2 Y60. Z-0.801 I0. J-2.4
G1 X20.117 Z-0.842
G2 Y64.8 Z-0.851 I0. J2.4
G1 X51.785 Z-0.892
G2 Y60. Z-0.901 I0. J-2.4
G1 X20.117 Z-0.942
G2 Y64.8 Z-0.951 I0. J2.4
G1 X51.785 Z-0.992
G2 Y60. Z-1.001 I0. J-2.4
G1 X20.117 Z-1.042
G2 Y64.8 Z-1.051 I0. J2.4
G1 X51.785 Z-1.092
G2 Y60. Z-1.101 I0. J-2.4
G1 X20.117 Z-1.142
G2 Y64.8 Z-1.151 I0. J2.4
G1 X51.785 Z-1.192
G2 Y60. Z-1.201 I0. J-2.4
G1 X20.117 Z-1.242
G2 Y64.8 Z-1.251 I0. J2.4
G1 X51.785 Z-1.292
G2 Y60. Z-1.301 I0. J-2.4
G1 X20.117 Z-1.342
G2 Y64.8 Z-1.351 I0. J2.4
G1 X51.785 Z-1.392
G2 Y60. Z-1.401 I0. J-2.4
G1 X20.117 Z-1.442
G2 Y64.8 Z-1.451 I0. J2.4
G1 X51.785 Z-1.492
G2 Y60. Z-1.501 I0. J-2.4
G1 X20.117 Z-1.542
G2 Y64.8 Z-1.551 I0. J2.4
G1 X51.785 Z-1.592
G2 Y60. Z-1.601 I0. J-2.4
G1 X20.117 Z-1.642
G2 Y64.8 Z-1.651 I0. J2.4
G1 X51.785 Z-1.692
G2 Y60. Z-1.701 I0. J-2.4
G1 X20.117 Z-1.742
G2 Y64.8 Z-1.751 I0. J2.4
G1 X51.785 Z-1.792
G2 Y60. Z-1.801 I0. J-2.4
G1 X20.117 Z-1.842
G2 Y64.8 Z-1.851 I0. J2.4
G1 X51.785 Z-1.892
G2 Y60. Z-1.901 I0. J-2.4
G1 X20.117 Z-1.942
G2 Y64.8 Z-1.951 I0. J2.4
G1 X51.785 Z-1.992
G2 Y60. Z-2.001 I0. J-2.4
G1 X20.117 Z-2.042
G2 Y64.8 Z-2.051 I0. J2.4
G1 X51.785 Z-2.092
G2 Y60. Z-2.101 I0. J-2.4
G1 X20.117 Z-2.142
G2 Y64.8 Z-2.151 I0. J2.4
G1 X51.785 Z-2.192
G2 Y60. Z-2.201 I0. J-2.4
G1 X20.117 Z-2.242
G2 Y64.8 Z-2.251 I0. J2.4
G1 X51.785 Z-2.292
G2 Y60. Z-2.301 I0. J-2.4
G1 X20.117 Z-2.342
G2 Y64.8 Z-2.351 I0. J2.4
G1 X51.785 Z-2.392
G2 Y60. Z-2.401 I0. J-2.4
G1 X20.117 Z-2.442
G2 Y64.8 Z-2.451 I0. J2.4
G1 X51.785 Z-2.492
G2 Y60. Z-2.501 I0. J-2.4
G1 X20.117 Z-2.542
G2 Y64.8 Z-2.551 I0. J2.4
G1 X51.785 Z-2.592
G2 Y60. Z-2.601 I0. J-2.4
G1 X20.117 Z-2.642
G2 Y64.8 Z-2.651 I0. J2.4
G1 X51.785 Z-2.692
G2 Y60. Z-2.701 I0. J-2.4
G1 X20.117 Z-2.742
G2 Y64.8 Z-2.751 I0. J2.4
G1 X51.785 Z-2.792
G2 Y60. Z-2.801 I0. J-2.4
G1 X20.117 Z-2.842
G2 Y64.8 Z-2.851 I0. J2.4
G1 X51.785 Z-2.892
G2 Y60. Z-2.901 I0. J-2.4
G1 X20.117 Z-2.942
G2 Y64.8 Z-2.951 I0. J2.4
G1 X51.785 Z-2.992
G2 Y60. Z-3.001 I0. J-2.4
G1 X20.117 Z-3.042
G2 Y64.8 Z-3.051 I0. J2.4
G1 X51.785 Z-3.092
G2 Y60. Z-3.101 I0. J-2.4
G1 X20.117 Z-3.142
G2 Y64.8 Z-3.151 I0. J2.4
G1 X51.785 Z-3.192
G2 Y60. Z-3.201 I0. J-2.4
G1 X20.117 Z-3.242
G2 Y64.8 Z-3.251 I0. J2.4
G1 X51.785 Z-3.292
G2 Y60. Z-3.301 I0. J-2.4
G1 X20.117 Z-3.342
G2 Y64.8 Z-3.351 I0. J2.4
G1 X51.785 Z-3.392
G2 Y60. Z-3.401 I0. J-2.4
G1 X20.117 Z-3.442
G2 Y64.8 Z-3.451 I0. J2.4
G1 X51.785 Z-3.492
G2 Y60. Z-3.501 I0. J-2.4
G1 X20.117 Z-3.542
G2 Y64.8 Z-3.551 I0. J2.4
G1 X51.785 Z-3.592
G2 Y60. Z-3.601 I0. J-2.4
G1 X20.117 Z-3.642
G2 Y64.8 Z-3.651 I0. J2.4
G1 X51.785 Z-3.692
G2 Y60. Z-3.701 I0. J-2.4
G1 X20.117 Z-3.742
G2 Y64.8 Z-3.751 I0. J2.4
G1 X51.785 Z-3.792
G2 Y60. Z-3.801 I0. J-2.4
G1 X20.117 Z-3.842
G2 Y64.8 Z-3.851 I0. J2.4
G1 X51.785 Z-3.892
G2 Y60. Z-3.901 I0. J-2.4
G1 X20.117 Z-3.942
G2 Y64.8 Z-3.951 I0. J2.4
G1 X51.785 Z-3.992
G2 Y60. Z-4.001 I0. J-2.4
G1 X20.117 Z-4.042
G2 Y64.8 Z-4.051 I0. J2.4
G1 X51.785 Z-4.092
G2 Y60. Z-4.101 I0. J-2.4
G1 X20.117 Z-4.142
G2 Y64.8 Z-4.151 I0. J2.4
G1 X51.785 Z-4.192
G2 Y60. Z-4.201 I0. J-2.4
G1 X20.117 Z-4.242
G2 Y64.8 Z-4.251 I0. J2.4
G1 X51.785 Z-4.292
G2 Y60. Z-4.301 I0. J-2.4
G1 X20.117 Z-4.342
G2 Y64.8 Z-4.351 I0. J2.4
G1 X51.785 Z-4.392
G2 Y60. Z-4.401 I0. J-2.4
G1 X20.117 Z-4.442
G2 Y64.8 Z-4.451 I0. J2.4
G1 X51.785 Z-4.492
G2 Y60. Z-4.501 I0. J-2.4
G1 X20.117 Z-4.542
G2 Y64.8 Z-4.551 I0. J2.4
G1 X51.785 Z-4.592
G2 Y60. Z-4.601 I0. J-2.4
G1 X20.117 Z-4.642
G2 Y64.8 Z-4.651 I0. J2.4
G1 X51.785 Z-4.692
G2 Y60. Z-4.701 I0. J-2.4
G1 X20.117 Z-4.742
G2 Y64.8 Z-4.751 I0. J2.4
G1 X51.785 Z-4.792
G2 Y60. Z-4.801 I0. J-2.4
G1 X20.117 Z-4.842
G2 Y64.8 Z-4.851 I0. J2.4
G1 X51.785 Z-4.892
G2 Y60. Z-4.901 I0. J-2.4
G1 X20.117 Z-4.942
G2 Y64.8 Z-4.951 I0. J2.4
G1 X51.785 Z-4.992
G2 Y60. Z-5.001 I0. J-2.4
G1 X20.117 Z-5.042
G2 Y64.8 Z-5.051 I0. J2.4
G1 X51.785 Z-5.092
G2 Y60. Z-5.101 I0. J-2.4
G1 X20.117 Z-5.142
G2 Y64.8 Z-5.151 I0. J2.4
G1 X51.785 Z-5.192
G2 Y60. Z-5.201 I0. J-2.4
G1 X20.117 Z-5.242
G2 Y64.8 Z-5.251 I0. J2.4
G1 X51.785 Z-5.292
G2 Y60. Z-5.301 I0. J-2.4
G1 X20.117 Z-5.342
G2 Y64.8 Z-5.351 I0. J2.4
G1 X51.785 Z-5.392
G2 Y60. Z-5.401 I0. J-2.4
G1 X20.117 Z-5.442
G2 Y64.8 Z-5.451 I0. J2.4
G1 X51.785 Z-5.492
G2 Y60. Z-5.501 I0. J-2.4
G1 X20.117 Z-5.542
G2 Y64.8 Z-5.551 I0. J2.4
G1 X51.785 Z-5.592
G2 Y60. Z-5.601 I0. J-2.4
G1 X20.117 Z-5.642
G2 Y64.8 Z-5.651 I0. J2.4
G1 X51.785 Z-5.692
G2 Y60. Z-5.701 I0. J-2.4
G1 X20.117 Z-5.742
G2 Y64.8 Z-5.751 I0. J2.4
G1 X51.785 Z-5.792
G2 Y60. Z-5.801 I0. J-2.4
G1 X20.117 Z-5.842
G2 Y64.8 Z-5.851 I0. J2.4
G1 X51.785 Z-5.892
G2 Y60. Z-5.901 I0. J-2.4
G1 X20.117 Z-5.942
G2 Y64.8 Z-5.951 I0. J2.4
G1 X51.785 Z-5.992
G2 Y60. Z-6.001 I0. J-2.4
G1 X20.117 Z-6.042
G2 Y64.8 Z-6.051 I0. J2.4
G1 X51.785 Z-6.092
G2 Y60. Z-6.101 I0. J-2.4
G1 X20.117 Z-6.142
G2 Y64.8 Z-6.151 I0. J2.4
G1 X51.785 Z-6.192
G2 Y60. Z-6.201 I0. J-2.4
G1 X20.117 Z-6.242
G2 Y64.8 Z-6.251 I0. J2.4
G1 X51.785 Z-6.292
G2 Y60. Z-6.301 I0. J-2.4
G1 X20.117 Z-6.342
G2 Y64.8 Z-6.351 I0. J2.4
G1 X51.785 Z-6.392
G2 Y60. Z-6.401 I0. J-2.4
G1 X20.117 Z-6.442
G2 Y64.8 Z-6.451 I0. J2.4
G1 X51.785 Z-6.492
G2 Y60. Z-6.501 I0. J-2.4
G1 X20.117 Z-6.542
G2 Y64.8 Z-6.551 I0. J2.4
G1 X51.785 Z-6.592
G2 Y60. Z-6.601 I0. J-2.4
G1 X20.117 Z-6.642
G2 Y64.8 Z-6.651 I0. J2.4
G1 X51.785 Z-6.692
G2 Y60. Z-6.701 I0. J-2.4
G1 X20.117 Z-6.742
G2 Y64.8 Z-6.751 I0. J2.4
G1 X51.785 Z-6.792
G2 Y60. Z-6.801 I0. J-2.4
G1 X20.117 Z-6.842
G2 Y64.8 Z-6.851 I0. J2.4
G1 X51.785 Z-6.892
G2 Y60. Z-6.901 I0. J-2.4
G1 X20.117 Z-6.942
G2 Y64.8 Z-6.951 I0. J2.4
G1 X51.785 Z-6.992
G2 X52.851 Y60.25 Z-7. I0. J-2.4
X51.785 Y60. I-1.067 J2.15 F600.
G1 X20.117
G2 Y64.8 I0. J2.4
G1 X51.785
G2 X52.851 Y60.25 I0. J-2.4
G1 Z1. F720.
G0 X17.808 Y66.6
G1 Z0.5 F30.
G2 X20.07 Y69.8 Z0.494 I2.263 J0.8 F720.
G1 X51.832 Z0.454
G2 Y65. Z0.444 I0. J-2.4
G1 X20.07 Z0.404
G2 Y69.8 Z0.394 I0. J2.4
G1 X51.832 Z0.354
G2 Y65. Z0.344 I0. J-2.4
G1 X20.07 Z0.304
G2 Y69.8 Z0.294 I0. J2.4
G1 X51.832 Z0.254
G2 Y65. Z0.244 I0. J-2.4
G1 X20.07 Z0.204
G2 Y69.8 Z0.194 I0. J2.4
G1 X51.832 Z0.154
G2 Y65. Z0.144 I0. J-2.4
G1 X20.07 Z0.104
G2 Y69.8 Z0.094 I0. J2.4
G1 X51.832 Z0.054
G2 Y65. Z0.044 I0. J-2.4
G1 X20.07 Z0.004
G2 Y69.8 Z-0.006 I0. J2.4
G1 X51.832 Z-0.046
G2 Y65. Z-0.056 I0. J-2.4
G1 X20.07 Z-0.096
G2 Y69.8 Z-0.106 I0. J2.4
G1 X51.832 Z-0.146
G2 Y65. Z-0.156 I0. J-2.4
G1 X20.07 Z-0.196
G2 Y69.8 Z-0.206 I0. J2.4
G1 X51.832 Z-0.246
G2 Y65. Z-0.256 I0. J-2.4
G1 X20.07 Z-0.296
G2 Y69.8 Z-0.306 I0. J2.4
G1 X51.832 Z-0.346
G2 Y65. Z-0.356 I0. J-2.4
G1 X20.07 Z-0.396
G2 Y69.8 Z-0.406 I0. J2.4
G1 X51.832 Z-0.446
G2 Y65. Z-0.456 I0. J-2.4
G1 X20.07 Z-0.496
G2 Y69.8 Z-0.506 I0. J2.4
G1 X51.832 Z-0.546
G2 Y65. Z-0.556 I0. J-2.4
G1 X20.07 Z-0.596
G2 Y69.8 Z-0.606 I0. J2.4
G1 X51.832 Z-0.646
G2 Y65. Z-0.656 I0. J-2.4
G1 X20.07 Z-0.696
G2 Y69.8 Z-0.706 I0. J2.4
G1 X51.832 Z-0.746
G2 Y65. Z-0.756 I0. J-2.4
G1 X20.07 Z-0.796
G2 Y69.8 Z-0.806 I0. J2.4
G1 X51.832 Z-0.846
G2 Y65. Z-0.856 I0. J-2.4
G1 X20.07 Z-0.896
G2 Y69.8 Z-0.906 I0. J2.4
G1 X51.832 Z-0.946
G2 Y65. Z-0.956 I0. J-2.4
G1 X20.07 Z-0.996
G2 Y69.8 Z-1.006 I0. J2.4
G1 X51.832 Z-1.046
G2 Y65. Z-1.056 I0. J-2.4
G1 X20.07 Z-1.096
G2 Y69.8 Z-1.106 I0. J2.4
G1 X51.832 Z-1.146
G2 Y65. Z-1.156 I0. J-2.4
G1 X20.07 Z-1.196
G2 Y69.8 Z-1.206 I0. J2.4
G1 X51.832 Z-1.246
G2 Y65. Z-1.256 I0. J-2.4
G1 X20.07 Z-1.296
G2 Y69.8 Z-1.306 I0. J2.4
G1 X51.832 Z-1.346
G2 Y65. Z-1.356 I0. J-2.4
G1 X20.07 Z-1.396
G2 Y69.8 Z-1.406 I0. J2.4
G1 X51.832 Z-1.446
G2 Y65. Z-1.456 I0. J-2.4
G1 X20.07 Z-1.496
G2 Y69.8 Z-1.506 I0. J2.4
G1 X51.832 Z-1.546
G2 Y65. Z-1.556 I0. J-2.4
G1 X20.07 Z-1.596
G2 Y69.8 Z-1.606 I0. J2.4
G1 X51.832 Z-1.646
G2 Y65. Z-1.656 I0. J-2.4
G1 X20.07 Z-1.696
G2 Y69.8 Z-1.706 I0. J2.4
G1 X51.832 Z-1.746
G2 Y65. Z-1.756 I0. J-2.4
G1 X20.07 Z-1.796
G2 Y69.8 Z-1.806 I0. J2.4
G1 X51.832 Z-1.846
G2 Y65. Z-1.856 I0. J-2.4
G1 X20.07 Z-1.896
G2 Y69.8 Z-1.906 I0. J2.4
G1 X51.832 Z-1.946
G2 Y65. Z-1.956 I0. J-2.4
G1 X20.07 Z-1.996
G2 Y69.8 Z-2.006 I0. J2.4
G1 X51.832 Z-2.046
G2 Y65. Z-2.056 I0. J-2.4
G1 X20.07 Z-2.096
G2 Y69.8 Z-2.106 I0. J2.4
G1 X51.832 Z-2.146
G2 Y65. Z-2.156 I0. J-2.4
G1 X20.07 Z-2.196
G2 Y69.8 Z-2.206 I0. J2.4
G1 X51.832 Z-2.246
G2 Y65. Z-2.256 I0. J-2.4
G1 X20.07 Z-2.296
G2 Y69.8 Z-2.306 I0. J2.4
G1 X51.832 Z-2.346
G2 Y65. Z-2.356 I0. J-2.4
G1 X20.07 Z-2.396
G2 Y69.8 Z-2.406 I0. J2.4
G1 X51.832 Z-2.446
G2 Y65. Z-2.456 I0. J-2.4
G1 X20.07 Z-2.496
G2 Y69.8 Z-2.506 I0. J2.4
G1 X51.832 Z-2.546
G2 Y65. Z-2.556 I0. J-2.4
G1 X20.07 Z-2.596
G2 Y69.8 Z-2.606 I0. J2.4
G1 X51.832 Z-2.646
G2 Y65. Z-2.656 I0. J-2.4
G1 X20.07 Z-2.696
G2 Y69.8 Z-2.706 I0. J2.4
G1 X51.832 Z-2.746
G2 Y65. Z-2.756 I0. J-2.4
G1 X20.07 Z-2.796
G2 Y69.8 Z-2.806 I0. J2.4
G1 X51.832 Z-2.846
G2 Y65. Z-2.856 I0. J-2.4
G1 X20.07 Z-2.896
G2 Y69.8 Z-2.906 I0. J2.4
G1 X51.832 Z-2.946
G2 Y65. Z-2.956 I0. J-2.4
G1 X20.07 Z-2.996
G2 Y69.8 Z-3.006 I0. J2.4
G1 X51.832 Z-3.046
G2 Y65. Z-3.056 I0. J-2.4
G1 X20.07 Z-3.096
G2 Y69.8 Z-3.106 I0. J2.4
G1 X51.832 Z-3.146
G2 Y65. Z-3.156 I0. J-2.4
G1 X20.07 Z-3.196
G2 Y69.8 Z-3.206 I0. J2.4
G1 X51.832 Z-3.246
G2 Y65. Z-3.256 I0. J-2.4
G1 X20.07 Z-3.296
G2 Y69.8 Z-3.306 I0. J2.4
G1 X51.832 Z-3.346
G2 Y65. Z-3.356 I0. J-2.4
G1 X20.07 Z-3.396
G2 Y69.8 Z-3.406 I0. J2.4
G1 X51.832 Z-3.446
G2 Y65. Z-3.456 I0. J-2.4
G1 X20.07 Z-3.496
G2 Y69.8 Z-3.506 I0. J2.4
G1 X51.832 Z-3.546
G2 Y65. Z-3.556 I0. J-2.4
G1 X20.07 Z-3.596
G2 Y69.8 Z-3.606 I0. J2.4
G1 X51.832 Z-3.646
G2 Y65. Z-3.656 I0. J-2.4
G1 X20.07 Z-3.696
G2 Y69.8 Z-3.706 I0. J2.4
G1 X51.832 Z-3.746
G2 Y65. Z-3.756 I0. J-2.4
G1 X20.07 Z-3.796
G2 Y69.8 Z-3.806 I0. J2.4
G1 X51.832 Z-3.846
G2 Y65. Z-3.856 I0. J-2.4
G1 X20.07 Z-3.896
G2 Y69.8 Z-3.906 I0. J2.4
G1 X51.832 Z-3.946
G2 Y65. Z-3.956 I0. J-2.4
G1 X20.07 Z-3.996
G2 Y69.8 Z-4.006 I0. J2.4
G1 X51.832 Z-4.046
G2 Y65. Z-4.056 I0. J-2.4
G1 X20.07 Z-4.096
G2 Y69.8 Z-4.106 I0. J2.4
G1 X51.832 Z-4.146
G2 Y65. Z-4.156 I0. J-2.4
G1 X20.07 Z-4.196
G2 Y69.8 Z-4.206 I0. J2.4
G1 X51.832 Z-4.246
G2 Y65. Z-4.256 I0. J-2.4
G1 X20.07 Z-4.296
G2 Y69.8 Z-4.306 I0. J2.4
G1 X51.832 Z-4.346
G2 Y65. Z-4.356 I0. J-2.4
G1 X20.07 Z-4.396
G2 Y69.8 Z-4.406 I0. J2.4
G1 X51.832 Z-4.446
G2 Y65. Z-4.456 I0. J-2.4
G1 X20.07 Z-4.496
G2 Y69.8 Z-4.506 I0. J2.4
G1 X51.832 Z-4.546
G2 Y65. Z-4.556 I0. J-2.4
G1 X20.07 Z-4.596
G2 Y69.8 Z-4.606 I0. J2.4
G1 X51.832 Z-4.646
G2 Y65. Z-4.656 I0. J-2.4
G1 X20.07 Z-4.696
G2 Y69.8 Z-4.706 I0. J2.4
G1 X51.832 Z-4.746
G2 Y65. Z-4.756 I0. J-2.4
G1 X20.07 Z-4.796
G2 Y69.8 Z-4.806 I0. J2.4
G1 X51.832 Z-4.846
G2 Y65. Z-4.856 I0. J-2.4
G1 X20.07 Z-4.896
G2 Y69.8 Z-4.906 I0. J2.4
G1 X51.832 Z-4.946
G2 Y65. Z-4.956 I0. J-2.4
G1 X20.07 Z-4.996
G2 Y69.8 Z-5.006 I0. J2.4
G1 X51.832 Z-5.046
G2 Y65. Z-5.056 I0. J-2.4
G1 X20.07 Z-5.096
G2 Y69.8 Z-5.106 I0. J2.4
G1 X51.832 Z-5.146
G2 Y65. Z-5.156 I0. J-2.4
G1 X20.07 Z-5.196
G2 Y69.8 Z-5.206 I0. J2.4
G1 X51.832 Z-5.246
G2 Y65. Z-5.256 I0. J-2.4
G1 X20.07 Z-5.296
G2 Y69.8 Z-5.306 I0. J2.4
G1 X51.832 Z-5.346
G2 Y65. Z-5.356 I0. J-2.4
G1 X20.07 Z-5.396
G2 Y69.8 Z-5.406 I0. J2.4
G1 X51.832 Z-5.446
G2 Y65. Z-5.456 I0. J-2.4
G1 X20.07 Z-5.496
G2 Y69.8 Z-5.506 I0. J2.4
G1 X51.832 Z-5.546
G2 Y65. Z-5.556 I0. J-2.4
G1 X20.07 Z-5.596
G2 Y69.8 Z-5.606 I0. J2.4
G1 X51.832 Z-5.646
G2 Y65. Z-5.656 I0. J-2.4
G1 X20.07 Z-5.696
G2 Y69.8 Z-5.706 I0. J2.4
G1 X51.832 Z-5.746
G2 Y65. Z-5.756 I0. J-2.4
G1 X20.07 Z-5.796
G2 Y69.8 Z-5.806 I0. J2.4
G1 X51.832 Z-5.846
G2 Y65. Z-5.856 I0. J-2.4
G1 X20.07 Z-5.896
G2 Y69.8 Z-5.906 I0. J2.4
G1 X51.832 Z-5.946
G2 Y65. Z-5.956 I0. J-2.4
G1 X20.07 Z-5.996
G2 Y69.8 Z-6.006 I0. J2.4
G1 X51.832 Z-6.046
G2 Y65. Z-6.056 I0. J-2.4
G1 X20.07 Z-6.096
G2 Y69.8 Z-6.106 I0. J2.4
G1 X51.832 Z-6.146
G2 Y65. Z-6.156 I0. J-2.4
G1 X20.07 Z-6.196
G2 Y69.8 Z-6.206 I0. J2.4
G1 X51.832 Z-6.246
G2 Y65. Z-6.256 I0. J-2.4
G1 X20.07 Z-6.296
G2 Y69.8 Z-6.306 I0. J2.4
G1 X51.832 Z-6.346
G2 Y65. Z-6.356 I0. J-2.4
G1 X20.07 Z-6.396
G2 Y69.8 Z-6.406 I0. J2.4
G1 X51.832 Z-6.446
G2 Y65. Z-6.456 I0. J-2.4
G1 X20.07 Z-6.496
G2 Y69.8 Z-6.506 I0. J2.4
G1 X51.832 Z-6.546
G2 Y65. Z-6.556 I0. J-2.4
G1 X20.07 Z-6.596
G2 Y69.8 Z-6.606 I0. J2.4
G1 X51.832 Z-6.646
G2 Y65. Z-6.656 I0. J-2.4
G1 X20.07 Z-6.696
G2 Y69.8 Z-6.706 I0. J2.4
G1 X51.832 Z-6.746
G2 Y65. Z-6.756 I0. J-2.4
G1 X20.07 Z-6.796
G2 Y69.8 Z-6.806 I0. J2.4
G1 X51.832 Z-6.846
G2 Y65. Z-6.856 I0. J-2.4
G1 X20.07 Z-6.896
G2 Y69.8 Z-6.906 I0. J2.4
G1 X51.832 Z-6.946
G2 Y65. Z-6.956 I0. J-2.4
G1 X20.07 Z-6.996
G2 X17.808 Y66.6 Z-7. I0. J2.4
X20.07 Y69.8 I2.263 J0.8 F600.
G1 X51.832
G2 Y65. I0. J-2.4
G1 X20.07
G2 X17.808 Y66.6 I0. J2.4
G1 Z1. F720.
G0 X109.65 Y72.413
G1 Z0.5 F30.
Y72.4 F720.
G2 X107.25 Y70. Z0.498 I-2.4 J0.
G1 X10.65 Z0.452
G2 Y74.8 Z0.448 I0. J2.4
G1 X107.25 Z0.402
G2 X109.65 Y72.413 Z0.4 I0. J-2.4
G1 Y72.4
G2 X107.25 Y70. Z0.398 I-2.4 J0.
G1 X10.65 Z0.352
G2 Y74.8 Z0.348 I0. J2.4
G1 X107.25 Z0.302
G2 X109.65 Y72.413 Z0.3 I0. J-2.4
G1 Y72.4
G2 X107.25 Y70. Z0.298 I-2.4 J0.
G1 X10.65 Z0.252
G2 Y74.8 Z0.248 I0. J2.4
G1 X107.25 Z0.202
G2 X109.65 Y72.413 Z0.2 I0. J-2.4
G1 Y72.4
G2 X107.25 Y70. Z0.198 I-2.4 J0.
G1 X10.65 Z0.152
G2 Y74.8 Z0.148 I0. J2.4
G1 X107.25 Z0.102
G2 X109.65 Y72.413 Z0.1 I0. J-2.4
G1 Y72.4
G2 X107.25 Y70. Z0.098 I-2.4 J0.
G1 X10.65 Z0.052
G2 Y74.8 Z0.048 I0. J2.4
G1 X107.25 Z0.002
G2 X109.65 Y72.413 Z0. I0. J-2.4
G1 Y72.4
G2 X107.25 Y70. Z-0.002 I-2.4 J0.
G1 X10.65 Z-0.048
G2 Y74.8 Z-0.052 I0. J2.4
G1 X107.25 Z-0.098
G2 X109.65 Y72.413 Z-0.1 I0. J-2.4
G1 Y72.4
G2 X107.25 Y70. Z-0.102 I-2.4 J0.
G1 X10.65 Z-0.148
G2 Y74.8 Z-0.152 I0. J2.4
G1 X107.25 Z-0.198
G2 X109.65 Y72.413 Z-0.2 I0. J-2.4
G1 Y72.4
G2 X107.25 Y70. Z-0.202 I-2.4 J0.
G1 X10.65 Z-0.248
G2 Y74.8 Z-0.252 I0. J2.4
G1 X107.25 Z-0.298
G2 X109.65 Y72.413 Z-0.3 I0. J-2.4
G1 Y72.4
G2 X107.25 Y70. Z-0.302 I-2.4 J0.
G1 X10.65 Z-0.348
G2 Y74.8 Z-0.352 I0. J2.4
G1 X107.25 Z-0.398
G2 X109.65 Y72.413 Z-0.4 I0. J-2.4
G1 Y72.4
G2 X107.25 Y70. Z-0.402 I-2.4 J0.
G1 X10.65 Z-0.448
G2 Y74.8 Z-0.452 I0. J2.4
G1 X107.25 Z-0.498
G2 X109.65 Y72.413 Z-0.5 I0. J-2.4
G1 Y72.4
G2 X107.25 Y70. Z-0.502 I-2.4 J0.
G1 X10.65 Z-0.548
G2 Y74.8 Z-0.552 I0. J2.4
G1 X107.25 Z-0.598
G2 X109.65 Y72.413 Z-0.6 I0. J-2.4
G1 Y72.4
G2 X107.25 Y70. Z-0.602 I-2.4 J0.
G1 X10.65 Z-0.648
G2 Y74.8 Z-0.652 I0. J2.4
G1 X107.25 Z-0.698
G2 X109.65 Y72.413 Z-0.7 I0. J-2.4
G1 Y72.4
G2 X107.25 Y70. Z-0.702 I-2.4 J0.
G1 X10.65 Z-0.748
G2 Y74.8 Z-0.752 I0. J2.4
G1 X107.25 Z-0.798
G2 X109.65 Y72.413 Z-0.8 I0. J-2.4
G1 Y72.4
G2 X107.25 Y70. Z-0.802 I-2.4 J0.
G1 X10.65 Z-0.848
G2 Y74.8 Z-0.852 I0. J2.4
G1 X107.25 Z-0.898
G2 X109.65 Y72.413 Z-0.9 I0. J-2.4
G1 Y72.4
G2 X107.25 Y70. Z-0.902 I-2.4 J0.
G1 X10.65 Z-0.948
G2 Y74.8 Z-0.952 I0. J2.4
G1 X107.25 Z-0.998
G2 X109.65 Y72.413 Z-1. I0. J-2.4
G1 Y72.4
G2 X107.25 Y70. Z-1.002 I-2.4 J0.
G1 X10.65 Z-1.048
G2 Y74.8 Z-1.052 I0. J2.4
G1 X107.25 Z-1.098
G2 X109.65 Y72.413 Z-1.1 I0. J-2.4
G1 Y72.4
G2 X107.25 Y70. Z-1.102 I-2.4 J0.
G1 X10.65 Z-1.148
G2 Y74.8 Z-1.152 I0. J2.4
G1 X107.25 Z-1.198
G2 X109.65 Y72.413 Z-1.2 I0. J-2.4
G1 Y72.4
G2 X107.25 Y70. Z-1.202 I-2.4 J0.
G1 X10.65 Z-1.248
G2 Y74.8 Z-1.252 I0. J2.4
G1 X107.25 Z-1.298
G2 X109.65 Y72.413 Z-1.3 I0. J-2.4
G1 Y72.4
G2 X107.25 Y70. Z-1.302 I-2.4 J0.
G1 X10.65 Z-1.348
G2 Y74.8 Z-1.352 I0. J2.4
G1 X107.25 Z-1.398
G2 X109.65 Y72.413 Z-1.4 I0. J-2.4
G1 Y72.4
G2 X107.25 Y70. Z-1.402 I-2.4 J0.
G1 X10.65 Z-1.448
G2 Y74.8 Z-1.452 I0. J2.4
G1 X107.25 Z-1.498
G2 X109.65 Y72.413 Z-1.5 I0. J-2.4
G1 Y72.4
G2 X107.25 Y70. Z-1.502 I-2.4 J0.
G1 X10.65 Z-1.548
G2 Y74.8 Z-1.552 I0. J2.4
G1 X107.25 Z-1.598
G2 X109.65 Y72.413 Z-1.6 I0. J-2.4
G1 Y72.4
G2 X107.25 Y70. Z-1.602 I-2.4 J0.
G1 X10.65 Z-1.648
G2 Y74.8 Z-1.652 I0. J2.4
G1 X107.25 Z-1.698
G2 X109.65 Y72.413 Z-1.7 I0. J-2.4
G1 Y72.4
G2 X107.25 Y70. Z-1.702 I-2.4 J0.
G1 X10.65 Z-1.748
G2 Y74.8 Z-1.752 I0. J2.4
G1 X107.25 Z-1.798
G2 X109.65 Y72.413 Z-1.8 I0. J-2.4
G1 Y72.4
G2 X107.25 Y70. Z-1.802 I-2.4 J0.
G1 X10.65 Z-1.848
G2 Y74.8 Z-1.852 I0. J2.4
G1 X107.25 Z-1.898
G2 X109.65 Y72.413 Z-1.9 I0. J-2.4
G1 Y72.4
G2 X107.25 Y70. Z-1.902 I-2.4 J0.
G1 X10.65 Z-1.948
G2 Y74.8 Z-1.952 I0. J2.4
G1 X107.25 Z-1.998
G2 X109.65 Y72.413 Z-2. I0. J-2.4
G1 Y72.4
G2 X107.25 Y70. Z-2.002 I-2.4 J0.
G1 X10.65 Z-2.048
G2 Y74.8 Z-2.052 I0. J2.4
G1 X107.25 Z-2.098
G2 X109.65 Y72.413 Z-2.1 I0. J-2.4
G1 Y72.4
G2 X107.25 Y70. Z-2.102 I-2.4 J0.
G1 X10.65 Z-2.148
G2 Y74.8 Z-2.152 I0. J2.4
G1 X107.25 Z-2.198
G2 X109.65 Y72.413 Z-2.2 I0. J-2.4
G1 Y72.4
G2 X107.25 Y70. Z-2.202 I-2.4 J0.
G1 X10.65 Z-2.248
G2 Y74.8 Z-2.252 I0. J2.4
G1 X107.25 Z-2.298
G2 X109.65 Y72.413 Z-2.3 I0. J-2.4
G1 Y72.4
G2 X107.25 Y70. Z-2.302 I-2.4 J0.
G1 X10.65 Z-2.348
G2 Y74.8 Z-2.352 I0. J2.4
G1 X107.25 Z-2.398
G2 X109.65 Y72.413 Z-2.4 I0. J-2.4
G1 Y72.4
G2 X107.25 Y70. Z-2.402 I-2.4 J0.
G1 X10.65 Z-2.448
G2 Y74.8 Z-2.452 I0. J2.4
G1 X107.25 Z-2.498
G2 X109.65 Y72.413 Z-2.5 I0. J-2.4
G1 Y72.4
G2 X107.25 Y70. Z-2.502 I-2.4 J0.
G1 X10.65 Z-2.548
G2 Y74.8 Z-2.552 I0. J2.4
G1 X107.25 Z-2.598
G2 X109.65 Y72.413 Z-2.6 I0. J-2.4
G1 Y72.4
G2 X107.25 Y70. Z-2.602 I-2.4 J0.
G1 X10.65 Z-2.648
G2 Y74.8 Z-2.652 I0. J2.4
G1 X107.25 Z-2.698
G2 X109.65 Y72.413 Z-2.7 I0. J-2.4
G1 Y72.4
G2 X107.25 Y70. Z-2.702 I-2.4 J0.
G1 X10.65 Z-2.748
G2 Y74.8 Z-2.752 I0. J2.4
G1 X107.25 Z-2.798
G2 X109.65 Y72.413 Z-2.8 I0. J-2.4
G1 Y72.4
G2 X107.25 Y70. Z-2.802 I-2.4 J0.
G1 X10.65 Z-2.848
G2 Y74.8 Z-2.852 I0. J2.4
G1 X107.25 Z-2.898
G2 X109.65 Y72.413 Z-2.9 I0. J-2.4
G1 Y72.4
G2 X107.25 Y70. Z-2.902 I-2.4 J0.
G1 X10.65 Z-2.948
G2 Y74.8 Z-2.952 I0. J2.4
G1 X107.25 Z-2.998
G2 X109.65 Y72.413 Z-3. I0. J-2.4
G1 Y72.4
G2 X107.25 Y70. Z-3.002 I-2.4 J0.
G1 X10.65 Z-3.048
G2 Y74.8 Z-3.052 I0. J2.4
G1 X107.25 Z-3.098
G2 X109.65 Y72.413 Z-3.1 I0. J-2.4
G1 Y72.4
G2 X107.25 Y70. Z-3.102 I-2.4 J0.
G1 X10.65 Z-3.148
G2 Y74.8 Z-3.152 I0. J2.4
G1 X107.25 Z-3.198
G2 X109.65 Y72.413 Z-3.2 I0. J-2.4
G1 Y72.4
G2 X107.25 Y70. Z-3.202 I-2.4 J0.
G1 X10.65 Z-3.248
G2 Y74.8 Z-3.252 I0. J2.4
G1 X107.25 Z-3.298
G2 X109.65 Y72.413 Z-3.3 I0. J-2.4
G1 Y72.4
G2 X107.25 Y70. Z-3.302 I-2.4 J0.
G1 X10.65 Z-3.348
G2 Y74.8 Z-3.352 I0. J2.4
G1 X107.25 Z-3.398
G2 X109.65 Y72.413 Z-3.4 I0. J-2.4
G1 Y72.4
G2 X107.25 Y70. Z-3.402 I-2.4 J0.
G1 X10.65 Z-3.448
G2 Y74.8 Z-3.452 I0. J2.4
G1 X107.25 Z-3.498
G2 X109.65 Y72.413 Z-3.5 I0. J-2.4
G1 Y72.4
G2 X107.25 Y70. Z-3.502 I-2.4 J0.
G1 X10.65 Z-3.548
G2 Y74.8 Z-3.552 I0. J2.4
G1 X107.25 Z-3.598
G2 X109.65 Y72.413 Z-3.6 I0. J-2.4
G1 Y72.4
G2 X107.25 Y70. Z-3.602 I-2.4 J0.
G1 X10.65 Z-3.648
G2 Y74.8 Z-3.652 I0. J2.4
G1 X107.25 Z-3.698
G2 X109.65 Y72.413 Z-3.7 I0. J-2.4
G1 Y72.4
G2 X107.25 Y70. Z-3.702 I-2.4 J0.
G1 X10.65 Z-3.748
G2 Y74.8 Z-3.752 I0. J2.4
G1 X107.25 Z-3.798
G2 X109.65 Y72.413 Z-3.8 I0. J-2.4
G1 Y72.4
G2 X107.25 Y70. Z-3.802 I-2.4 J0.
G1 X10.65 Z-3.848
G2 Y74.8 Z-3.852 I0. J2.4
G1 X107.25 Z-3.898
G2 X109.65 Y72.413 Z-3.9 I0. J-2.4
G1 Y72.4
G2 X107.25 Y70. Z-3.902 I-2.4 J0.
G1 X10.65 Z-3.948
G2 Y74.8 Z-3.952 I0. J2.4
G1 X107.25 Z-3.998
G2 X109.65 Y72.413 Z-4. I0. J-2.4
G1 Y72.4
G2 X107.25 Y70. Z-4.002 I-2.4 J0.
G1 X10.65 Z-4.048
G2 Y74.8 Z-4.052 I0. J2.4
G1 X107.25 Z-4.098
G2 X109.65 Y72.413 Z-4.1 I0. J-2.4
G1 Y72.4
G2 X107.25 Y70. Z-4.102 I-2.4 J0.
G1 X10.65 Z-4.148
G2 Y74.8 Z-4.152 I0. J2.4
G1 X107.25 Z-4.198
G2 X109.65 Y72.413 Z-4.2 I0. J-2.4
G1 Y72.4
G2 X107.25 Y70. Z-4.202 I-2.4 J0.
G1 X10.65 Z-4.248
G2 Y74.8 Z-4.252 I0. J2.4
G1 X107.25 Z-4.298
G2 X109.65 Y72.413 Z-4.3 I0. J-2.4
G1 Y72.4
G2 X107.25 Y70. Z-4.302 I-2.4 J0.
G1 X10.65 Z-4.348
G2 Y74.8 Z-4.352 I0. J2.4
G1 X107.25 Z-4.398
G2 X109.65 Y72.413 Z-4.4 I0. J-2.4
G1 Y72.4
G2 X107.25 Y70. Z-4.402 I-2.4 J0.
G1 X10.65 Z-4.448
G2 Y74.8 Z-4.452 I0. J2.4
G1 X107.25 Z-4.498
G2 X109.65 Y72.413 Z-4.5 I0. J-2.4
G1 Y72.4
G2 X107.25 Y70. Z-4.502 I-2.4 J0.
G1 X10.65 Z-4.548
G2 Y74.8 Z-4.552 I0. J2.4
G1 X107.25 Z-4.598
G2 X109.65 Y72.413 Z-4.6 I0. J-2.4
G1 Y72.4
G2 X107.25 Y70. Z-4.602 I-2.4 J0.
G1 X10.65 Z-4.648
G2 Y74.8 Z-4.652 I0. J2.4
G1 X107.25 Z-4.698
G2 X109.65 Y72.413 Z-4.7 I0. J-2.4
G1 Y72.4
G2 X107.25 Y70. Z-4.702 I-2.4 J0.
G1 X10.65 Z-4.748
G2 Y74.8 Z-4.752 I0. J2.4
G1 X107.25 Z-4.798
G2 X109.65 Y72.413 Z-4.8 I0. J-2.4
G1 Y72.4
G2 X107.25 Y70. Z-4.802 I-2.4 J0.
G1 X10.65 Z-4.848
G2 Y74.8 Z-4.852 I0. J2.4
G1 X107.25 Z-4.898
G2 X109.65 Y72.413 Z-4.9 I0. J-2.4
G1 Y72.4
G2 X107.25 Y70. Z-4.902 I-2.4 J0.
G1 X10.65 Z-4.948
G2 Y74.8 Z-4.952 I0. J2.4
G1 X107.25 Z-4.998
G2 X109.65 Y72.413 Z-5. I0. J-2.4
G1 Y72.4
G2 X107.25 Y70. Z-5.002 I-2.4 J0.
G1 X10.65 Z-5.048
G2 Y74.8 Z-5.052 I0. J2.4
G1 X107.25 Z-5.098
G2 X109.65 Y72.413 Z-5.1 I0. J-2.4
G1 Y72.4
G2 X107.25 Y70. Z-5.102 I-2.4 J0.
G1 X10.65 Z-5.148
G2 Y74.8 Z-5.152 I0. J2.4
G1 X107.25 Z-5.198
G2 X109.65 Y72.413 Z-5.2 I0. J-2.4
G1 Y72.4
G2 X107.25 Y70. Z-5.202 I-2.4 J0.
G1 X10.65 Z-5.248
G2 Y74.8 Z-5.252 I0. J2.4
G1 X107.25 Z-5.298
G2 X109.65 Y72.413 Z-5.3 I0. J-2.4
G1 Y72.4
