(1001)
(T1  D=3. CR=0. - ZMIN=-10. - FLAT END MILL)
G90 G94 G91.1 G40 G49 G17
G21

(2D 13 2)
M5
M9
T1 M6
S10000 M3
G54
M8
G0 X103.122 Y263.152
G43 Z1.5 H1
Z1.
G1 Z0.5 F30.
G3 X103.152 Y263.147 Z0.499 I0.03 J0.095 F720.
Y263.347 Z0.488 I0. J0.1
Y263.147 Z0.477 I0. J-0.1
Y263.347 Z0.466 I0. J0.1
Y263.147 Z0.455 I0. J-0.1
Y263.347 Z0.444 I0. J0.1
Y263.147 Z0.433 I0. J-0.1
Y263.347 Z0.422 I0. J0.1
Y263.147 Z0.411 I0. J-0.1
Y263.347 Z0.4 I0. J0.1
Y263.147 Z0.389 I0. J-0.1
Y263.347 Z0.378 I0. J0.1
Y263.147 Z0.367 I0. J-0.1
Y263.347 Z0.356 I0. J0.1
Y263.147 Z0.345 I0. J-0.1
Y263.347 Z0.334 I0. J0.1
Y263.147 Z0.323 I0. J-0.1
Y263.347 Z0.312 I0. J0.1
Y263.147 Z0.301 I0. J-0.1
Y263.347 Z0.291 I0. J0.1
Y263.147 Z0.28 I0. J-0.1
Y263.347 Z0.269 I0. J0.1
Y263.147 Z0.258 I0. J-0.1
Y263.347 Z0.247 I0. J0.1
Y263.147 Z0.236 I0. J-0.1
Y263.347 Z0.225 I0. J0.1
Y263.147 Z0.214 I0. J-0.1
Y263.347 Z0.203 I0. J0.1
Y263.147 Z0.192 I0. J-0.1
Y263.347 Z0.181 I0. J0.1
Y263.147 Z0.17 I0. J-0.1
Y263.347 Z0.159 I0. J0.1
Y263.147 Z0.148 I0. J-0.1
Y263.347 Z0.137 I0. J0.1
Y263.147 Z0.126 I0. J-0.1
Y263.347 Z0.115 I0. J0.1
Y263.147 Z0.104 I0. J-0.1
Y263.347 Z0.093 I0. J0.1
Y263.147 Z0.082 I0. J-0.1
Y263.347 Z0.071 I0. J0.1
Y263.147 Z0.06 I0. J-0.1
Y263.347 Z0.049 I0. J0.1
Y263.147 Z0.038 I0. J-0.1
Y263.347 Z0.027 I0. J0.1
Y263.147 Z0.016 I0. J-0.1
Y263.347 Z0.005 I0. J0.1
Y263.147 Z-0.006 I0. J-0.1
Y263.347 Z-0.017 I0. J0.1
Y263.147 Z-0.028 I0. J-0.1
Y263.347 Z-0.039 I0. J0.1
Y263.147 Z-0.05 I0. J-0.1
Y263.347 Z-0.061 I0. J0.1
Y263.147 Z-0.072 I0. J-0.1
Y263.347 Z-0.083 I0. J0.1
Y263.147 Z-0.093 I0. J-0.1
Y263.347 Z-0.104 I0. J0.1
Y263.147 Z-0.115 I0. J-0.1
Y263.347 Z-0.126 I0. J0.1
Y263.147 Z-0.137 I0. J-0.1
Y263.347 Z-0.148 I0. J0.1
Y263.147 Z-0.159 I0. J-0.1
Y263.347 Z-0.17 I0. J0.1
Y263.147 Z-0.181 I0. J-0.1
Y263.347 Z-0.192 I0. J0.1
Y263.147 Z-0.203 I0. J-0.1
Y263.347 Z-0.214 I0. J0.1
Y263.147 Z-0.225 I0. J-0.1
Y263.347 Z-0.236 I0. J0.1
Y263.147 Z-0.247 I0. J-0.1
Y263.347 Z-0.258 I0. J0.1
Y263.147 Z-0.269 I0. J-0.1
Y263.347 Z-0.28 I0. J0.1
Y263.147 Z-0.291 I0. J-0.1
Y263.347 Z-0.302 I0. J0.1
Y263.147 Z-0.313 I0. J-0.1
Y263.347 Z-0.324 I0. J0.1
Y263.147 Z-0.335 I0. J-0.1
Y263.347 Z-0.346 I0. J0.1
Y263.147 Z-0.357 I0. J-0.1
Y263.347 Z-0.368 I0. J0.1
Y263.147 Z-0.379 I0. J-0.1
Y263.347 Z-0.39 I0. J0.1
Y263.147 Z-0.401 I0. J-0.1
Y263.347 Z-0.412 I0. J0.1
Y263.147 Z-0.423 I0. J-0.1
Y263.347 Z-0.434 I0. J0.1
Y263.147 Z-0.445 I0. J-0.1
Y263.347 Z-0.456 I0. J0.1
Y263.147 Z-0.466 I0. J-0.1
Y263.347 Z-0.477 I0. J0.1
Y263.147 Z-0.488 I0. J-0.1
Y263.347 Z-0.499 I0. J0.1
Y263.147 Z-0.51 I0. J-0.1
Y263.347 Z-0.521 I0. J0.1
Y263.147 Z-0.532 I0. J-0.1
Y263.347 Z-0.543 I0. J0.1
Y263.147 Z-0.554 I0. J-0.1
Y263.347 Z-0.565 I0. J0.1
Y263.147 Z-0.576 I0. J-0.1
Y263.347 Z-0.587 I0. J0.1
Y263.147 Z-0.598 I0. J-0.1
Y263.347 Z-0.609 I0. J0.1
Y263.147 Z-0.62 I0. J-0.1
Y263.347 Z-0.631 I0. J0.1
Y263.147 Z-0.642 I0. J-0.1
Y263.347 Z-0.653 I0. J0.1
Y263.147 Z-0.664 I0. J-0.1
Y263.347 Z-0.675 I0. J0.1
Y263.147 Z-0.686 I0. J-0.1
Y263.347 Z-0.697 I0. J0.1
Y263.147 Z-0.708 I0. J-0.1
Y263.347 Z-0.719 I0. J0.1
Y263.147 Z-0.73 I0. J-0.1
Y263.347 Z-0.741 I0. J0.1
Y263.147 Z-0.752 I0. J-0.1
Y263.347 Z-0.763 I0. J0.1
Y263.147 Z-0.774 I0. J-0.1
Y263.347 Z-0.785 I0. J0.1
Y263.147 Z-0.796 I0. J-0.1
Y263.347 Z-0.807 I0. J0.1
Y263.147 Z-0.818 I0. J-0.1
Y263.347 Z-0.829 I0. J0.1
Y263.147 Z-0.839 I0. J-0.1
Y263.347 Z-0.85 I0. J0.1
Y263.147 Z-0.861 I0. J-0.1
Y263.347 Z-0.872 I0. J0.1
Y263.147 Z-0.883 I0. J-0.1
Y263.347 Z-0.894 I0. J0.1
Y263.147 Z-0.905 I0. J-0.1
Y263.347 Z-0.916 I0. J0.1
Y263.147 Z-0.927 I0. J-0.1
Y263.347 Z-0.938 I0. J0.1
Y263.147 Z-0.949 I0. J-0.1
Y263.347 Z-0.96 I0. J0.1
Y263.147 Z-0.971 I0. J-0.1
Y263.347 Z-0.982 I0. J0.1
Y263.147 Z-0.993 I0. J-0.1
Y263.347 Z-1.004 I0. J0.1
Y263.147 Z-1.015 I0. J-0.1
Y263.347 Z-1.026 I0. J0.1
Y263.147 Z-1.037 I0. J-0.1
Y263.347 Z-1.048 I0. J0.1
Y263.147 Z-1.059 I0. J-0.1
Y263.347 Z-1.07 I0. J0.1
Y263.147 Z-1.081 I0. J-0.1
Y263.347 Z-1.092 I0. J0.1
Y263.147 Z-1.103 I0. J-0.1
Y263.347 Z-1.114 I0. J0.1
Y263.147 Z-1.125 I0. J-0.1
Y263.347 Z-1.136 I0. J0.1
Y263.147 Z-1.147 I0. J-0.1
Y263.347 Z-1.158 I0. J0.1
Y263.147 Z-1.169 I0. J-0.1
Y263.347 Z-1.18 I0. J0.1
Y263.147 Z-1.191 I0. J-0.1
Y263.347 Z-1.202 I0. J0.1
Y263.147 Z-1.212 I0. J-0.1
Y263.347 Z-1.223 I0. J0.1
Y263.147 Z-1.234 I0. J-0.1
Y263.347 Z-1.245 I0. J0.1
Y263.147 Z-1.256 I0. J-0.1
Y263.347 Z-1.267 I0. J0.1
Y263.147 Z-1.278 I0. J-0.1
Y263.347 Z-1.289 I0. J0.1
Y263.147 Z-1.3 I0. J-0.1
Y263.347 Z-1.311 I0. J0.1
Y263.147 Z-1.322 I0. J-0.1
Y263.347 Z-1.333 I0. J0.1
Y263.147 Z-1.344 I0. J-0.1
Y263.347 Z-1.355 I0. J0.1
Y263.147 Z-1.366 I0. J-0.1
Y263.347 Z-1.377 I0. J0.1
Y263.147 Z-1.388 I0. J-0.1
Y263.347 Z-1.399 I0. J0.1
Y263.147 Z-1.41 I0. J-0.1
Y263.347 Z-1.421 I0. J0.1
Y263.147 Z-1.432 I0. J-0.1
Y263.347 Z-1.443 I0. J0.1
Y263.147 Z-1.454 I0. J-0.1
Y263.347 Z-1.465 I0. J0.1
Y263.147 Z-1.476 I0. J-0.1
Y263.347 Z-1.487 I0. J0.1
Y263.147 Z-1.498 I0. J-0.1
Y263.347 Z-1.509 I0. J0.1
Y263.147 Z-1.52 I0. J-0.1
Y263.347 Z-1.531 I0. J0.1
Y263.147 Z-1.542 I0. J-0.1
Y263.347 Z-1.553 I0. J0.1
Y263.147 Z-1.564 I0. J-0.1
Y263.347 Z-1.575 I0. J0.1
Y263.147 Z-1.585 I0. J-0.1
Y263.347 Z-1.596 I0. J0.1
Y263.147 Z-1.607 I0. J-0.1
Y263.347 Z-1.618 I0. J0.1
Y263.147 Z-1.629 I0. J-0.1
Y263.347 Z-1.64 I0. J0.1
Y263.147 Z-1.651 I0. J-0.1
Y263.347 Z-1.662 I0. J0.1
Y263.147 Z-1.673 I0. J-0.1
Y263.347 Z-1.684 I0. J0.1
Y263.147 Z-1.695 I0. J-0.1
Y263.347 Z-1.706 I0. J0.1
Y263.147 Z-1.717 I0. J-0.1
Y263.347 Z-1.728 I0. J0.1
Y263.147 Z-1.739 I0. J-0.1
Y263.347 Z-1.75 I0. J0.1
Y263.147 Z-1.761 I0. J-0.1
Y263.347 Z-1.772 I0. J0.1
Y263.147 Z-1.783 I0. J-0.1
Y263.347 Z-1.794 I0. J0.1
Y263.147 Z-1.805 I0. J-0.1
Y263.347 Z-1.816 I0. J0.1
Y263.147 Z-1.827 I0. J-0.1
Y263.347 Z-1.838 I0. J0.1
Y263.147 Z-1.849 I0. J-0.1
Y263.347 Z-1.86 I0. J0.1
Y263.147 Z-1.871 I0. J-0.1
Y263.347 Z-1.882 I0. J0.1
Y263.147 Z-1.893 I0. J-0.1
Y263.347 Z-1.904 I0. J0.1
Y263.147 Z-1.915 I0. J-0.1
Y263.347 Z-1.926 I0. J0.1
Y263.147 Z-1.937 I0. J-0.1
Y263.347 Z-1.948 I0. J0.1
Y263.147 Z-1.958 I0. J-0.1
Y263.347 Z-1.969 I0. J0.1
Y263.147 Z-1.98 I0. J-0.1
Y263.347 Z-1.991 I0. J0.1
Y263.147 Z-2.002 I0. J-0.1
Y263.347 Z-2.013 I0. J0.1
Y263.147 Z-2.024 I0. J-0.1
Y263.347 Z-2.035 I0. J0.1
Y263.147 Z-2.046 I0. J-0.1
Y263.347 Z-2.057 I0. J0.1
Y263.147 Z-2.068 I0. J-0.1
Y263.347 Z-2.079 I0. J0.1
Y263.147 Z-2.09 I0. J-0.1
Y263.347 Z-2.101 I0. J0.1
Y263.147 Z-2.112 I0. J-0.1
Y263.347 Z-2.123 I0. J0.1
Y263.147 Z-2.134 I0. J-0.1
Y263.347 Z-2.145 I0. J0.1
Y263.147 Z-2.156 I0. J-0.1
Y263.347 Z-2.167 I0. J0.1
Y263.147 Z-2.178 I0. J-0.1
Y263.347 Z-2.189 I0. J0.1
Y263.147 Z-2.2 I0. J-0.1
Y263.347 Z-2.211 I0. J0.1
Y263.147 Z-2.222 I0. J-0.1
Y263.347 Z-2.233 I0. J0.1
Y263.147 Z-2.244 I0. J-0.1
Y263.347 Z-2.255 I0. J0.1
Y263.147 Z-2.266 I0. J-0.1
Y263.347 Z-2.277 I0. J0.1
Y263.147 Z-2.288 I0. J-0.1
Y263.347 Z-2.299 I0. J0.1
Y263.147 Z-2.31 I0. J-0.1
Y263.347 Z-2.321 I0. J0.1
Y263.147 Z-2.331 I0. J-0.1
Y263.347 Z-2.342 I0. J0.1
Y263.147 Z-2.353 I0. J-0.1
Y263.347 Z-2.364 I0. J0.1
Y263.147 Z-2.375 I0. J-0.1
Y263.347 Z-2.386 I0. J0.1
Y263.147 Z-2.397 I0. J-0.1
Y263.347 Z-2.408 I0. J0.1
Y263.147 Z-2.419 I0. J-0.1
Y263.347 Z-2.43 I0. J0.1
Y263.147 Z-2.441 I0. J-0.1
Y263.347 Z-2.452 I0. J0.1
Y263.147 Z-2.463 I0. J-0.1
Y263.347 Z-2.474 I0. J0.1
Y263.147 Z-2.485 I0. J-0.1
Y263.347 Z-2.496 I0. J0.1
Y263.147 Z-2.507 I0. J-0.1
Y263.347 Z-2.518 I0. J0.1
Y263.147 Z-2.529 I0. J-0.1
Y263.347 Z-2.54 I0. J0.1
Y263.147 Z-2.551 I0. J-0.1
Y263.347 Z-2.562 I0. J0.1
Y263.147 Z-2.573 I0. J-0.1
Y263.347 Z-2.584 I0. J0.1
Y263.147 Z-2.595 I0. J-0.1
Y263.347 Z-2.606 I0. J0.1
Y263.147 Z-2.617 I0. J-0.1
Y263.347 Z-2.628 I0. J0.1
Y263.147 Z-2.639 I0. J-0.1
Y263.347 Z-2.65 I0. J0.1
Y263.147 Z-2.661 I0. J-0.1
Y263.347 Z-2.672 I0. J0.1
Y263.147 Z-2.683 I0. J-0.1
Y263.347 Z-2.694 I0. J0.1
Y263.147 Z-2.704 I0. J-0.1
Y263.347 Z-2.715 I0. J0.1
Y263.147 Z-2.726 I0. J-0.1
Y263.347 Z-2.737 I0. J0.1
Y263.147 Z-2.748 I0. J-0.1
Y263.347 Z-2.759 I0. J0.1
Y263.147 Z-2.77 I0. J-0.1
Y263.347 Z-2.781 I0. J0.1
Y263.147 Z-2.792 I0. J-0.1
Y263.347 Z-2.803 I0. J0.1
Y263.147 Z-2.814 I0. J-0.1
Y263.347 Z-2.825 I0. J0.1
Y263.147 Z-2.836 I0. J-0.1
Y263.347 Z-2.847 I0. J0.1
Y263.147 Z-2.858 I0. J-0.1
Y263.347 Z-2.869 I0. J0.1
Y263.147 Z-2.88 I0. J-0.1
Y263.347 Z-2.891 I0. J0.1
Y263.147 Z-2.902 I0. J-0.1
Y263.347 Z-2.913 I0. J0.1
Y263.147 Z-2.924 I0. J-0.1
Y263.347 Z-2.935 I0. J0.1
Y263.147 Z-2.946 I0. J-0.1
Y263.347 Z-2.957 I0. J0.1
Y263.147 Z-2.968 I0. J-0.1
Y263.347 Z-2.979 I0. J0.1
Y263.147 Z-2.99 I0. J-0.1
Y263.347 Z-3.001 I0. J0.1
Y263.147 Z-3.012 I0. J-0.1
Y263.347 Z-3.023 I0. J0.1
Y263.147 Z-3.034 I0. J-0.1
Y263.347 Z-3.045 I0. J0.1
Y263.147 Z-3.056 I0. J-0.1
Y263.347 Z-3.067 I0. J0.1
Y263.147 Z-3.077 I0. J-0.1
Y263.347 Z-3.088 I0. J0.1
Y263.147 Z-3.099 I0. J-0.1
Y263.347 Z-3.11 I0. J0.1
Y263.147 Z-3.121 I0. J-0.1
Y263.347 Z-3.132 I0. J0.1
Y263.147 Z-3.143 I0. J-0.1
Y263.347 Z-3.154 I0. J0.1
Y263.147 Z-3.165 I0. J-0.1
Y263.347 Z-3.176 I0. J0.1
Y263.147 Z-3.187 I0. J-0.1
Y263.347 Z-3.198 I0. J0.1
Y263.147 Z-3.209 I0. J-0.1
Y263.347 Z-3.22 I0. J0.1
Y263.147 Z-3.231 I0. J-0.1
Y263.347 Z-3.242 I0. J0.1
Y263.147 Z-3.253 I0. J-0.1
Y263.347 Z-3.264 I0. J0.1
Y263.147 Z-3.275 I0. J-0.1
Y263.347 Z-3.286 I0. J0.1
Y263.147 Z-3.297 I0. J-0.1
Y263.347 Z-3.308 I0. J0.1
Y263.147 Z-3.319 I0. J-0.1
Y263.347 Z-3.33 I0. J0.1
Y263.147 Z-3.341 I0. J-0.1
Y263.347 Z-3.352 I0. J0.1
Y263.147 Z-3.363 I0. J-0.1
Y263.347 Z-3.374 I0. J0.1
Y263.147 Z-3.385 I0. J-0.1
Y263.347 Z-3.396 I0. J0.1
Y263.147 Z-3.407 I0. J-0.1
Y263.347 Z-3.418 I0. J0.1
Y263.147 Z-3.429 I0. J-0.1
Y263.347 Z-3.44 I0. J0.1
Y263.147 Z-3.451 I0. J-0.1
Y263.347 Z-3.461 I0. J0.1
Y263.147 Z-3.472 I0. J-0.1
Y263.347 Z-3.483 I0. J0.1
Y263.147 Z-3.494 I0. J-0.1
Y263.347 Z-3.505 I0. J0.1
Y263.147 Z-3.516 I0. J-0.1
Y263.347 Z-3.527 I0. J0.1
Y263.147 Z-3.538 I0. J-0.1
Y263.347 Z-3.549 I0. J0.1
Y263.147 Z-3.56 I0. J-0.1
Y263.347 Z-3.571 I0. J0.1
Y263.147 Z-3.582 I0. J-0.1
Y263.347 Z-3.593 I0. J0.1
Y263.147 Z-3.604 I0. J-0.1
Y263.347 Z-3.615 I0. J0.1
Y263.147 Z-3.626 I0. J-0.1
Y263.347 Z-3.637 I0. J0.1
Y263.147 Z-3.648 I0. J-0.1
Y263.347 Z-3.659 I0. J0.1
Y263.147 Z-3.67 I0. J-0.1
Y263.347 Z-3.681 I0. J0.1
Y263.147 Z-3.692 I0. J-0.1
Y263.347 Z-3.703 I0. J0.1
Y263.147 Z-3.714 I0. J-0.1
Y263.347 Z-3.725 I0. J0.1
Y263.147 Z-3.736 I0. J-0.1
Y263.347 Z-3.747 I0. J0.1
Y263.147 Z-3.758 I0. J-0.1
Y263.347 Z-3.769 I0. J0.1
Y263.147 Z-3.78 I0. J-0.1
Y263.347 Z-3.791 I0. J0.1
Y263.147 Z-3.802 I0. J-0.1
Y263.347 Z-3.813 I0. J0.1
Y263.147 Z-3.824 I0. J-0.1
Y263.347 Z-3.834 I0. J0.1
Y263.147 Z-3.845 I0. J-0.1
Y263.347 Z-3.856 I0. J0.1
Y263.147 Z-3.867 I0. J-0.1
Y263.347 Z-3.878 I0. J0.1
Y263.147 Z-3.889 I0. J-0.1
Y263.347 Z-3.9 I0. J0.1
Y263.147 Z-3.911 I0. J-0.1
Y263.347 Z-3.922 I0. J0.1
Y263.147 Z-3.933 I0. J-0.1
Y263.347 Z-3.944 I0. J0.1
Y263.147 Z-3.955 I0. J-0.1
Y263.347 Z-3.966 I0. J0.1
Y263.147 Z-3.977 I0. J-0.1
Y263.347 Z-3.988 I0. J0.1
Y263.147 Z-3.999 I0. J-0.1
Y263.347 Z-4.01 I0. J0.1
Y263.147 Z-4.021 I0. J-0.1
Y263.347 Z-4.032 I0. J0.1
Y263.147 Z-4.043 I0. J-0.1
Y263.347 Z-4.054 I0. J0.1
Y263.147 Z-4.065 I0. J-0.1
Y263.347 Z-4.076 I0. J0.1
Y263.147 Z-4.087 I0. J-0.1
Y263.347 Z-4.098 I0. J0.1
Y263.147 Z-4.109 I0. J-0.1
Y263.347 Z-4.12 I0. J0.1
Y263.147 Z-4.131 I0. J-0.1
Y263.347 Z-4.142 I0. J0.1
Y263.147 Z-4.153 I0. J-0.1
Y263.347 Z-4.164 I0. J0.1
Y263.147 Z-4.175 I0. J-0.1
Y263.347 Z-4.186 I0. J0.1
Y263.147 Z-4.197 I0. J-0.1
Y263.347 Z-4.207 I0. J0.1
Y263.147 Z-4.218 I0. J-0.1
Y263.347 Z-4.229 I0. J0.1
Y263.147 Z-4.24 I0. J-0.1
Y263.347 Z-4.251 I0. J0.1
Y263.147 Z-4.262 I0. J-0.1
Y263.347 Z-4.273 I0. J0.1
Y263.147 Z-4.284 I0. J-0.1
Y263.347 Z-4.295 I0. J0.1
Y263.147 Z-4.306 I0. J-0.1
Y263.347 Z-4.317 I0. J0.1
Y263.147 Z-4.328 I0. J-0.1
Y263.347 Z-4.339 I0. J0.1
Y263.147 Z-4.35 I0. J-0.1
Y263.347 Z-4.361 I0. J0.1
Y263.147 Z-4.372 I0. J-0.1
Y263.347 Z-4.383 I0. J0.1
Y263.147 Z-4.394 I0. J-0.1
Y263.347 Z-4.405 I0. J0.1
Y263.147 Z-4.416 I0. J-0.1
Y263.347 Z-4.427 I0. J0.1
Y263.147 Z-4.438 I0. J-0.1
Y263.347 Z-4.449 I0. J0.1
Y263.147 Z-4.46 I0. J-0.1
Y263.347 Z-4.471 I0. J0.1
Y263.147 Z-4.482 I0. J-0.1
Y263.347 Z-4.493 I0. J0.1
Y263.147 Z-4.504 I0. J-0.1
Y263.347 Z-4.515 I0. J0.1
Y263.147 Z-4.526 I0. J-0.1
Y263.347 Z-4.537 I0. J0.1
Y263.147 Z-4.548 I0. J-0.1
Y263.347 Z-4.559 I0. J0.1
Y263.147 Z-4.57 I0. J-0.1
Y263.347 Z-4.58 I0. J0.1
Y263.147 Z-4.591 I0. J-0.1
Y263.347 Z-4.602 I0. J0.1
Y263.147 Z-4.613 I0. J-0.1
Y263.347 Z-4.624 I0. J0.1
Y263.147 Z-4.635 I0. J-0.1
Y263.347 Z-4.646 I0. J0.1
Y263.147 Z-4.657 I0. J-0.1
Y263.347 Z-4.668 I0. J0.1
Y263.147 Z-4.679 I0. J-0.1
Y263.347 Z-4.69 I0. J0.1
Y263.147 Z-4.701 I0. J-0.1
Y263.347 Z-4.712 I0. J0.1
Y263.147 Z-4.723 I0. J-0.1
Y263.347 Z-4.734 I0. J0.1
Y263.147 Z-4.745 I0. J-0.1
Y263.347 Z-4.756 I0. J0.1
Y263.147 Z-4.767 I0. J-0.1
Y263.347 Z-4.778 I0. J0.1
Y263.147 Z-4.789 I0. J-0.1
Y263.347 Z-4.8 I0. J0.1
Y263.147 Z-4.811 I0. J-0.1
Y263.347 Z-4.822 I0. J0.1
Y263.147 Z-4.833 I0. J-0.1
Y263.347 Z-4.844 I0. J0.1
Y263.147 Z-4.855 I0. J-0.1
Y263.347 Z-4.866 I0. J0.1
Y263.147 Z-4.877 I0. J-0.1
Y263.347 Z-4.888 I0. J0.1
Y263.147 Z-4.899 I0. J-0.1
Y263.347 Z-4.91 I0. J0.1
Y263.147 Z-4.921 I0. J-0.1
Y263.347 Z-4.932 I0. J0.1
Y263.147 Z-4.943 I0. J-0.1
Y263.347 Z-4.953 I0. J0.1
Y263.147 Z-4.964 I0. J-0.1
Y263.347 Z-4.975 I0. J0.1
Y263.147 Z-4.986 I0. J-0.1
Y263.347 Z-4.997 I0. J0.1
Y263.147 Z-5.008 I0. J-0.1
Y263.347 Z-5.019 I0. J0.1
Y263.147 Z-5.03 I0. J-0.1
Y263.347 Z-5.041 I0. J0.1
Y263.147 Z-5.052 I0. J-0.1
Y263.347 Z-5.063 I0. J0.1
Y263.147 Z-5.074 I0. J-0.1
Y263.347 Z-5.085 I0. J0.1
Y263.147 Z-5.096 I0. J-0.1
Y263.347 Z-5.107 I0. J0.1
Y263.147 Z-5.118 I0. J-0.1
Y263.347 Z-5.129 I0. J0.1
Y263.147 Z-5.14 I0. J-0.1
Y263.347 Z-5.151 I0. J0.1
Y263.147 Z-5.162 I0. J-0.1
Y263.347 Z-5.173 I0. J0.1
Y263.147 Z-5.184 I0. J-0.1
Y263.347 Z-5.195 I0. J0.1
Y263.147 Z-5.206 I0. J-0.1
Y263.347 Z-5.217 I0. J0.1
Y263.147 Z-5.228 I0. J-0.1
Y263.347 Z-5.239 I0. J0.1
Y263.147 Z-5.25 I0. J-0.1
Y263.347 Z-5.261 I0. J0.1
Y263.147 Z-5.272 I0. J-0.1
Y263.347 Z-5.283 I0. J0.1
Y263.147 Z-5.294 I0. J-0.1
Y263.347 Z-5.305 I0. J0.1
Y263.147 Z-5.316 I0. J-0.1
Y263.347 Z-5.326 I0. J0.1
Y263.147 Z-5.337 I0. J-0.1
Y263.347 Z-5.348 I0. J0.1
Y263.147 Z-5.359 I0. J-0.1
Y263.347 Z-5.37 I0. J0.1
Y263.147 Z-5.381 I0. J-0.1
Y263.347 Z-5.392 I0. J0.1
Y263.147 Z-5.403 I0. J-0.1
Y263.347 Z-5.414 I0. J0.1
Y263.147 Z-5.425 I0. J-0.1
Y263.347 Z-5.436 I0. J0.1
Y263.147 Z-5.447 I0. J-0.1
Y263.347 Z-5.458 I0. J0.1
Y263.147 Z-5.469 I0. J-0.1
Y263.347 Z-5.48 I0. J0.1
Y263.147 Z-5.491 I0. J-0.1
Y263.347 Z-5.502 I0. J0.1
Y263.147 Z-5.513 I0. J-0.1
Y263.347 Z-5.524 I0. J0.1
Y263.147 Z-5.535 I0. J-0.1
Y263.347 Z-5.546 I0. J0.1
Y263.147 Z-5.557 I0. J-0.1
Y263.347 Z-5.568 I0. J0.1
Y263.147 Z-5.579 I0. J-0.1
Y263.347 Z-5.59 I0. J0.1
Y263.147 Z-5.601 I0. J-0.1
Y263.347 Z-5.612 I0. J0.1
Y263.147 Z-5.623 I0. J-0.1
Y263.347 Z-5.634 I0. J0.1
Y263.147 Z-5.645 I0. J-0.1
Y263.347 Z-5.656 I0. J0.1
Y263.147 Z-5.667 I0. J-0.1
Y263.347 Z-5.678 I0. J0.1
Y263.147 Z-5.689 I0. J-0.1
Y263.347 Z-5.699 I0. J0.1
Y263.147 Z-5.71 I0. J-0.1
Y263.347 Z-5.721 I0. J0.1
Y263.147 Z-5.732 I0. J-0.1
Y263.347 Z-5.743 I0. J0.1
Y263.147 Z-5.754 I0. J-0.1
Y263.347 Z-5.765 I0. J0.1
Y263.147 Z-5.776 I0. J-0.1
Y263.347 Z-5.787 I0. J0.1
Y263.147 Z-5.798 I0. J-0.1
Y263.347 Z-5.809 I0. J0.1
Y263.147 Z-5.82 I0. J-0.1
Y263.347 Z-5.831 I0. J0.1
Y263.147 Z-5.842 I0. J-0.1
Y263.347 Z-5.853 I0. J0.1
Y263.147 Z-5.864 I0. J-0.1
Y263.347 Z-5.875 I0. J0.1
Y263.147 Z-5.886 I0. J-0.1
Y263.347 Z-5.897 I0. J0.1
Y263.147 Z-5.908 I0. J-0.1
Y263.347 Z-5.919 I0. J0.1
Y263.147 Z-5.93 I0. J-0.1
Y263.347 Z-5.941 I0. J0.1
Y263.147 Z-5.952 I0. J-0.1
Y263.347 Z-5.963 I0. J0.1
Y263.147 Z-5.974 I0. J-0.1
Y263.347 Z-5.985 I0. J0.1
Y263.147 Z-5.996 I0. J-0.1
Y263.347 Z-6.007 I0. J0.1
Y263.147 Z-6.018 I0. J-0.1
Y263.347 Z-6.029 I0. J0.1
Y263.147 Z-6.04 I0. J-0.1
Y263.347 Z-6.051 I0. J0.1
Y263.147 Z-6.062 I0. J-0.1
Y263.347 Z-6.072 I0. J0.1
Y263.147 Z-6.083 I0. J-0.1
Y263.347 Z-6.094 I0. J0.1
Y263.147 Z-6.105 I0. J-0.1
Y263.347 Z-6.116 I0. J0.1
Y263.147 Z-6.127 I0. J-0.1
Y263.347 Z-6.138 I0. J0.1
Y263.147 Z-6.149 I0. J-0.1
Y263.347 Z-6.16 I0. J0.1
Y263.147 Z-6.171 I0. J-0.1
Y263.347 Z-6.182 I0. J0.1
Y263.147 Z-6.193 I0. J-0.1
Y263.347 Z-6.204 I0. J0.1
Y263.147 Z-6.215 I0. J-0.1
Y263.347 Z-6.226 I0. J0.1
Y263.147 Z-6.237 I0. J-0.1
Y263.347 Z-6.248 I0. J0.1
Y263.147 Z-6.259 I0. J-0.1
Y263.347 Z-6.27 I0. J0.1
Y263.147 Z-6.281 I0. J-0.1
Y263.347 Z-6.292 I0. J0.1
Y263.147 Z-6.303 I0. J-0.1
Y263.347 Z-6.314 I0. J0.1
Y263.147 Z-6.325 I0. J-0.1
Y263.347 Z-6.336 I0. J0.1
Y263.147 Z-6.347 I0. J-0.1
Y263.347 Z-6.358 I0. J0.1
Y263.147 Z-6.369 I0. J-0.1
Y263.347 Z-6.38 I0. J0.1
Y263.147 Z-6.391 I0. J-0.1
Y263.347 Z-6.402 I0. J0.1
Y263.147 Z-6.413 I0. J-0.1
Y263.347 Z-6.424 I0. J0.1
Y263.147 Z-6.435 I0. J-0.1
Y263.347 Z-6.445 I0. J0.1
Y263.147 Z-6.456 I0. J-0.1
Y263.347 Z-6.467 I0. J0.1
Y263.147 Z-6.478 I0. J-0.1
Y263.347 Z-6.489 I0. J0.1
Y263.147 Z-6.5 I0. J-0.1
Y263.347 Z-6.511 I0. J0.1
Y263.147 Z-6.522 I0. J-0.1
Y263.347 Z-6.533 I0. J0.1
Y263.147 Z-6.544 I0. J-0.1
Y263.347 Z-6.555 I0. J0.1
Y263.147 Z-6.566 I0. J-0.1
Y263.347 Z-6.577 I0. J0.1
Y263.147 Z-6.588 I0. J-0.1
Y263.347 Z-6.599 I0. J0.1
Y263.147 Z-6.61 I0. J-0.1
Y263.347 Z-6.621 I0. J0.1
Y263.147 Z-6.632 I0. J-0.1
Y263.347 Z-6.643 I0. J0.1
Y263.147 Z-6.654 I0. J-0.1
Y263.347 Z-6.665 I0. J0.1
Y263.147 Z-6.676 I0. J-0.1
Y263.347 Z-6.687 I0. J0.1
Y263.147 Z-6.698 I0. J-0.1
Y263.347 Z-6.709 I0. J0.1
Y263.147 Z-6.72 I0. J-0.1
Y263.347 Z-6.731 I0. J0.1
Y263.147 Z-6.742 I0. J-0.1
Y263.347 Z-6.753 I0. J0.1
Y263.147 Z-6.764 I0. J-0.1
Y263.347 Z-6.775 I0. J0.1
Y263.147 Z-6.786 I0. J-0.1
Y263.347 Z-6.797 I0. J0.1
Y263.147 Z-6.808 I0. J-0.1
Y263.347 Z-6.819 I0. J0.1
Y263.147 Z-6.829 I0. J-0.1
Y263.347 Z-6.84 I0. J0.1
Y263.147 Z-6.851 I0. J-0.1
Y263.347 Z-6.862 I0. J0.1
Y263.147 Z-6.873 I0. J-0.1
Y263.347 Z-6.884 I0. J0.1
Y263.147 Z-6.895 I0. J-0.1
Y263.347 Z-6.906 I0. J0.1
Y263.147 Z-6.917 I0. J-0.1
Y263.347 Z-6.928 I0. J0.1
Y263.147 Z-6.939 I0. J-0.1
Y263.347 Z-6.95 I0. J0.1
Y263.147 Z-6.961 I0. J-0.1
Y263.347 Z-6.972 I0. J0.1
Y263.147 Z-6.983 I0. J-0.1
Y263.347 Z-6.994 I0. J0.1
Y263.147 Z-7.005 I0. J-0.1
Y263.347 Z-7.016 I0. J0.1
Y263.147 Z-7.027 I0. J-0.1
Y263.347 Z-7.038 I0. J0.1
Y263.147 Z-7.049 I0. J-0.1
Y263.347 Z-7.06 I0. J0.1
Y263.147 Z-7.071 I0. J-0.1
Y263.347 Z-7.082 I0. J0.1
Y263.147 Z-7.093 I0. J-0.1
Y263.347 Z-7.104 I0. J0.1
Y263.147 Z-7.115 I0. J-0.1
Y263.347 Z-7.126 I0. J0.1
Y263.147 Z-7.137 I0. J-0.1
Y263.347 Z-7.148 I0. J0.1
Y263.147 Z-7.159 I0. J-0.1
Y263.347 Z-7.17 I0. J0.1
Y263.147 Z-7.181 I0. J-0.1
Y263.347 Z-7.192 I0. J0.1
Y263.147 Z-7.202 I0. J-0.1
Y263.347 Z-7.213 I0. J0.1
Y263.147 Z-7.224 I0. J-0.1
Y263.347 Z-7.235 I0. J0.1
Y263.147 Z-7.246 I0. J-0.1
Y263.347 Z-7.257 I0. J0.1
Y263.147 Z-7.268 I0. J-0.1
Y263.347 Z-7.279 I0. J0.1
Y263.147 Z-7.29 I0. J-0.1
Y263.347 Z-7.301 I0. J0.1
Y263.147 Z-7.312 I0. J-0.1
Y263.347 Z-7.323 I0. J0.1
Y263.147 Z-7.334 I0. J-0.1
Y263.347 Z-7.345 I0. J0.1
Y263.147 Z-7.356 I0. J-0.1
Y263.347 Z-7.367 I0. J0.1
Y263.147 Z-7.378 I0. J-0.1
Y263.347 Z-7.389 I0. J0.1
Y263.147 Z-7.4 I0. J-0.1
Y263.347 Z-7.411 I0. J0.1
Y263.147 Z-7.422 I0. J-0.1
Y263.347 Z-7.433 I0. J0.1
Y263.147 Z-7.444 I0. J-0.1
Y263.347 Z-7.455 I0. J0.1
Y263.147 Z-7.466 I0. J-0.1
Y263.347 Z-7.477 I0. J0.1
Y263.147 Z-7.488 I0. J-0.1
Y263.347 Z-7.499 I0. J0.1
Y263.147 Z-7.51 I0. J-0.1
Y263.347 Z-7.521 I0. J0.1
Y263.147 Z-7.532 I0. J-0.1
Y263.347 Z-7.543 I0. J0.1
Y263.147 Z-7.554 I0. J-0.1
Y263.347 Z-7.565 I0. J0.1
Y263.147 Z-7.575 I0. J-0.1
Y263.347 Z-7.586 I0. J0.1
Y263.147 Z-7.597 I0. J-0.1
Y263.347 Z-7.608 I0. J0.1
Y263.147 Z-7.619 I0. J-0.1
Y263.347 Z-7.63 I0. J0.1
Y263.147 Z-7.641 I0. J-0.1
Y263.347 Z-7.652 I0. J0.1
Y263.147 Z-7.663 I0. J-0.1
Y263.347 Z-7.674 I0. J0.1
Y263.147 Z-7.685 I0. J-0.1
Y263.347 Z-7.696 I0. J0.1
Y263.147 Z-7.707 I0. J-0.1
Y263.347 Z-7.718 I0. J0.1
Y263.147 Z-7.729 I0. J-0.1
Y263.347 Z-7.74 I0. J0.1
Y263.147 Z-7.751 I0. J-0.1
Y263.347 Z-7.762 I0. J0.1
Y263.147 Z-7.773 I0. J-0.1
Y263.347 Z-7.784 I0. J0.1
Y263.147 Z-7.795 I0. J-0.1
Y263.347 Z-7.806 I0. J0.1
Y263.147 Z-7.817 I0. J-0.1
Y263.347 Z-7.828 I0. J0.1
Y263.147 Z-7.839 I0. J-0.1
Y263.347 Z-7.85 I0. J0.1
Y263.147 Z-7.861 I0. J-0.1
Y263.347 Z-7.872 I0. J0.1
Y263.147 Z-7.883 I0. J-0.1
Y263.347 Z-7.894 I0. J0.1
Y263.147 Z-7.905 I0. J-0.1
Y263.347 Z-7.916 I0. J0.1
Y263.147 Z-7.927 I0. J-0.1
Y263.347 Z-7.938 I0. J0.1
Y263.147 Z-7.948 I0. J-0.1
Y263.347 Z-7.959 I0. J0.1
Y263.147 Z-7.97 I0. J-0.1
Y263.347 Z-7.981 I0. J0.1
Y263.147 Z-7.992 I0. J-0.1
Y263.347 Z-8.003 I0. J0.1
Y263.147 Z-8.014 I0. J-0.1
Y263.347 Z-8.025 I0. J0.1
Y263.147 Z-8.036 I0. J-0.1
Y263.347 Z-8.047 I0. J0.1
Y263.147 Z-8.058 I0. J-0.1
Y263.347 Z-8.069 I0. J0.1
Y263.147 Z-8.08 I0. J-0.1
Y263.347 Z-8.091 I0. J0.1
Y263.147 Z-8.102 I0. J-0.1
Y263.347 Z-8.113 I0. J0.1
Y263.147 Z-8.124 I0. J-0.1
Y263.347 Z-8.135 I0. J0.1
Y263.147 Z-8.146 I0. J-0.1
Y263.347 Z-8.157 I0. J0.1
Y263.147 Z-8.168 I0. J-0.1
Y263.347 Z-8.179 I0. J0.1
Y263.147 Z-8.19 I0. J-0.1
Y263.347 Z-8.201 I0. J0.1
Y263.147 Z-8.212 I0. J-0.1
Y263.347 Z-8.223 I0. J0.1
Y263.147 Z-8.234 I0. J-0.1
Y263.347 Z-8.245 I0. J0.1
Y263.147 Z-8.256 I0. J-0.1
Y263.347 Z-8.267 I0. J0.1
Y263.147 Z-8.278 I0. J-0.1
Y263.347 Z-8.289 I0. J0.1
Y263.147 Z-8.3 I0. J-0.1
Y263.347 Z-8.311 I0. J0.1
Y263.147 Z-8.321 I0. J-0.1
Y263.347 Z-8.332 I0. J0.1
Y263.147 Z-8.343 I0. J-0.1
Y263.347 Z-8.354 I0. J0.1
Y263.147 Z-8.365 I0. J-0.1
Y263.347 Z-8.376 I0. J0.1
Y263.147 Z-8.387 I0. J-0.1
Y263.347 Z-8.398 I0. J0.1
Y263.147 Z-8.409 I0. J-0.1
Y263.347 Z-8.42 I0. J0.1
Y263.147 Z-8.431 I0. J-0.1
Y263.347 Z-8.442 I0. J0.1
Y263.147 Z-8.453 I0. J-0.1
Y263.347 Z-8.464 I0. J0.1
Y263.147 Z-8.475 I0. J-0.1
Y263.347 Z-8.486 I0. J0.1
Y263.147 Z-8.497 I0. J-0.1
Y263.347 Z-8.508 I0. J0.1
Y263.147 Z-8.519 I0. J-0.1
Y263.347 Z-8.53 I0. J0.1
Y263.147 Z-8.541 I0. J-0.1
Y263.347 Z-8.552 I0. J0.1
Y263.147 Z-8.563 I0. J-0.1
Y263.347 Z-8.574 I0. J0.1
Y263.147 Z-8.585 I0. J-0.1
Y263.347 Z-8.596 I0. J0.1
Y263.147 Z-8.607 I0. J-0.1
Y263.347 Z-8.618 I0. J0.1
Y263.147 Z-8.629 I0. J-0.1
Y263.347 Z-8.64 I0. J0.1
Y263.147 Z-8.651 I0. J-0.1
Y263.347 Z-8.662 I0. J0.1
Y263.147 Z-8.673 I0. J-0.1
Y263.347 Z-8.684 I0. J0.1
Y263.147 Z-8.694 I0. J-0.1
Y263.347 Z-8.705 I0. J0.1
Y263.147 Z-8.716 I0. J-0.1
Y263.347 Z-8.727 I0. J0.1
Y263.147 Z-8.738 I0. J-0.1
Y263.347 Z-8.749 I0. J0.1
Y263.147 Z-8.76 I0. J-0.1
Y263.347 Z-8.771 I0. J0.1
Y263.147 Z-8.782 I0. J-0.1
Y263.347 Z-8.793 I0. J0.1
Y263.147 Z-8.804 I0. J-0.1
Y263.347 Z-8.815 I0. J0.1
Y263.147 Z-8.826 I0. J-0.1
Y263.347 Z-8.837 I0. J0.1
Y263.147 Z-8.848 I0. J-0.1
Y263.347 Z-8.859 I0. J0.1
Y263.147 Z-8.87 I0. J-0.1
Y263.347 Z-8.881 I0. J0.1
Y263.147 Z-8.892 I0. J-0.1
Y263.347 Z-8.903 I0. J0.1
Y263.147 Z-8.914 I0. J-0.1
Y263.347 Z-8.925 I0. J0.1
Y263.147 Z-8.936 I0. J-0.1
Y263.347 Z-8.947 I0. J0.1
Y263.147 Z-8.958 I0. J-0.1
Y263.347 Z-8.969 I0. J0.1
Y263.147 Z-8.98 I0. J-0.1
Y263.347 Z-8.991 I0. J0.1
Y263.147 Z-9.002 I0. J-0.1
Y263.347 Z-9.013 I0. J0.1
Y263.147 Z-9.024 I0. J-0.1
Y263.347 Z-9.035 I0. J0.1
Y263.147 Z-9.046 I0. J-0.1
Y263.347 Z-9.057 I0. J0.1
Y263.147 Z-9.067 I0. J-0.1
Y263.347 Z-9.078 I0. J0.1
Y263.147 Z-9.089 I0. J-0.1
Y263.347 Z-9.1 I0. J0.1
Y263.147 Z-9.111 I0. J-0.1
Y263.347 Z-9.122 I0. J0.1
Y263.147 Z-9.133 I0. J-0.1
Y263.347 Z-9.144 I0. J0.1
Y263.147 Z-9.155 I0. J-0.1
Y263.347 Z-9.166 I0. J0.1
Y263.147 Z-9.177 I0. J-0.1
Y263.347 Z-9.188 I0. J0.1
Y263.147 Z-9.199 I0. J-0.1
Y263.347 Z-9.21 I0. J0.1
Y263.147 Z-9.221 I0. J-0.1
Y263.347 Z-9.232 I0. J0.1
Y263.147 Z-9.243 I0. J-0.1
Y263.347 Z-9.254 I0. J0.1
Y263.147 Z-9.265 I0. J-0.1
Y263.347 Z-9.276 I0. J0.1
Y263.147 Z-9.287 I0. J-0.1
Y263.347 Z-9.298 I0. J0.1
Y263.147 Z-9.309 I0. J-0.1
Y263.347 Z-9.32 I0. J0.1
Y263.147 Z-9.331 I0. J-0.1
Y263.347 Z-9.342 I0. J0.1
Y263.147 Z-9.353 I0. J-0.1
Y263.347 Z-9.364 I0. J0.1
Y263.147 Z-9.375 I0. J-0.1
Y263.347 Z-9.386 I0. J0.1
Y263.147 Z-9.397 I0. J-0.1
Y263.347 Z-9.408 I0. J0.1
Y263.147 Z-9.419 I0. J-0.1
Y263.347 Z-9.43 I0. J0.1
Y263.147 Z-9.44 I0. J-0.1
Y263.347 Z-9.451 I0. J0.1
Y263.147 Z-9.462 I0. J-0.1
Y263.347 Z-9.473 I0. J0.1
Y263.147 Z-9.484 I0. J-0.1
Y263.347 Z-9.495 I0. J0.1
Y263.147 Z-9.506 I0. J-0.1
Y263.347 Z-9.517 I0. J0.1
Y263.147 Z-9.528 I0. J-0.1
Y263.347 Z-9.539 I0. J0.1
Y263.147 Z-9.55 I0. J-0.1
Y263.347 Z-9.561 I0. J0.1
Y263.147 Z-9.572 I0. J-0.1
Y263.347 Z-9.583 I0. J0.1
Y263.147 Z-9.594 I0. J-0.1
Y263.347 Z-9.605 I0. J0.1
Y263.147 Z-9.616 I0. J-0.1
Y263.347 Z-9.627 I0. J0.1
Y263.147 Z-9.638 I0. J-0.1
Y263.347 Z-9.649 I0. J0.1
Y263.147 Z-9.66 I0. J-0.1
Y263.347 Z-9.671 I0. J0.1
Y263.147 Z-9.682 I0. J-0.1
Y263.347 Z-9.693 I0. J0.1
Y263.147 Z-9.704 I0. J-0.1
Y263.347 Z-9.715 I0. J0.1
Y263.147 Z-9.726 I0. J-0.1
Y263.347 Z-9.737 I0. J0.1
Y263.147 Z-9.748 I0. J-0.1
Y263.347 Z-9.759 I0. J0.1
Y263.147 Z-9.77 I0. J-0.1
Y263.347 Z-9.781 I0. J0.1
Y263.147 Z-9.792 I0. J-0.1
Y263.347 Z-9.803 I0. J0.1
Y263.147 Z-9.813 I0. J-0.1
Y263.347 Z-9.824 I0. J0.1
Y263.147 Z-9.835 I0. J-0.1
Y263.347 Z-9.846 I0. J0.1
Y263.147 Z-9.857 I0. J-0.1
Y263.347 Z-9.868 I0. J0.1
Y263.147 Z-9.879 I0. J-0.1
Y263.347 Z-9.89 I0. J0.1
Y263.147 Z-9.901 I0. J-0.1
Y263.347 Z-9.912 I0. J0.1
Y263.147 Z-9.923 I0. J-0.1
Y263.347 Z-9.934 I0. J0.1
Y263.147 Z-9.945 I0. J-0.1
Y263.347 Z-9.956 I0. J0.1
Y263.147 Z-9.967 I0. J-0.1
Y263.347 Z-9.978 I0. J0.1
Y263.147 Z-9.989 I0. J-0.1
Y263.347 Z-10. I0. J0.1
X103.052 Y263.247 I0. J-0.1 F600.
X103.252 I0.1 J0.
X103.152 Y263.347 I-0.1 J0.
G1 Z1. F720.
G0 X93.43 Y232.035
G1 Z0.5 F30.
G3 X93.46 Y232.03 Z0.499 I0.03 J0.095 F720.
Y232.23 Z0.488 I0. J0.1
Y232.03 Z0.477 I0. J-0.1
Y232.23 Z0.466 I0. J0.1
Y232.03 Z0.455 I0. J-0.1
Y232.23 Z0.444 I0. J0.1
Y232.03 Z0.433 I0. J-0.1
Y232.23 Z0.422 I0. J0.1
Y232.03 Z0.411 I0. J-0.1
Y232.23 Z0.4 I0. J0.1
Y232.03 Z0.389 I0. J-0.1
Y232.23 Z0.378 I0. J0.1
Y232.03 Z0.367 I0. J-0.1
Y232.23 Z0.356 I0. J0.1
Y232.03 Z0.345 I0. J-0.1
Y232.23 Z0.334 I0. J0.1
Y232.03 Z0.323 I0. J-0.1
Y232.23 Z0.312 I0. J0.1
Y232.03 Z0.301 I0. J-0.1
Y232.23 Z0.291 I0. J0.1
Y232.03 Z0.28 I0. J-0.1
Y232.23 Z0.269 I0. J0.1
Y232.03 Z0.258 I0. J-0.1
Y232.23 Z0.247 I0. J0.1
Y232.03 Z0.236 I0. J-0.1
Y232.23 Z0.225 I0. J0.1
Y232.03 Z0.214 I0. J-0.1
Y232.23 Z0.203 I0. J0.1
Y232.03 Z0.192 I0. J-0.1
Y232.23 Z0.181 I0. J0.1
Y232.03 Z0.17 I0. J-0.1
Y232.23 Z0.159 I0. J0.1
Y232.03 Z0.148 I0. J-0.1
Y232.23 Z0.137 I0. J0.1
Y232.03 Z0.126 I0. J-0.1
Y232.23 Z0.115 I0. J0.1
Y232.03 Z0.104 I0. J-0.1
Y232.23 Z0.093 I0. J0.1
Y232.03 Z0.082 I0. J-0.1
Y232.23 Z0.071 I0. J0.1
Y232.03 Z0.06 I0. J-0.1
Y232.23 Z0.049 I0. J0.1
Y232.03 Z0.038 I0. J-0.1
Y232.23 Z0.027 I0. J0.1
Y232.03 Z0.016 I0. J-0.1
Y232.23 Z0.005 I0. J0.1
Y232.03 Z-0.006 I0. J-0.1
Y232.23 Z-0.017 I0. J0.1
Y232.03 Z-0.028 I0. J-0.1
Y232.23 Z-0.039 I0. J0.1
Y232.03 Z-0.05 I0. J-0.1
Y232.23 Z-0.061 I0. J0.1
Y232.03 Z-0.072 I0. J-0.1
Y232.23 Z-0.083 I0. J0.1
Y232.03 Z-0.093 I0. J-0.1
Y232.23 Z-0.104 I0. J0.1
Y232.03 Z-0.115 I0. J-0.1
Y232.23 Z-0.126 I0. J0.1
Y232.03 Z-0.137 I0. J-0.1
Y232.23 Z-0.148 I0. J0.1
Y232.03 Z-0.159 I0. J-0.1
Y232.23 Z-0.17 I0. J0.1
Y232.03 Z-0.181 I0. J-0.1
Y232.23 Z-0.192 I0. J0.1
Y232.03 Z-0.203 I0. J-0.1
Y232.23 Z-0.214 I0. J0.1
Y232.03 Z-0.225 I0. J-0.1
Y232.23 Z-0.236 I0. J0.1
Y232.03 Z-0.247 I0. J-0.1
Y232.23 Z-0.258 I0. J0.1
Y232.03 Z-0.269 I0. J-0.1
Y232.23 Z-0.28 I0. J0.1
Y232.03 Z-0.291 I0. J-0.1
Y232.23 Z-0.302 I0. J0.1
Y232.03 Z-0.313 I0. J-0.1
Y232.23 Z-0.324 I0. J0.1
Y232.03 Z-0.335 I0. J-0.1
Y232.23 Z-0.346 I0. J0.1
Y232.03 Z-0.357 I0. J-0.1
Y232.23 Z-0.368 I0. J0.1
Y232.03 Z-0.379 I0. J-0.1
Y232.23 Z-0.39 I0. J0.1
Y232.03 Z-0.401 I0. J-0.1
Y232.23 Z-0.412 I0. J0.1
Y232.03 Z-0.423 I0. J-0.1
Y232.23 Z-0.434 I0. J0.1
Y232.03 Z-0.445 I0. J-0.1
Y232.23 Z-0.456 I0. J0.1
Y232.03 Z-0.466 I0. J-0.1
Y232.23 Z-0.477 I0. J0.1
Y232.03 Z-0.488 I0. J-0.1
Y232.23 Z-0.499 I0. J0.1
Y232.03 Z-0.51 I0. J-0.1
Y232.23 Z-0.521 I0. J0.1
Y232.03 Z-0.532 I0. J-0.1
Y232.23 Z-0.543 I0. J0.1
Y232.03 Z-0.554 I0. J-0.1
Y232.23 Z-0.565 I0. J0.1
Y232.03 Z-0.576 I0. J-0.1
Y232.23 Z-0.587 I0. J0.1
Y232.03 Z-0.598 I0. J-0.1
Y232.23 Z-0.609 I0. J0.1
Y232.03 Z-0.62 I0. J-0.1
Y232.23 Z-0.631 I0. J0.1
Y232.03 Z-0.642 I0. J-0.1
Y232.23 Z-0.653 I0. J0.1
Y232.03 Z-0.664 I0. J-0.1
Y232.23 Z-0.675 I0. J0.1
Y232.03 Z-0.686 I0. J-0.1
Y232.23 Z-0.697 I0. J0.1
Y232.03 Z-0.708 I0. J-0.1
Y232.23 Z-0.719 I0. J0.1
Y232.03 Z-0.73 I0. J-0.1
Y232.23 Z-0.741 I0. J0.1
Y232.03 Z-0.752 I0. J-0.1
Y232.23 Z-0.763 I0. J0.1
Y232.03 Z-0.774 I0. J-0.1
Y232.23 Z-0.785 I0. J0.1
Y232.03 Z-0.796 I0. J-0.1
Y232.23 Z-0.807 I0. J0.1
Y232.03 Z-0.818 I0. J-0.1
Y232.23 Z-0.829 I0. J0.1
Y232.03 Z-0.839 I0. J-0.1
Y232.23 Z-0.85 I0. J0.1
Y232.03 Z-0.861 I0. J-0.1
Y232.23 Z-0.872 I0. J0.1
Y232.03 Z-0.883 I0. J-0.1
Y232.23 Z-0.894 I0. J0.1
Y232.03 Z-0.905 I0. J-0.1
Y232.23 Z-0.916 I0. J0.1
Y232.03 Z-0.927 I0. J-0.1
Y232.23 Z-0.938 I0. J0.1
Y232.03 Z-0.949 I0. J-0.1
Y232.23 Z-0.96 I0. J0.1
Y232.03 Z-0.971 I0. J-0.1
Y232.23 Z-0.982 I0. J0.1
Y232.03 Z-0.993 I0. J-0.1
Y232.23 Z-1.004 I0. J0.1
Y232.03 Z-1.015 I0. J-0.1
Y232.23 Z-1.026 I0. J0.1
Y232.03 Z-1.037 I0. J-0.1
Y232.23 Z-1.048 I0. J0.1
Y232.03 Z-1.059 I0. J-0.1
Y232.23 Z-1.07 I0. J0.1
Y232.03 Z-1.081 I0. J-0.1
Y232.23 Z-1.092 I0. J0.1
Y232.03 Z-1.103 I0. J-0.1
Y232.23 Z-1.114 I0. J0.1
Y232.03 Z-1.125 I0. J-0.1
Y232.23 Z-1.136 I0. J0.1
Y232.03 Z-1.147 I0. J-0.1
Y232.23 Z-1.158 I0. J0.1
Y232.03 Z-1.169 I0. J-0.1
Y232.23 Z-1.18 I0. J0.1
Y232.03 Z-1.191 I0. J-0.1
Y232.23 Z-1.202 I0. J0.1
Y232.03 Z-1.212 I0. J-0.1
Y232.23 Z-1.223 I0. J0.1
Y232.03 Z-1.234 I0. J-0.1
Y232.23 Z-1.245 I0. J0.1
Y232.03 Z-1.256 I0. J-0.1
Y232.23 Z-1.267 I0. J0.1
Y232.03 Z-1.278 I0. J-0.1
Y232.23 Z-1.289 I0. J0.1
Y232.03 Z-1.3 I0. J-0.1
Y232.23 Z-1.311 I0. J0.1
Y232.03 Z-1.322 I0. J-0.1
Y232.23 Z-1.333 I0. J0.1
Y232.03 Z-1.344 I0. J-0.1
Y232.23 Z-1.355 I0. J0.1
Y232.03 Z-1.366 I0. J-0.1
Y232.23 Z-1.377 I0. J0.1
Y232.03 Z-1.388 I0. J-0.1
Y232.23 Z-1.399 I0. J0.1
Y232.03 Z-1.41 I0. J-0.1
Y232.23 Z-1.421 I0. J0.1
Y232.03 Z-1.432 I0. J-0.1
Y232.23 Z-1.443 I0. J0.1
Y232.03 Z-1.454 I0. J-0.1
Y232.23 Z-1.465 I0. J0.1
Y232.03 Z-1.476 I0. J-0.1
Y232.23 Z-1.487 I0. J0.1
Y232.03 Z-1.498 I0. J-0.1
Y232.23 Z-1.509 I0. J0.1
Y232.03 Z-1.52 I0. J-0.1
Y232.23 Z-1.531 I0. J0.1
Y232.03 Z-1.542 I0. J-0.1
Y232.23 Z-1.553 I0. J0.1
Y232.03 Z-1.564 I0. J-0.1
Y232.23 Z-1.575 I0. J0.1
Y232.03 Z-1.585 I0. J-0.1
Y232.23 Z-1.596 I0. J0.1
Y232.03 Z-1.607 I0. J-0.1
Y232.23 Z-1.618 I0. J0.1
Y232.03 Z-1.629 I0. J-0.1
Y232.23 Z-1.64 I0. J0.1
Y232.03 Z-1.651 I0. J-0.1
Y232.23 Z-1.662 I0. J0.1
Y232.03 Z-1.673 I0. J-0.1
Y232.23 Z-1.684 I0. J0.1
Y232.03 Z-1.695 I0. J-0.1
Y232.23 Z-1.706 I0. J0.1
Y232.03 Z-1.717 I0. J-0.1
Y232.23 Z-1.728 I0. J0.1
Y232.03 Z-1.739 I0. J-0.1
Y232.23 Z-1.75 I0. J0.1
Y232.03 Z-1.761 I0. J-0.1
Y232.23 Z-1.772 I0. J0.1
Y232.03 Z-1.783 I0. J-0.1
Y232.23 Z-1.794 I0. J0.1
Y232.03 Z-1.805 I0. J-0.1
Y232.23 Z-1.816 I0. J0.1
Y232.03 Z-1.827 I0. J-0.1
Y232.23 Z-1.838 I0. J0.1
Y232.03 Z-1.849 I0. J-0.1
Y232.23 Z-1.86 I0. J0.1
Y232.03 Z-1.871 I0. J-0.1
Y232.23 Z-1.882 I0. J0.1
Y232.03 Z-1.893 I0. J-0.1
Y232.23 Z-1.904 I0. J0.1
Y232.03 Z-1.915 I0. J-0.1
Y232.23 Z-1.926 I0. J0.1
Y232.03 Z-1.937 I0. J-0.1
Y232.23 Z-1.948 I0. J0.1
Y232.03 Z-1.958 I0. J-0.1
Y232.23 Z-1.969 I0. J0.1
Y232.03 Z-1.98 I0. J-0.1
Y232.23 Z-1.991 I0. J0.1
Y232.03 Z-2.002 I0. J-0.1
Y232.23 Z-2.013 I0. J0.1
Y232.03 Z-2.024 I0. J-0.1
Y232.23 Z-2.035 I0. J0.1
Y232.03 Z-2.046 I0. J-0.1
Y232.23 Z-2.057 I0. J0.1
Y232.03 Z-2.068 I0. J-0.1
Y232.23 Z-2.079 I0. J0.1
Y232.03 Z-2.09 I0. J-0.1
Y232.23 Z-2.101 I0. J0.1
Y232.03 Z-2.112 I0. J-0.1
Y232.23 Z-2.123 I0. J0.1
Y232.03 Z-2.134 I0. J-0.1
Y232.23 Z-2.145 I0. J0.1
Y232.03 Z-2.156 I0. J-0.1
Y232.23 Z-2.167 I0. J0.1
Y232.03 Z-2.178 I0. J-0.1
Y232.23 Z-2.189 I0. J0.1
Y232.03 Z-2.2 I0. J-0.1
Y232.23 Z-2.211 I0. J0.1
Y232.03 Z-2.222 I0. J-0.1
Y232.23 Z-2.233 I0. J0.1
Y232.03 Z-2.244 I0. J-0.1
Y232.23 Z-2.255 I0. J0.1
Y232.03 Z-2.266 I0. J-0.1
Y232.23 Z-2.277 I0. J0.1
Y232.03 Z-2.288 I0. J-0.1
Y232.23 Z-2.299 I0. J0.1
Y232.03 Z-2.31 I0. J-0.1
Y232.23 Z-2.321 I0. J0.1
Y232.03 Z-2.331 I0. J-0.1
Y232.23 Z-2.342 I0. J0.1
Y232.03 Z-2.353 I0. J-0.1
Y232.23 Z-2.364 I0. J0.1
Y232.03 Z-2.375 I0. J-0.1
Y232.23 Z-2.386 I0. J0.1
Y232.03 Z-2.397 I0. J-0.1
Y232.23 Z-2.408 I0. J0.1
Y232.03 Z-2.419 I0. J-0.1
Y232.23 Z-2.43 I0. J0.1
Y232.03 Z-2.441 I0. J-0.1
Y232.23 Z-2.452 I0. J0.1
Y232.03 Z-2.463 I0. J-0.1
Y232.23 Z-2.474 I0. J0.1
Y232.03 Z-2.485 I0. J-0.1
Y232.23 Z-2.496 I0. J0.1
Y232.03 Z-2.507 I0. J-0.1
Y232.23 Z-2.518 I0. J0.1
Y232.03 Z-2.529 I0. J-0.1
Y232.23 Z-2.54 I0. J0.1
Y232.03 Z-2.551 I0. J-0.1
Y232.23 Z-2.562 I0. J0.1
Y232.03 Z-2.573 I0. J-0.1
Y232.23 Z-2.584 I0. J0.1
Y232.03 Z-2.595 I0. J-0.1
Y232.23 Z-2.606 I0. J0.1
Y232.03 Z-2.617 I0. J-0.1
Y232.23 Z-2.628 I0. J0.1
Y232.03 Z-2.639 I0. J-0.1
Y232.23 Z-2.65 I0. J0.1
Y232.03 Z-2.661 I0. J-0.1
Y232.23 Z-2.672 I0. J0.1
Y232.03 Z-2.683 I0. J-0.1
Y232.23 Z-2.694 I0. J0.1
Y232.03 Z-2.704 I0. J-0.1
Y232.23 Z-2.715 I0. J0.1
Y232.03 Z-2.726 I0. J-0.1
Y232.23 Z-2.737 I0. J0.1
Y232.03 Z-2.748 I0. J-0.1
Y232.23 Z-2.759 I0. J0.1
Y232.03 Z-2.77 I0. J-0.1
Y232.23 Z-2.781 I0. J0.1
Y232.03 Z-2.792 I0. J-0.1
Y232.23 Z-2.803 I0. J0.1
Y232.03 Z-2.814 I0. J-0.1
Y232.23 Z-2.825 I0. J0.1
Y232.03 Z-2.836 I0. J-0.1
Y232.23 Z-2.847 I0. J0.1
Y232.03 Z-2.858 I0. J-0.1
Y232.23 Z-2.869 I0. J0.1
Y232.03 Z-2.88 I0. J-0.1
Y232.23 Z-2.891 I0. J0.1
Y232.03 Z-2.902 I0. J-0.1
Y232.23 Z-2.913 I0. J0.1
Y232.03 Z-2.924 I0. J-0.1
Y232.23 Z-2.935 I0. J0.1
Y232.03 Z-2.946 I0. J-0.1
Y232.23 Z-2.957 I0. J0.1
Y232.03 Z-2.968 I0. J-0.1
Y232.23 Z-2.979 I0. J0.1
Y232.03 Z-2.99 I0. J-0.1
Y232.23 Z-3.001 I0. J0.1
Y232.03 Z-3.012 I0. J-0.1
Y232.23 Z-3.023 I0. J0.1
Y232.03 Z-3.034 I0. J-0.1
Y232.23 Z-3.045 I0. J0.1
Y232.03 Z-3.056 I0. J-0.1
Y232.23 Z-3.067 I0. J0.1
Y232.03 Z-3.077 I0. J-0.1
Y232.23 Z-3.088 I0. J0.1
Y232.03 Z-3.099 I0. J-0.1
Y232.23 Z-3.11 I0. J0.1
Y232.03 Z-3.121 I0. J-0.1
Y232.23 Z-3.132 I0. J0.1
Y232.03 Z-3.143 I0. J-0.1
Y232.23 Z-3.154 I0. J0.1
Y232.03 Z-3.165 I0. J-0.1
Y232.23 Z-3.176 I0. J0.1
Y232.03 Z-3.187 I0. J-0.1
Y232.23 Z-3.198 I0. J0.1
Y232.03 Z-3.209 I0. J-0.1
Y232.23 Z-3.22 I0. J0.1
Y232.03 Z-3.231 I0. J-0.1
Y232.23 Z-3.242 I0. J0.1
Y232.03 Z-3.253 I0. J-0.1
Y232.23 Z-3.264 I0. J0.1
Y232.03 Z-3.275 I0. J-0.1
Y232.23 Z-3.286 I0. J0.1
Y232.03 Z-3.297 I0. J-0.1
Y232.23 Z-3.308 I0. J0.1
Y232.03 Z-3.319 I0. J-0.1
Y232.23 Z-3.33 I0. J0.1
Y232.03 Z-3.341 I0. J-0.1
Y232.23 Z-3.352 I0. J0.1
Y232.03 Z-3.363 I0. J-0.1
Y232.23 Z-3.374 I0. J0.1
Y232.03 Z-3.385 I0. J-0.1
Y232.23 Z-3.396 I0. J0.1
Y232.03 Z-3.407 I0. J-0.1
Y232.23 Z-3.418 I0. J0.1
Y232.03 Z-3.429 I0. J-0.1
Y232.23 Z-3.44 I0. J0.1
Y232.03 Z-3.451 I0. J-0.1
Y232.23 Z-3.461 I0. J0.1
Y232.03 Z-3.472 I0. J-0.1
Y232.23 Z-3.483 I0. J0.1
Y232.03 Z-3.494 I0. J-0.1
Y232.23 Z-3.505 I0. J0.1
Y232.03 Z-3.516 I0. J-0.1
Y232.23 Z-3.527 I0. J0.1
Y232.03 Z-3.538 I0. J-0.1
Y232.23 Z-3.549 I0. J0.1
Y232.03 Z-3.56 I0. J-0.1
Y232.23 Z-3.571 I0. J0.1
Y232.03 Z-3.582 I0. J-0.1
Y232.23 Z-3.593 I0. J0.1
Y232.03 Z-3.604 I0. J-0.1
Y232.23 Z-3.615 I0. J0.1
Y232.03 Z-3.626 I0. J-0.1
Y232.23 Z-3.637 I0. J0.1
Y232.03 Z-3.648 I0. J-0.1
Y232.23 Z-3.659 I0. J0.1
Y232.03 Z-3.67 I0. J-0.1
Y232.23 Z-3.681 I0. J0.1
Y232.03 Z-3.692 I0. J-0.1
Y232.23 Z-3.703 I0. J0.1
Y232.03 Z-3.714 I0. J-0.1
Y232.23 Z-3.725 I0. J0.1
Y232.03 Z-3.736 I0. J-0.1
Y232.23 Z-3.747 I0. J0.1
Y232.03 Z-3.758 I0. J-0.1
Y232.23 Z-3.769 I0. J0.1
Y232.03 Z-3.78 I0. J-0.1
Y232.23 Z-3.791 I0. J0.1
Y232.03 Z-3.802 I0. J-0.1
Y232.23 Z-3.813 I0. J0.1
Y232.03 Z-3.824 I0. J-0.1
Y232.23 Z-3.834 I0. J0.1
Y232.03 Z-3.845 I0. J-0.1
Y232.23 Z-3.856 I0. J0.1
Y232.03 Z-3.867 I0. J-0.1
Y232.23 Z-3.878 I0. J0.1
Y232.03 Z-3.889 I0. J-0.1
Y232.23 Z-3.9 I0. J0.1
Y232.03 Z-3.911 I0. J-0.1
Y232.23 Z-3.922 I0. J0.1
Y232.03 Z-3.933 I0. J-0.1
Y232.23 Z-3.944 I0. J0.1
Y232.03 Z-3.955 I0. J-0.1
Y232.23 Z-3.966 I0. J0.1
Y232.03 Z-3.977 I0. J-0.1
Y232.23 Z-3.988 I0. J0.1
Y232.03 Z-3.999 I0. J-0.1
Y232.23 Z-4.01 I0. J0.1
Y232.03 Z-4.021 I0. J-0.1
Y232.23 Z-4.032 I0. J0.1
Y232.03 Z-4.043 I0. J-0.1
Y232.23 Z-4.054 I0. J0.1
Y232.03 Z-4.065 I0. J-0.1
Y232.23 Z-4.076 I0. J0.1
Y232.03 Z-4.087 I0. J-0.1
Y232.23 Z-4.098 I0. J0.1
Y232.03 Z-4.109 I0. J-0.1
Y232.23 Z-4.12 I0. J0.1
Y232.03 Z-4.131 I0. J-0.1
Y232.23 Z-4.142 I0. J0.1
Y232.03 Z-4.153 I0. J-0.1
Y232.23 Z-4.164 I0. J0.1
Y232.03 Z-4.175 I0. J-0.1
Y232.23 Z-4.186 I0. J0.1
Y232.03 Z-4.197 I0. J-0.1
Y232.23 Z-4.207 I0. J0.1
Y232.03 Z-4.218 I0. J-0.1
Y232.23 Z-4.229 I0. J0.1
Y232.03 Z-4.24 I0. J-0.1
Y232.23 Z-4.251 I0. J0.1
Y232.03 Z-4.262 I0. J-0.1
Y232.23 Z-4.273 I0. J0.1
Y232.03 Z-4.284 I0. J-0.1
Y232.23 Z-4.295 I0. J0.1
Y232.03 Z-4.306 I0. J-0.1
Y232.23 Z-4.317 I0. J0.1
Y232.03 Z-4.328 I0. J-0.1
Y232.23 Z-4.339 I0. J0.1
Y232.03 Z-4.35 I0. J-0.1
Y232.23 Z-4.361 I0. J0.1
Y232.03 Z-4.372 I0. J-0.1
Y232.23 Z-4.383 I0. J0.1
Y232.03 Z-4.394 I0. J-0.1
Y232.23 Z-4.405 I0. J0.1
Y232.03 Z-4.416 I0. J-0.1
Y232.23 Z-4.427 I0. J0.1
Y232.03 Z-4.438 I0. J-0.1
Y232.23 Z-4.449 I0. J0.1
Y232.03 Z-4.46 I0. J-0.1
Y232.23 Z-4.471 I0. J0.1
Y232.03 Z-4.482 I0. J-0.1
Y232.23 Z-4.493 I0. J0.1
Y232.03 Z-4.504 I0. J-0.1
Y232.23 Z-4.515 I0. J0.1
Y232.03 Z-4.526 I0. J-0.1
Y232.23 Z-4.537 I0. J0.1
Y232.03 Z-4.548 I0. J-0.1
Y232.23 Z-4.559 I0. J0.1
Y232.03 Z-4.57 I0. J-0.1
Y232.23 Z-4.58 I0. J0.1
Y232.03 Z-4.591 I0. J-0.1
Y232.23 Z-4.602 I0. J0.1
Y232.03 Z-4.613 I0. J-0.1
Y232.23 Z-4.624 I0. J0.1
Y232.03 Z-4.635 I0. J-0.1
Y232.23 Z-4.646 I0. J0.1
Y232.03 Z-4.657 I0. J-0.1
Y232.23 Z-4.668 I0. J0.1
Y232.03 Z-4.679 I0. J-0.1
Y232.23 Z-4.69 I0. J0.1
Y232.03 Z-4.701 I0. J-0.1
Y232.23 Z-4.712 I0. J0.1
Y232.03 Z-4.723 I0. J-0.1
Y232.23 Z-4.734 I0. J0.1
Y232.03 Z-4.745 I0. J-0.1
Y232.23 Z-4.756 I0. J0.1
Y232.03 Z-4.767 I0. J-0.1
Y232.23 Z-4.778 I0. J0.1
Y232.03 Z-4.789 I0. J-0.1
Y232.23 Z-4.8 I0. J0.1
Y232.03 Z-4.811 I0. J-0.1
Y232.23 Z-4.822 I0. J0.1
Y232.03 Z-4.833 I0. J-0.1
Y232.23 Z-4.844 I0. J0.1
Y232.03 Z-4.855 I0. J-0.1
Y232.23 Z-4.866 I0. J0.1
Y232.03 Z-4.877 I0. J-0.1
Y232.23 Z-4.888 I0. J0.1
Y232.03 Z-4.899 I0. J-0.1
Y232.23 Z-4.91 I0. J0.1
Y232.03 Z-4.921 I0. J-0.1
Y232.23 Z-4.932 I0. J0.1
Y232.03 Z-4.943 I0. J-0.1
Y232.23 Z-4.953 I0. J0.1
Y232.03 Z-4.964 I0. J-0.1
Y232.23 Z-4.975 I0. J0.1
Y232.03 Z-4.986 I0. J-0.1
Y232.23 Z-4.997 I0. J0.1
Y232.03 Z-5.008 I0. J-0.1
Y232.23 Z-5.019 I0. J0.1
Y232.03 Z-5.03 I0. J-0.1
Y232.23 Z-5.041 I0. J0.1
Y232.03 Z-5.052 I0. J-0.1
Y232.23 Z-5.063 I0. J0.1
Y232.03 Z-5.074 I0. J-0.1
Y232.23 Z-5.085 I0. J0.1
Y232.03 Z-5.096 I0. J-0.1
Y232.23 Z-5.107 I0. J0.1
Y232.03 Z-5.118 I0. J-0.1
Y232.23 Z-5.129 I0. J0.1
Y232.03 Z-5.14 I0. J-0.1
Y232.23 Z-5.151 I0. J0.1
Y232.03 Z-5.162 I0. J-0.1
Y232.23 Z-5.173 I0. J0.1
Y232.03 Z-5.184 I0. J-0.1
Y232.23 Z-5.195 I0. J0.1
Y232.03 Z-5.206 I0. J-0.1
Y232.23 Z-5.217 I0. J0.1
Y232.03 Z-5.228 I0. J-0.1
Y232.23 Z-5.239 I0. J0.1
Y232.03 Z-5.25 I0. J-0.1
Y232.23 Z-5.261 I0. J0.1
Y232.03 Z-5.272 I0. J-0.1
Y232.23 Z-5.283 I0. J0.1
Y232.03 Z-5.294 I0. J-0.1
Y232.23 Z-5.305 I0. J0.1
Y232.03 Z-5.316 I0. J-0.1
Y232.23 Z-5.326 I0. J0.1
Y232.03 Z-5.337 I0. J-0.1
Y232.23 Z-5.348 I0. J0.1
Y232.03 Z-5.359 I0. J-0.1
Y232.23 Z-5.37 I0. J0.1
Y232.03 Z-5.381 I0. J-0.1
Y232.23 Z-5.392 I0. J0.1
Y232.03 Z-5.403 I0. J-0.1
Y232.23 Z-5.414 I0. J0.1
Y232.03 Z-5.425 I0. J-0.1
Y232.23 Z-5.436 I0. J0.1
Y232.03 Z-5.447 I0. J-0.1
Y232.23 Z-5.458 I0. J0.1
Y232.03 Z-5.469 I0. J-0.1
Y232.23 Z-5.48 I0. J0.1
Y232.03 Z-5.491 I0. J-0.1
Y232.23 Z-5.502 I0. J0.1
Y232.03 Z-5.513 I0. J-0.1
Y232.23 Z-5.524 I0. J0.1
Y232.03 Z-5.535 I0. J-0.1
Y232.23 Z-5.546 I0. J0.1
Y232.03 Z-5.557 I0. J-0.1
Y232.23 Z-5.568 I0. J0.1
Y232.03 Z-5.579 I0. J-0.1
Y232.23 Z-5.59 I0. J0.1
Y232.03 Z-5.601 I0. J-0.1
Y232.23 Z-5.612 I0. J0.1
Y232.03 Z-5.623 I0. J-0.1
Y232.23 Z-5.634 I0. J0.1
Y232.03 Z-5.645 I0. J-0.1
Y232.23 Z-5.656 I0. J0.1
Y232.03 Z-5.667 I0. J-0.1
Y232.23 Z-5.678 I0. J0.1
Y232.03 Z-5.689 I0. J-0.1
Y232.23 Z-5.699 I0. J0.1
Y232.03 Z-5.71 I0. J-0.1
Y232.23 Z-5.721 I0. J0.1
Y232.03 Z-5.732 I0. J-0.1
Y232.23 Z-5.743 I0. J0.1
Y232.03 Z-5.754 I0. J-0.1
Y232.23 Z-5.765 I0. J0.1
Y232.03 Z-5.776 I0. J-0.1
Y232.23 Z-5.787 I0. J0.1
Y232.03 Z-5.798 I0. J-0.1
Y232.23 Z-5.809 I0. J0.1
Y232.03 Z-5.82 I0. J-0.1
Y232.23 Z-5.831 I0. J0.1
Y232.03 Z-5.842 I0. J-0.1
Y232.23 Z-5.853 I0. J0.1
Y232.03 Z-5.864 I0. J-0.1
Y232.23 Z-5.875 I0. J0.1
Y232.03 Z-5.886 I0. J-0.1
Y232.23 Z-5.897 I0. J0.1
Y232.03 Z-5.908 I0. J-0.1
Y232.23 Z-5.919 I0. J0.1
Y232.03 Z-5.93 I0. J-0.1
Y232.23 Z-5.941 I0. J0.1
Y232.03 Z-5.952 I0. J-0.1
Y232.23 Z-5.963 I0. J0.1
Y232.03 Z-5.974 I0. J-0.1
Y232.23 Z-5.985 I0. J0.1
Y232.03 Z-5.996 I0. J-0.1
Y232.23 Z-6.007 I0. J0.1
Y232.03 Z-6.018 I0. J-0.1
Y232.23 Z-6.029 I0. J0.1
Y232.03 Z-6.04 I0. J-0.1
Y232.23 Z-6.051 I0. J0.1
Y232.03 Z-6.062 I0. J-0.1
Y232.23 Z-6.072 I0. J0.1
Y232.03 Z-6.083 I0. J-0.1
Y232.23 Z-6.094 I0. J0.1
Y232.03 Z-6.105 I0. J-0.1
Y232.23 Z-6.116 I0. J0.1
Y232.03 Z-6.127 I0. J-0.1
Y232.23 Z-6.138 I0. J0.1
Y232.03 Z-6.149 I0. J-0.1
Y232.23 Z-6.16 I0. J0.1
Y232.03 Z-6.171 I0. J-0.1
Y232.23 Z-6.182 I0. J0.1
Y232.03 Z-6.193 I0. J-0.1
Y232.23 Z-6.204 I0. J0.1
Y232.03 Z-6.215 I0. J-0.1
Y232.23 Z-6.226 I0. J0.1
Y232.03 Z-6.237 I0. J-0.1
Y232.23 Z-6.248 I0. J0.1
Y232.03 Z-6.259 I0. J-0.1
Y232.23 Z-6.27 I0. J0.1
Y232.03 Z-6.281 I0. J-0.1
Y232.23 Z-6.292 I0. J0.1
Y232.03 Z-6.303 I0. J-0.1
Y232.23 Z-6.314 I0. J0.1
Y232.03 Z-6.325 I0. J-0.1
Y232.23 Z-6.336 I0. J0.1
Y232.03 Z-6.347 I0. J-0.1
Y232.23 Z-6.358 I0. J0.1
Y232.03 Z-6.369 I0. J-0.1
Y232.23 Z-6.38 I0. J0.1
Y232.03 Z-6.391 I0. J-0.1
Y232.23 Z-6.402 I0. J0.1
Y232.03 Z-6.413 I0. J-0.1
Y232.23 Z-6.424 I0. J0.1
Y232.03 Z-6.435 I0. J-0.1
Y232.23 Z-6.445 I0. J0.1
Y232.03 Z-6.456 I0. J-0.1
Y232.23 Z-6.467 I0. J0.1
Y232.03 Z-6.478 I0. J-0.1
Y232.23 Z-6.489 I0. J0.1
Y232.03 Z-6.5 I0. J-0.1
Y232.23 Z-6.511 I0. J0.1
Y232.03 Z-6.522 I0. J-0.1
Y232.23 Z-6.533 I0. J0.1
Y232.03 Z-6.544 I0. J-0.1
Y232.23 Z-6.555 I0. J0.1
Y232.03 Z-6.566 I0. J-0.1
Y232.23 Z-6.577 I0. J0.1
Y232.03 Z-6.588 I0. J-0.1
Y232.23 Z-6.599 I0. J0.1
Y232.03 Z-6.61 I0. J-0.1
Y232.23 Z-6.621 I0. J0.1
Y232.03 Z-6.632 I0. J-0.1
Y232.23 Z-6.643 I0. J0.1
Y232.03 Z-6.654 I0. J-0.1
Y232.23 Z-6.665 I0. J0.1
Y232.03 Z-6.676 I0. J-0.1
Y232.23 Z-6.687 I0. J0.1
Y232.03 Z-6.698 I0. J-0.1
Y232.23 Z-6.709 I0. J0.1
Y232.03 Z-6.72 I0. J-0.1
Y232.23 Z-6.731 I0. J0.1
Y232.03 Z-6.742 I0. J-0.1
Y232.23 Z-6.753 I0. J0.1
Y232.03 Z-6.764 I0. J-0.1
Y232.23 Z-6.775 I0. J0.1
Y232.03 Z-6.786 I0. J-0.1
Y232.23 Z-6.797 I0. J0.1
Y232.03 Z-6.808 I0. J-0.1
Y232.23 Z-6.819 I0. J0.1
Y232.03 Z-6.829 I0. J-0.1
Y232.23 Z-6.84 I0. J0.1
Y232.03 Z-6.851 I0. J-0.1
Y232.23 Z-6.862 I0. J0.1
Y232.03 Z-6.873 I0. J-0.1
Y232.23 Z-6.884 I0. J0.1
Y232.03 Z-6.895 I0. J-0.1
Y232.23 Z-6.906 I0. J0.1
Y232.03 Z-6.917 I0. J-0.1
Y232.23 Z-6.928 I0. J0.1
Y232.03 Z-6.939 I0. J-0.1
Y232.23 Z-6.95 I0. J0.1
Y232.03 Z-6.961 I0. J-0.1
Y232.23 Z-6.972 I0. J0.1
Y232.03 Z-6.983 I0. J-0.1
Y232.23 Z-6.994 I0. J0.1
Y232.03 Z-7.005 I0. J-0.1
Y232.23 Z-7.016 I0. J0.1
Y232.03 Z-7.027 I0. J-0.1
Y232.23 Z-7.038 I0. J0.1
Y232.03 Z-7.049 I0. J-0.1
Y232.23 Z-7.06 I0. J0.1
Y232.03 Z-7.071 I0. J-0.1
Y232.23 Z-7.082 I0. J0.1
Y232.03 Z-7.093 I0. J-0.1
Y232.23 Z-7.104 I0. J0.1
Y232.03 Z-7.115 I0. J-0.1
Y232.23 Z-7.126 I0. J0.1
Y232.03 Z-7.137 I0. J-0.1
Y232.23 Z-7.148 I0. J0.1
Y232.03 Z-7.159 I0. J-0.1
Y232.23 Z-7.17 I0. J0.1
Y232.03 Z-7.181 I0. J-0.1
Y232.23 Z-7.192 I0. J0.1
Y232.03 Z-7.202 I0. J-0.1
Y232.23 Z-7.213 I0. J0.1
Y232.03 Z-7.224 I0. J-0.1
Y232.23 Z-7.235 I0. J0.1
Y232.03 Z-7.246 I0. J-0.1
Y232.23 Z-7.257 I0. J0.1
Y232.03 Z-7.268 I0. J-0.1
Y232.23 Z-7.279 I0. J0.1
Y232.03 Z-7.29 I0. J-0.1
Y232.23 Z-7.301 I0. J0.1
Y232.03 Z-7.312 I0. J-0.1
Y232.23 Z-7.323 I0. J0.1
Y232.03 Z-7.334 I0. J-0.1
Y232.23 Z-7.345 I0. J0.1
Y232.03 Z-7.356 I0. J-0.1
Y232.23 Z-7.367 I0. J0.1
Y232.03 Z-7.378 I0. J-0.1
Y232.23 Z-7.389 I0. J0.1
Y232.03 Z-7.4 I0. J-0.1
Y232.23 Z-7.411 I0. J0.1
Y232.03 Z-7.422 I0. J-0.1
Y232.23 Z-7.433 I0. J0.1
Y232.03 Z-7.444 I0. J-0.1
Y232.23 Z-7.455 I0. J0.1
Y232.03 Z-7.466 I0. J-0.1
Y232.23 Z-7.477 I0. J0.1
Y232.03 Z-7.488 I0. J-0.1
Y232.23 Z-7.499 I0. J0.1
Y232.03 Z-7.51 I0. J-0.1
Y232.23 Z-7.521 I0. J0.1
Y232.03 Z-7.532 I0. J-0.1
Y232.23 Z-7.543 I0. J0.1
Y232.03 Z-7.554 I0. J-0.1
Y232.23 Z-7.565 I0. J0.1
Y232.03 Z-7.575 I0. J-0.1
Y232.23 Z-7.586 I0. J0.1
Y232.03 Z-7.597 I0. J-0.1
Y232.23 Z-7.608 I0. J0.1
Y232.03 Z-7.619 I0. J-0.1
Y232.23 Z-7.63 I0. J0.1
Y232.03 Z-7.641 I0. J-0.1
Y232.23 Z-7.652 I0. J0.1
Y232.03 Z-7.663 I0. J-0.1
Y232.23 Z-7.674 I0. J0.1
Y232.03 Z-7.685 I0. J-0.1
Y232.23 Z-7.696 I0. J0.1
Y232.03 Z-7.707 I0. J-0.1
Y232.23 Z-7.718 I0. J0.1
Y232.03 Z-7.729 I0. J-0.1
Y232.23 Z-7.74 I0. J0.1
Y232.03 Z-7.751 I0. J-0.1
Y232.23 Z-7.762 I0. J0.1
Y232.03 Z-7.773 I0. J-0.1
Y232.23 Z-7.784 I0. J0.1
Y232.03 Z-7.795 I0. J-0.1
Y232.23 Z-7.806 I0. J0.1
Y232.03 Z-7.817 I0. J-0.1
Y232.23 Z-7.828 I0. J0.1
Y232.03 Z-7.839 I0. J-0.1
Y232.23 Z-7.85 I0. J0.1
Y232.03 Z-7.861 I0. J-0.1
Y232.23 Z-7.872 I0. J0.1
Y232.03 Z-7.883 I0. J-0.1
Y232.23 Z-7.894 I0. J0.1
Y232.03 Z-7.905 I0. J-0.1
Y232.23 Z-7.916 I0. J0.1
Y232.03 Z-7.927 I0. J-0.1
Y232.23 Z-7.938 I0. J0.1
Y232.03 Z-7.948 I0. J-0.1
Y232.23 Z-7.959 I0. J0.1
Y232.03 Z-7.97 I0. J-0.1
Y232.23 Z-7.981 I0. J0.1
Y232.03 Z-7.992 I0. J-0.1
Y232.23 Z-8.003 I0. J0.1
Y232.03 Z-8.014 I0. J-0.1
Y232.23 Z-8.025 I0. J0.1
Y232.03 Z-8.036 I0. J-0.1
Y232.23 Z-8.047 I0. J0.1
Y232.03 Z-8.058 I0. J-0.1
Y232.23 Z-8.069 I0. J0.1
Y232.03 Z-8.08 I0. J-0.1
Y232.23 Z-8.091 I0. J0.1
Y232.03 Z-8.102 I0. J-0.1
Y232.23 Z-8.113 I0. J0.1
Y232.03 Z-8.124 I0. J-0.1
Y232.23 Z-8.135 I0. J0.1
Y232.03 Z-8.146 I0. J-0.1
Y232.23 Z-8.157 I0. J0.1
Y232.03 Z-8.168 I0. J-0.1
Y232.23 Z-8.179 I0. J0.1
Y232.03 Z-8.19 I0. J-0.1
Y232.23 Z-8.201 I0. J0.1
Y232.03 Z-8.212 I0. J-0.1
Y232.23 Z-8.223 I0. J0.1
Y232.03 Z-8.234 I0. J-0.1
Y232.23 Z-8.245 I0. J0.1
Y232.03 Z-8.256 I0. J-0.1
Y232.23 Z-8.267 I0. J0.1
Y232.03 Z-8.278 I0. J-0.1
Y232.23 Z-8.289 I0. J0.1
Y232.03 Z-8.3 I0. J-0.1
Y232.23 Z-8.311 I0. J0.1
Y232.03 Z-8.321 I0. J-0.1
Y232.23 Z-8.332 I0. J0.1
Y232.03 Z-8.343 I0. J-0.1
Y232.23 Z-8.354 I0. J0.1
Y232.03 Z-8.365 I0. J-0.1
Y232.23 Z-8.376 I0. J0.1
Y232.03 Z-8.387 I0. J-0.1
Y232.23 Z-8.398 I0. J0.1
Y232.03 Z-8.409 I0. J-0.1
Y232.23 Z-8.42 I0. J0.1
Y232.03 Z-8.431 I0. J-0.1
Y232.23 Z-8.442 I0. J0.1
Y232.03 Z-8.453 I0. J-0.1
Y232.23 Z-8.464 I0. J0.1
Y232.03 Z-8.475 I0. J-0.1
Y232.23 Z-8.486 I0. J0.1
Y232.03 Z-8.497 I0. J-0.1
Y232.23 Z-8.508 I0. J0.1
Y232.03 Z-8.519 I0. J-0.1
Y232.23 Z-8.53 I0. J0.1
Y232.03 Z-8.541 I0. J-0.1
Y232.23 Z-8.552 I0. J0.1
Y232.03 Z-8.563 I0. J-0.1
Y232.23 Z-8.574 I0. J0.1
Y232.03 Z-8.585 I0. J-0.1
Y232.23 Z-8.596 I0. J0.1
Y232.03 Z-8.607 I0. J-0.1
Y232.23 Z-8.618 I0. J0.1
Y232.03 Z-8.629 I0. J-0.1
Y232.23 Z-8.64 I0. J0.1
Y232.03 Z-8.651 I0. J-0.1
Y232.23 Z-8.662 I0. J0.1
Y232.03 Z-8.673 I0. J-0.1
Y232.23 Z-8.684 I0. J0.1
Y232.03 Z-8.694 I0. J-0.1
Y232.23 Z-8.705 I0. J0.1
Y232.03 Z-8.716 I0. J-0.1
Y232.23 Z-8.727 I0. J0.1
Y232.03 Z-8.738 I0. J-0.1
Y232.23 Z-8.749 I0. J0.1
Y232.03 Z-8.76 I0. J-0.1
Y232.23 Z-8.771 I0. J0.1
Y232.03 Z-8.782 I0. J-0.1
Y232.23 Z-8.793 I0. J0.1
Y232.03 Z-8.804 I0. J-0.1
Y232.23 Z-8.815 I0. J0.1
Y232.03 Z-8.826 I0. J-0.1
Y232.23 Z-8.837 I0. J0.1
Y232.03 Z-8.848 I0. J-0.1
Y232.23 Z-8.859 I0. J0.1
Y232.03 Z-8.87 I0. J-0.1
Y232.23 Z-8.881 I0. J0.1
Y232.03 Z-8.892 I0. J-0.1
Y232.23 Z-8.903 I0. J0.1
Y232.03 Z-8.914 I0. J-0.1
Y232.23 Z-8.925 I0. J0.1
Y232.03 Z-8.936 I0. J-0.1
Y232.23 Z-8.947 I0. J0.1
Y232.03 Z-8.958 I0. J-0.1
Y232.23 Z-8.969 I0. J0.1
Y232.03 Z-8.98 I0. J-0.1
Y232.23 Z-8.991 I0. J0.1
Y232.03 Z-9.002 I0. J-0.1
Y232.23 Z-9.013 I0. J0.1
Y232.03 Z-9.024 I0. J-0.1
Y232.23 Z-9.035 I0. J0.1
Y232.03 Z-9.046 I0. J-0.1
Y232.23 Z-9.057 I0. J0.1
Y232.03 Z-9.067 I0. J-0.1
Y232.23 Z-9.078 I0. J0.1
Y232.03 Z-9.089 I0. J-0.1
Y232.23 Z-9.1 I0. J0.1
Y232.03 Z-9.111 I0. J-0.1
Y232.23 Z-9.122 I0. J0.1
Y232.03 Z-9.133 I0. J-0.1
Y232.23 Z-9.144 I0. J0.1
Y232.03 Z-9.155 I0. J-0.1
Y232.23 Z-9.166 I0. J0.1
Y232.03 Z-9.177 I0. J-0.1
Y232.23 Z-9.188 I0. J0.1
Y232.03 Z-9.199 I0. J-0.1
Y232.23 Z-9.21 I0. J0.1
Y232.03 Z-9.221 I0. J-0.1
Y232.23 Z-9.232 I0. J0.1
Y232.03 Z-9.243 I0. J-0.1
Y232.23 Z-9.254 I0. J0.1
Y232.03 Z-9.265 I0. J-0.1
Y232.23 Z-9.276 I0. J0.1
Y232.03 Z-9.287 I0. J-0.1
Y232.23 Z-9.298 I0. J0.1
Y232.03 Z-9.309 I0. J-0.1
Y232.23 Z-9.32 I0. J0.1
Y232.03 Z-9.331 I0. J-0.1
Y232.23 Z-9.342 I0. J0.1
Y232.03 Z-9.353 I0. J-0.1
Y232.23 Z-9.364 I0. J0.1
Y232.03 Z-9.375 I0. J-0.1
Y232.23 Z-9.386 I0. J0.1
Y232.03 Z-9.397 I0. J-0.1
Y232.23 Z-9.408 I0. J0.1
Y232.03 Z-9.419 I0. J-0.1
Y232.23 Z-9.43 I0. J0.1
Y232.03 Z-9.44 I0. J-0.1
Y232.23 Z-9.451 I0. J0.1
Y232.03 Z-9.462 I0. J-0.1
Y232.23 Z-9.473 I0. J0.1
Y232.03 Z-9.484 I0. J-0.1
Y232.23 Z-9.495 I0. J0.1
Y232.03 Z-9.506 I0. J-0.1
Y232.23 Z-9.517 I0. J0.1
Y232.03 Z-9.528 I0. J-0.1
Y232.23 Z-9.539 I0. J0.1
Y232.03 Z-9.55 I0. J-0.1
Y232.23 Z-9.561 I0. J0.1
Y232.03 Z-9.572 I0. J-0.1
Y232.23 Z-9.583 I0. J0.1
Y232.03 Z-9.594 I0. J-0.1
Y232.23 Z-9.605 I0. J0.1
Y232.03 Z-9.616 I0. J-0.1
Y232.23 Z-9.627 I0. J0.1
Y232.03 Z-9.638 I0. J-0.1
Y232.23 Z-9.649 I0. J0.1
Y232.03 Z-9.66 I0. J-0.1
Y232.23 Z-9.671 I0. J0.1
Y232.03 Z-9.682 I0. J-0.1
Y232.23 Z-9.693 I0. J0.1
Y232.03 Z-9.704 I0. J-0.1
Y232.23 Z-9.715 I0. J0.1
Y232.03 Z-9.726 I0. J-0.1
Y232.23 Z-9.737 I0. J0.1
Y232.03 Z-9.748 I0. J-0.1
Y232.23 Z-9.759 I0. J0.1
Y232.03 Z-9.77 I0. J-0.1
Y232.23 Z-9.781 I0. J0.1
Y232.03 Z-9.792 I0. J-0.1
Y232.23 Z-9.803 I0. J0.1
Y232.03 Z-9.813 I0. J-0.1
Y232.23 Z-9.824 I0. J0.1
Y232.03 Z-9.835 I0. J-0.1
Y232.23 Z-9.846 I0. J0.1
Y232.03 Z-9.857 I0. J-0.1
Y232.23 Z-9.868 I0. J0.1
Y232.03 Z-9.879 I0. J-0.1
Y232.23 Z-9.89 I0. J0.1
Y232.03 Z-9.901 I0. J-0.1
Y232.23 Z-9.912 I0. J0.1
Y232.03 Z-9.923 I0. J-0.1
Y232.23 Z-9.934 I0. J0.1
Y232.03 Z-9.945 I0. J-0.1
Y232.23 Z-9.956 I0. J0.1
Y232.03 Z-9.967 I0. J-0.1
Y232.23 Z-9.978 I0. J0.1
Y232.03 Z-9.989 I0. J-0.1
Y232.23 Z-10. I0. J0.1
Y232.03 I0. J-0.1 F600.
Y232.23 I0. J0.1
G1 Z1. F720.
G0 X103.057 Y131.34
G1 Z0.5 F30.
G3 X103.247 Y131.28 Z0.489 I0.095 J-0.03 F720.
X103.057 Y131.34 Z0.478 I-0.095 J0.03
X103.247 Y131.28 Z0.467 I0.095 J-0.03
X103.057 Y131.34 Z0.456 I-0.095 J0.03
X103.247 Y131.28 Z0.445 I0.095 J-0.03
X103.057 Y131.34 Z0.434 I-0.095 J0.03
X103.247 Y131.28 Z0.423 I0.095 J-0.03
X103.057 Y131.34 Z0.412 I-0.095 J0.03
X103.247 Y131.28 Z0.401 I0.095 J-0.03
X103.057 Y131.34 Z0.39 I-0.095 J0.03
X103.247 Y131.28 Z0.379 I0.095 J-0.03
X103.057 Y131.34 Z0.368 I-0.095 J0.03
X103.247 Y131.28 Z0.357 I0.095 J-0.03
X103.057 Y131.34 Z0.346 I-0.095 J0.03
X103.247 Y131.28 Z0.335 I0.095 J-0.03
X103.057 Y131.34 Z0.324 I-0.095 J0.03
X103.247 Y131.28 Z0.313 I0.095 J-0.03
X103.057 Y131.34 Z0.303 I-0.095 J0.03
X103.247 Y131.28 Z0.292 I0.095 J-0.03
X103.057 Y131.34 Z0.281 I-0.095 J0.03
X103.247 Y131.28 Z0.27 I0.095 J-0.03
X103.057 Y131.34 Z0.259 I-0.095 J0.03
X103.247 Y131.28 Z0.248 I0.095 J-0.03
X103.057 Y131.34 Z0.237 I-0.095 J0.03
X103.247 Y131.28 Z0.226 I0.095 J-0.03
X103.057 Y131.34 Z0.215 I-0.095 J0.03
X103.247 Y131.28 Z0.204 I0.095 J-0.03
X103.057 Y131.34 Z0.193 I-0.095 J0.03
X103.247 Y131.28 Z0.182 I0.095 J-0.03
X103.057 Y131.34 Z0.171 I-0.095 J0.03
X103.247 Y131.28 Z0.16 I0.095 J-0.03
X103.057 Y131.34 Z0.149 I-0.095 J0.03
X103.247 Y131.28 Z0.138 I0.095 J-0.03
X103.057 Y131.34 Z0.127 I-0.095 J0.03
X103.247 Y131.28 Z0.116 I0.095 J-0.03
X103.057 Y131.34 Z0.105 I-0.095 J0.03
X103.247 Y131.28 Z0.094 I0.095 J-0.03
X103.057 Y131.34 Z0.083 I-0.095 J0.03
X103.247 Y131.28 Z0.072 I0.095 J-0.03
X103.057 Y131.34 Z0.061 I-0.095 J0.03
X103.247 Y131.28 Z0.05 I0.095 J-0.03
X103.057 Y131.34 Z0.039 I-0.095 J0.03
X103.247 Y131.28 Z0.028 I0.095 J-0.03
X103.057 Y131.34 Z0.017 I-0.095 J0.03
X103.247 Y131.28 Z0.006 I0.095 J-0.03
X103.057 Y131.34 Z-0.005 I-0.095 J0.03
X103.247 Y131.28 Z-0.016 I0.095 J-0.03
X103.057 Y131.34 Z-0.027 I-0.095 J0.03
X103.247 Y131.28 Z-0.038 I0.095 J-0.03
X103.057 Y131.34 Z-0.049 I-0.095 J0.03
X103.247 Y131.28 Z-0.06 I0.095 J-0.03
X103.057 Y131.34 Z-0.07 I-0.095 J0.03
X103.247 Y131.28 Z-0.081 I0.095 J-0.03
X103.057 Y131.34 Z-0.092 I-0.095 J0.03
X103.247 Y131.28 Z-0.103 I0.095 J-0.03
X103.057 Y131.34 Z-0.114 I-0.095 J0.03
X103.247 Y131.28 Z-0.125 I0.095 J-0.03
X103.057 Y131.34 Z-0.136 I-0.095 J0.03
X103.247 Y131.28 Z-0.147 I0.095 J-0.03
X103.057 Y131.34 Z-0.158 I-0.095 J0.03
X103.247 Y131.28 Z-0.169 I0.095 J-0.03
X103.057 Y131.34 Z-0.18 I-0.095 J0.03
X103.247 Y131.28 Z-0.191 I0.095 J-0.03
X103.057 Y131.34 Z-0.202 I-0.095 J0.03
X103.247 Y131.28 Z-0.213 I0.095 J-0.03
X103.057 Y131.34 Z-0.224 I-0.095 J0.03
X103.247 Y131.28 Z-0.235 I0.095 J-0.03
X103.057 Y131.34 Z-0.246 I-0.095 J0.03
X103.247 Y131.28 Z-0.257 I0.095 J-0.03
X103.057 Y131.34 Z-0.268 I-0.095 J0.03
X103.247 Y131.28 Z-0.279 I0.095 J-0.03
X103.057 Y131.34 Z-0.29 I-0.095 J0.03
X103.247 Y131.28 Z-0.301 I0.095 J-0.03
X103.057 Y131.34 Z-0.312 I-0.095 J0.03
X103.247 Y131.28 Z-0.323 I0.095 J-0.03
X103.057 Y131.34 Z-0.334 I-0.095 J0.03
X103.247 Y131.28 Z-0.345 I0.095 J-0.03
X103.057 Y131.34 Z-0.356 I-0.095 J0.03
X103.247 Y131.28 Z-0.367 I0.095 J-0.03
X103.057 Y131.34 Z-0.378 I-0.095 J0.03
X103.247 Y131.28 Z-0.389 I0.095 J-0.03
X103.057 Y131.34 Z-0.4 I-0.095 J0.03
X103.247 Y131.28 Z-0.411 I0.095 J-0.03
X103.057 Y131.34 Z-0.422 I-0.095 J0.03
X103.247 Y131.28 Z-0.433 I0.095 J-0.03
X103.057 Y131.34 Z-0.443 I-0.095 J0.03
X103.247 Y131.28 Z-0.454 I0.095 J-0.03
X103.057 Y131.34 Z-0.465 I-0.095 J0.03
X103.247 Y131.28 Z-0.476 I0.095 J-0.03
X103.057 Y131.34 Z-0.487 I-0.095 J0.03
X103.247 Y131.28 Z-0.498 I0.095 J-0.03
X103.057 Y131.34 Z-0.509 I-0.095 J0.03
X103.247 Y131.28 Z-0.52 I0.095 J-0.03
X103.057 Y131.34 Z-0.531 I-0.095 J0.03
X103.247 Y131.28 Z-0.542 I0.095 J-0.03
X103.057 Y131.34 Z-0.553 I-0.095 J0.03
X103.247 Y131.28 Z-0.564 I0.095 J-0.03
X103.057 Y131.34 Z-0.575 I-0.095 J0.03
X103.247 Y131.28 Z-0.586 I0.095 J-0.03
X103.057 Y131.34 Z-0.597 I-0.095 J0.03
X103.247 Y131.28 Z-0.608 I0.095 J-0.03
X103.057 Y131.34 Z-0.619 I-0.095 J0.03
X103.247 Y131.28 Z-0.63 I0.095 J-0.03
X103.057 Y131.34 Z-0.641 I-0.095 J0.03
X103.247 Y131.28 Z-0.652 I0.095 J-0.03
X103.057 Y131.34 Z-0.663 I-0.095 J0.03
X103.247 Y131.28 Z-0.674 I0.095 J-0.03
X103.057 Y131.34 Z-0.685 I-0.095 J0.03
X103.247 Y131.28 Z-0.696 I0.095 J-0.03
X103.057 Y131.34 Z-0.707 I-0.095 J0.03
X103.247 Y131.28 Z-0.718 I0.095 J-0.03
X103.057 Y131.34 Z-0.729 I-0.095 J0.03
X103.247 Y131.28 Z-0.74 I0.095 J-0.03
X103.057 Y131.34 Z-0.751 I-0.095 J0.03
X103.247 Y131.28 Z-0.762 I0.095 J-0.03
X103.057 Y131.34 Z-0.773 I-0.095 J0.03
X103.247 Y131.28 Z-0.784 I0.095 J-0.03
X103.057 Y131.34 Z-0.795 I-0.095 J0.03
X103.247 Y131.28 Z-0.806 I0.095 J-0.03
X103.057 Y131.34 Z-0.816 I-0.095 J0.03
X103.247 Y131.28 Z-0.827 I0.095 J-0.03
X103.057 Y131.34 Z-0.838 I-0.095 J0.03
X103.247 Y131.28 Z-0.849 I0.095 J-0.03
X103.057 Y131.34 Z-0.86 I-0.095 J0.03
X103.247 Y131.28 Z-0.871 I0.095 J-0.03
X103.057 Y131.34 Z-0.882 I-0.095 J0.03
X103.247 Y131.28 Z-0.893 I0.095 J-0.03
X103.057 Y131.34 Z-0.904 I-0.095 J0.03
X103.247 Y131.28 Z-0.915 I0.095 J-0.03
X103.057 Y131.34 Z-0.926 I-0.095 J0.03
X103.247 Y131.28 Z-0.937 I0.095 J-0.03
X103.057 Y131.34 Z-0.948 I-0.095 J0.03
X103.247 Y131.28 Z-0.959 I0.095 J-0.03
X103.057 Y131.34 Z-0.97 I-0.095 J0.03
X103.247 Y131.28 Z-0.981 I0.095 J-0.03
X103.057 Y131.34 Z-0.992 I-0.095 J0.03
X103.247 Y131.28 Z-1.003 I0.095 J-0.03
X103.057 Y131.34 Z-1.014 I-0.095 J0.03
X103.247 Y131.28 Z-1.025 I0.095 J-0.03
X103.057 Y131.34 Z-1.036 I-0.095 J0.03
X103.247 Y131.28 Z-1.047 I0.095 J-0.03
X103.057 Y131.34 Z-1.058 I-0.095 J0.03
X103.247 Y131.28 Z-1.069 I0.095 J-0.03
X103.057 Y131.34 Z-1.08 I-0.095 J0.03
X103.247 Y131.28 Z-1.091 I0.095 J-0.03
X103.057 Y131.34 Z-1.102 I-0.095 J0.03
X103.247 Y131.28 Z-1.113 I0.095 J-0.03
X103.057 Y131.34 Z-1.124 I-0.095 J0.03
X103.247 Y131.28 Z-1.135 I0.095 J-0.03
X103.057 Y131.34 Z-1.146 I-0.095 J0.03
X103.247 Y131.28 Z-1.157 I0.095 J-0.03
X103.057 Y131.34 Z-1.168 I-0.095 J0.03
X103.247 Y131.28 Z-1.179 I0.095 J-0.03
X103.057 Y131.34 Z-1.189 I-0.095 J0.03
X103.247 Y131.28 Z-1.2 I0.095 J-0.03
X103.057 Y131.34 Z-1.211 I-0.095 J0.03
X103.247 Y131.28 Z-1.222 I0.095 J-0.03
X103.057 Y131.34 Z-1.233 I-0.095 J0.03
X103.247 Y131.28 Z-1.244 I0.095 J-0.03
X103.057 Y131.34 Z-1.255 I-0.095 J0.03
X103.247 Y131.28 Z-1.266 I0.095 J-0.03
X103.057 Y131.34 Z-1.277 I-0.095 J0.03
X103.247 Y131.28 Z-1.288 I0.095 J-0.03
X103.057 Y131.34 Z-1.299 I-0.095 J0.03
X103.247 Y131.28 Z-1.31 I0.095 J-0.03
X103.057 Y131.34 Z-1.321 I-0.095 J0.03
X103.247 Y131.28 Z-1.332 I0.095 J-0.03
X103.057 Y131.34 Z-1.343 I-0.095 J0.03
X103.247 Y131.28 Z-1.354 I0.095 J-0.03
X103.057 Y131.34 Z-1.365 I-0.095 J0.03
X103.247 Y131.28 Z-1.376 I0.095 J-0.03
X103.057 Y131.34 Z-1.387 I-0.095 J0.03
X103.247 Y131.28 Z-1.398 I0.095 J-0.03
X103.057 Y131.34 Z-1.409 I-0.095 J0.03
X103.247 Y131.28 Z-1.42 I0.095 J-0.03
X103.057 Y131.34 Z-1.431 I-0.095 J0.03
X103.247 Y131.28 Z-1.442 I0.095 J-0.03
X103.057 Y131.34 Z-1.453 I-0.095 J0.03
X103.247 Y131.28 Z-1.464 I0.095 J-0.03
X103.057 Y131.34 Z-1.475 I-0.095 J0.03
X103.247 Y131.28 Z-1.486 I0.095 J-0.03
X103.057 Y131.34 Z-1.497 I-0.095 J0.03
X103.247 Y131.28 Z-1.508 I0.095 J-0.03
X103.057 Y131.34 Z-1.519 I-0.095 J0.03
X103.247 Y131.28 Z-1.53 I0.095 J-0.03
X103.057 Y131.34 Z-1.541 I-0.095 J0.03
X103.247 Y131.28 Z-1.552 I0.095 J-0.03
X103.057 Y131.34 Z-1.562 I-0.095 J0.03
X103.247 Y131.28 Z-1.573 I0.095 J-0.03
X103.057 Y131.34 Z-1.584 I-0.095 J0.03
X103.247 Y131.28 Z-1.595 I0.095 J-0.03
X103.057 Y131.34 Z-1.606 I-0.095 J0.03
X103.247 Y131.28 Z-1.617 I0.095 J-0.03
X103.057 Y131.34 Z-1.628 I-0.095 J0.03
X103.247 Y131.28 Z-1.639 I0.095 J-0.03
X103.057 Y131.34 Z-1.65 I-0.095 J0.03
X103.247 Y131.28 Z-1.661 I0.095 J-0.03
X103.057 Y131.34 Z-1.672 I-0.095 J0.03
X103.247 Y131.28 Z-1.683 I0.095 J-0.03
X103.057 Y131.34 Z-1.694 I-0.095 J0.03
X103.247 Y131.28 Z-1.705 I0.095 J-0.03
X103.057 Y131.34 Z-1.716 I-0.095 J0.03
X103.247 Y131.28 Z-1.727 I0.095 J-0.03
X103.057 Y131.34 Z-1.738 I-0.095 J0.03
X103.247 Y131.28 Z-1.749 I0.095 J-0.03
X103.057 Y131.34 Z-1.76 I-0.095 J0.03
X103.247 Y131.28 Z-1.771 I0.095 J-0.03
X103.057 Y131.34 Z-1.782 I-0.095 J0.03
X103.247 Y131.28 Z-1.793 I0.095 J-0.03
X103.057 Y131.34 Z-1.804 I-0.095 J0.03
X103.247 Y131.28 Z-1.815 I0.095 J-0.03
X103.057 Y131.34 Z-1.826 I-0.095 J0.03
X103.247 Y131.28 Z-1.837 I0.095 J-0.03
X103.057 Y131.34 Z-1.848 I-0.095 J0.03
X103.247 Y131.28 Z-1.859 I0.095 J-0.03
X103.057 Y131.34 Z-1.87 I-0.095 J0.03
X103.247 Y131.28 Z-1.881 I0.095 J-0.03
X103.057 Y131.34 Z-1.892 I-0.095 J0.03
X103.247 Y131.28 Z-1.903 I0.095 J-0.03
X103.057 Y131.34 Z-1.914 I-0.095 J0.03
X103.247 Y131.28 Z-1.925 I0.095 J-0.03
X103.057 Y131.34 Z-1.935 I-0.095 J0.03
X103.247 Y131.28 Z-1.946 I0.095 J-0.03
X103.057 Y131.34 Z-1.957 I-0.095 J0.03
X103.247 Y131.28 Z-1.968 I0.095 J-0.03
X103.057 Y131.34 Z-1.979 I-0.095 J0.03
X103.247 Y131.28 Z-1.99 I0.095 J-0.03
X103.057 Y131.34 Z-2.001 I-0.095 J0.03
X103.247 Y131.28 Z-2.012 I0.095 J-0.03
X103.057 Y131.34 Z-2.023 I-0.095 J0.03
X103.247 Y131.28 Z-2.034 I0.095 J-0.03
X103.057 Y131.34 Z-2.045 I-0.095 J0.03
X103.247 Y131.28 Z-2.056 I0.095 J-0.03
X103.057 Y131.34 Z-2.067 I-0.095 J0.03
X103.247 Y131.28 Z-2.078 I0.095 J-0.03
X103.057 Y131.34 Z-2.089 I-0.095 J0.03
X103.247 Y131.28 Z-2.1 I0.095 J-0.03
X103.057 Y131.34 Z-2.111 I-0.095 J0.03
X103.247 Y131.28 Z-2.122 I0.095 J-0.03
X103.057 Y131.34 Z-2.133 I-0.095 J0.03
X103.247 Y131.28 Z-2.144 I0.095 J-0.03
X103.057 Y131.34 Z-2.155 I-0.095 J0.03
X103.247 Y131.28 Z-2.166 I0.095 J-0.03
X103.057 Y131.34 Z-2.177 I-0.095 J0.03
X103.247 Y131.28 Z-2.188 I0.095 J-0.03
X103.057 Y131.34 Z-2.199 I-0.095 J0.03
X103.247 Y131.28 Z-2.21 I0.095 J-0.03
X103.057 Y131.34 Z-2.221 I-0.095 J0.03
X103.247 Y131.28 Z-2.232 I0.095 J-0.03
X103.057 Y131.34 Z-2.243 I-0.095 J0.03
X103.247 Y131.28 Z-2.254 I0.095 J-0.03
X103.057 Y131.34 Z-2.265 I-0.095 J0.03
X103.247 Y131.28 Z-2.276 I0.095 J-0.03
X103.057 Y131.34 Z-2.287 I-0.095 J0.03
X103.247 Y131.28 Z-2.298 I0.095 J-0.03
X103.057 Y131.34 Z-2.308 I-0.095 J0.03
X103.247 Y131.28 Z-2.319 I0.095 J-0.03
X103.057 Y131.34 Z-2.33 I-0.095 J0.03
X103.247 Y131.28 Z-2.341 I0.095 J-0.03
X103.057 Y131.34 Z-2.352 I-0.095 J0.03
X103.247 Y131.28 Z-2.363 I0.095 J-0.03
X103.057 Y131.34 Z-2.374 I-0.095 J0.03
X103.247 Y131.28 Z-2.385 I0.095 J-0.03
X103.057 Y131.34 Z-2.396 I-0.095 J0.03
X103.247 Y131.28 Z-2.407 I0.095 J-0.03
X103.057 Y131.34 Z-2.418 I-0.095 J0.03
X103.247 Y131.28 Z-2.429 I0.095 J-0.03
X103.057 Y131.34 Z-2.44 I-0.095 J0.03
X103.247 Y131.28 Z-2.451 I0.095 J-0.03
X103.057 Y131.34 Z-2.462 I-0.095 J0.03
X103.247 Y131.28 Z-2.473 I0.095 J-0.03
X103.057 Y131.34 Z-2.484 I-0.095 J0.03
X103.247 Y131.28 Z-2.495 I0.095 J-0.03
X103.057 Y131.34 Z-2.506 I-0.095 J0.03
X103.247 Y131.28 Z-2.517 I0.095 J-0.03
X103.057 Y131.34 Z-2.528 I-0.095 J0.03
X103.247 Y131.28 Z-2.539 I0.095 J-0.03
X103.057 Y131.34 Z-2.55 I-0.095 J0.03
X103.247 Y131.28 Z-2.561 I0.095 J-0.03
X103.057 Y131.34 Z-2.572 I-0.095 J0.03
X103.247 Y131.28 Z-2.583 I0.095 J-0.03
X103.057 Y131.34 Z-2.594 I-0.095 J0.03
X103.247 Y131.28 Z-2.605 I0.095 J-0.03
X103.057 Y131.34 Z-2.616 I-0.095 J0.03
X103.247 Y131.28 Z-2.627 I0.095 J-0.03
X103.057 Y131.34 Z-2.638 I-0.095 J0.03
X103.247 Y131.28 Z-2.649 I0.095 J-0.03
X103.057 Y131.34 Z-2.66 I-0.095 J0.03
X103.247 Y131.28 Z-2.671 I0.095 J-0.03
X103.057 Y131.34 Z-2.681 I-0.095 J0.03
X103.247 Y131.28 Z-2.692 I0.095 J-0.03
X103.057 Y131.34 Z-2.703 I-0.095 J0.03
X103.247 Y131.28 Z-2.714 I0.095 J-0.03
X103.057 Y131.34 Z-2.725 I-0.095 J0.03
X103.247 Y131.28 Z-2.736 I0.095 J-0.03
X103.057 Y131.34 Z-2.747 I-0.095 J0.03
X103.247 Y131.28 Z-2.758 I0.095 J-0.03
X103.057 Y131.34 Z-2.769 I-0.095 J0.03
X103.247 Y131.28 Z-2.78 I0.095 J-0.03
X103.057 Y131.34 Z-2.791 I-0.095 J0.03
X103.247 Y131.28 Z-2.802 I0.095 J-0.03
X103.057 Y131.34 Z-2.813 I-0.095 J0.03
X103.247 Y131.28 Z-2.824 I0.095 J-0.03
X103.057 Y131.34 Z-2.835 I-0.095 J0.03
X103.247 Y131.28 Z-2.846 I0.095 J-0.03
X103.057 Y131.34 Z-2.857 I-0.095 J0.03
X103.247 Y131.28 Z-2.868 I0.095 J-0.03
X103.057 Y131.34 Z-2.879 I-0.095 J0.03
X103.247 Y131.28 Z-2.89 I0.095 J-0.03
X103.057 Y131.34 Z-2.901 I-0.095 J0.03
X103.247 Y131.28 Z-2.912 I0.095 J-0.03
X103.057 Y131.34 Z-2.923 I-0.095 J0.03
X103.247 Y131.28 Z-2.934 I0.095 J-0.03
X103.057 Y131.34 Z-2.945 I-0.095 J0.03
X103.247 Y131.28 Z-2.956 I0.095 J-0.03
X103.057 Y131.34 Z-2.967 I-0.095 J0.03
X103.247 Y131.28 Z-2.978 I0.095 J-0.03
X103.057 Y131.34 Z-2.989 I-0.095 J0.03
X103.247 Y131.28 Z-3. I0.095 J-0.03
X103.057 Y131.34 Z-3.011 I-0.095 J0.03
X103.247 Y131.28 Z-3.022 I0.095 J-0.03
X103.057 Y131.34 Z-3.033 I-0.095 J0.03
X103.247 Y131.28 Z-3.044 I0.095 J-0.03
X103.057 Y131.34 Z-3.055 I-0.095 J0.03
X103.247 Y131.28 Z-3.065 I0.095 J-0.03
X103.057 Y131.34 Z-3.076 I-0.095 J0.03
X103.247 Y131.28 Z-3.087 I0.095 J-0.03
X103.057 Y131.34 Z-3.098 I-0.095 J0.03
X103.247 Y131.28 Z-3.109 I0.095 J-0.03
X103.057 Y131.34 Z-3.12 I-0.095 J0.03
X103.247 Y131.28 Z-3.131 I0.095 J-0.03
X103.057 Y131.34 Z-3.142 I-0.095 J0.03
X103.247 Y131.28 Z-3.153 I0.095 J-0.03
X103.057 Y131.34 Z-3.164 I-0.095 J0.03
X103.247 Y131.28 Z-3.175 I0.095 J-0.03
X103.057 Y131.34 Z-3.186 I-0.095 J0.03
X103.247 Y131.28 Z-3.197 I0.095 J-0.03
X103.057 Y131.34 Z-3.208 I-0.095 J0.03
X103.247 Y131.28 Z-3.219 I0.095 J-0.03
X103.057 Y131.34 Z-3.23 I-0.095 J0.03
X103.247 Y131.28 Z-3.241 I0.095 J-0.03
X103.057 Y131.34 Z-3.252 I-0.095 J0.03
X103.247 Y131.28 Z-3.263 I0.095 J-0.03
X103.057 Y131.34 Z-3.274 I-0.095 J0.03
X103.247 Y131.28 Z-3.285 I0.095 J-0.03
X103.057 Y131.34 Z-3.296 I-0.095 J0.03
X103.247 Y131.28 Z-3.307 I0.095 J-0.03
X103.057 Y131.34 Z-3.318 I-0.095 J0.03
X103.247 Y131.28 Z-3.329 I0.095 J-0.03
X103.057 Y131.34 Z-3.34 I-0.095 J0.03
X103.247 Y131.28 Z-3.351 I0.095 J-0.03
X103.057 Y131.34 Z-3.362 I-0.095 J0.03
X103.247 Y131.28 Z-3.373 I0.095 J-0.03
X103.057 Y131.34 Z-3.384 I-0.095 J0.03
X103.247 Y131.28 Z-3.395 I0.095 J-0.03
X103.057 Y131.34 Z-3.406 I-0.095 J0.03
X103.247 Y131.28 Z-3.417 I0.095 J-0.03
X103.057 Y131.34 Z-3.428 I-0.095 J0.03
X103.247 Y131.28 Z-3.438 I0.095 J-0.03
X103.057 Y131.34 Z-3.449 I-0.095 J0.03
X103.247 Y131.28 Z-3.46 I0.095 J-0.03
X103.057 Y131.34 Z-3.471 I-0.095 J0.03
X103.247 Y131.28 Z-3.482 I0.095 J-0.03
X103.057 Y131.34 Z-3.493 I-0.095 J0.03
X103.247 Y131.28 Z-3.504 I0.095 J-0.03
X103.057 Y131.34 Z-3.515 I-0.095 J0.03
X103.247 Y131.28 Z-3.526 I0.095 J-0.03
X103.057 Y131.34 Z-3.537 I-0.095 J0.03
X103.247 Y131.28 Z-3.548 I0.095 J-0.03
X103.057 Y131.34 Z-3.559 I-0.095 J0.03
X103.247 Y131.28 Z-3.57 I0.095 J-0.03
X103.057 Y131.34 Z-3.581 I-0.095 J0.03
X103.247 Y131.28 Z-3.592 I0.095 J-0.03
X103.057 Y131.34 Z-3.603 I-0.095 J0.03
X103.247 Y131.28 Z-3.614 I0.095 J-0.03
X103.057 Y131.34 Z-3.625 I-0.095 J0.03
X103.247 Y131.28 Z-3.636 I0.095 J-0.03
X103.057 Y131.34 Z-3.647 I-0.095 J0.03
X103.247 Y131.28 Z-3.658 I0.095 J-0.03
X103.057 Y131.34 Z-3.669 I-0.095 J0.03
X103.247 Y131.28 Z-3.68 I0.095 J-0.03
X103.057 Y131.34 Z-3.691 I-0.095 J0.03
X103.247 Y131.28 Z-3.702 I0.095 J-0.03
X103.057 Y131.34 Z-3.713 I-0.095 J0.03
X103.247 Y131.28 Z-3.724 I0.095 J-0.03
X103.057 Y131.34 Z-3.735 I-0.095 J0.03
X103.247 Y131.28 Z-3.746 I0.095 J-0.03
X103.057 Y131.34 Z-3.757 I-0.095 J0.03
X103.247 Y131.28 Z-3.768 I0.095 J-0.03
X103.057 Y131.34 Z-3.779 I-0.095 J0.03
X103.247 Y131.28 Z-3.79 I0.095 J-0.03
X103.057 Y131.34 Z-3.801 I-0.095 J0.03
X103.247 Y131.28 Z-3.811 I0.095 J-0.03
X103.057 Y131.34 Z-3.822 I-0.095 J0.03
X103.247 Y131.28 Z-3.833 I0.095 J-0.03
X103.057 Y131.34 Z-3.844 I-0.095 J0.03
X103.247 Y131.28 Z-3.855 I0.095 J-0.03
X103.057 Y131.34 Z-3.866 I-0.095 J0.03
X103.247 Y131.28 Z-3.877 I0.095 J-0.03
X103.057 Y131.34 Z-3.888 I-0.095 J0.03
X103.247 Y131.28 Z-3.899 I0.095 J-0.03
X103.057 Y131.34 Z-3.91 I-0.095 J0.03
X103.247 Y131.28 Z-3.921 I0.095 J-0.03
X103.057 Y131.34 Z-3.932 I-0.095 J0.03
X103.247 Y131.28 Z-3.943 I0.095 J-0.03
X103.057 Y131.34 Z-3.954 I-0.095 J0.03
X103.247 Y131.28 Z-3.965 I0.095 J-0.03
X103.057 Y131.34 Z-3.976 I-0.095 J0.03
X103.247 Y131.28 Z-3.987 I0.095 J-0.03
X103.057 Y131.34 Z-3.998 I-0.095 J0.03
X103.247 Y131.28 Z-4.009 I0.095 J-0.03
X103.057 Y131.34 Z-4.02 I-0.095 J0.03
X103.247 Y131.28 Z-4.031 I0.095 J-0.03
X103.057 Y131.34 Z-4.042 I-0.095 J0.03
X103.247 Y131.28 Z-4.053 I0.095 J-0.03
X103.057 Y131.34 Z-4.064 I-0.095 J0.03
X103.247 Y131.28 Z-4.075 I0.095 J-0.03
X103.057 Y131.34 Z-4.086 I-0.095 J0.03
X103.247 Y131.28 Z-4.097 I0.095 J-0.03
X103.057 Y131.34 Z-4.108 I-0.095 J0.03
X103.247 Y131.28 Z-4.119 I0.095 J-0.03
X103.057 Y131.34 Z-4.13 I-0.095 J0.03
X103.247 Y131.28 Z-4.141 I0.095 J-0.03
X103.057 Y131.34 Z-4.152 I-0.095 J0.03
X103.247 Y131.28 Z-4.163 I0.095 J-0.03
X103.057 Y131.34 Z-4.174 I-0.095 J0.03
X103.247 Y131.28 Z-4.184 I0.095 J-0.03
X103.057 Y131.34 Z-4.195 I-0.095 J0.03
X103.247 Y131.28 Z-4.206 I0.095 J-0.03
X103.057 Y131.34 Z-4.217 I-0.095 J0.03
X103.247 Y131.28 Z-4.228 I0.095 J-0.03
X103.057 Y131.34 Z-4.239 I-0.095 J0.03
X103.247 Y131.28 Z-4.25 I0.095 J-0.03
X103.057 Y131.34 Z-4.261 I-0.095 J0.03
X103.247 Y131.28 Z-4.272 I0.095 J-0.03
X103.057 Y131.34 Z-4.283 I-0.095 J0.03
X103.247 Y131.28 Z-4.294 I0.095 J-0.03
X103.057 Y131.34 Z-4.305 I-0.095 J0.03
X103.247 Y131.28 Z-4.316 I0.095 J-0.03
X103.057 Y131.34 Z-4.327 I-0.095 J0.03
X103.247 Y131.28 Z-4.338 I0.095 J-0.03
X103.057 Y131.34 Z-4.349 I-0.095 J0.03
X103.247 Y131.28 Z-4.36 I0.095 J-0.03
X103.057 Y131.34 Z-4.371 I-0.095 J0.03
X103.247 Y131.28 Z-4.382 I0.095 J-0.03
X103.057 Y131.34 Z-4.393 I-0.095 J0.03
X103.247 Y131.28 Z-4.404 I0.095 J-0.03
X103.057 Y131.34 Z-4.415 I-0.095 J0.03
X103.247 Y131.28 Z-4.426 I0.095 J-0.03
X103.057 Y131.34 Z-4.437 I-0.095 J0.03
X103.247 Y131.28 Z-4.448 I0.095 J-0.03
X103.057 Y131.34 Z-4.459 I-0.095 J0.03
X103.247 Y131.28 Z-4.47 I0.095 J-0.03
X103.057 Y131.34 Z-4.481 I-0.095 J0.03
X103.247 Y131.28 Z-4.492 I0.095 J-0.03
X103.057 Y131.34 Z-4.503 I-0.095 J0.03
X103.247 Y131.28 Z-4.514 I0.095 J-0.03
X103.057 Y131.34 Z-4.525 I-0.095 J0.03
X103.247 Y131.28 Z-4.536 I0.095 J-0.03
X103.057 Y131.34 Z-4.547 I-0.095 J0.03
X103.247 Y131.28 Z-4.557 I0.095 J-0.03
X103.057 Y131.34 Z-4.568 I-0.095 J0.03
X103.247 Y131.28 Z-4.579 I0.095 J-0.03
X103.057 Y131.34 Z-4.59 I-0.095 J0.03
X103.247 Y131.28 Z-4.601 I0.095 J-0.03
X103.057 Y131.34 Z-4.612 I-0.095 J0.03
X103.247 Y131.28 Z-4.623 I0.095 J-0.03
X103.057 Y131.34 Z-4.634 I-0.095 J0.03
X103.247 Y131.28 Z-4.645 I0.095 J-0.03
X103.057 Y131.34 Z-4.656 I-0.095 J0.03
X103.247 Y131.28 Z-4.667 I0.095 J-0.03
X103.057 Y131.34 Z-4.678 I-0.095 J0.03
X103.247 Y131.28 Z-4.689 I0.095 J-0.03
X103.057 Y131.34 Z-4.7 I-0.095 J0.03
X103.247 Y131.28 Z-4.711 I0.095 J-0.03
X103.057 Y131.34 Z-4.722 I-0.095 J0.03
X103.247 Y131.28 Z-4.733 I0.095 J-0.03
X103.057 Y131.34 Z-4.744 I-0.095 J0.03
X103.247 Y131.28 Z-4.755 I0.095 J-0.03
X103.057 Y131.34 Z-4.766 I-0.095 J0.03
X103.247 Y131.28 Z-4.777 I0.095 J-0.03
X103.057 Y131.34 Z-4.788 I-0.095 J0.03
X103.247 Y131.28 Z-4.799 I0.095 J-0.03
X103.057 Y131.34 Z-4.81 I-0.095 J0.03
X103.247 Y131.28 Z-4.821 I0.095 J-0.03
X103.057 Y131.34 Z-4.832 I-0.095 J0.03
X103.247 Y131.28 Z-4.843 I0.095 J-0.03
X103.057 Y131.34 Z-4.854 I-0.095 J0.03
X103.247 Y131.28 Z-4.865 I0.095 J-0.03
X103.057 Y131.34 Z-4.876 I-0.095 J0.03
X103.247 Y131.28 Z-4.887 I0.095 J-0.03
X103.057 Y131.34 Z-4.898 I-0.095 J0.03
X103.247 Y131.28 Z-4.909 I0.095 J-0.03
X103.057 Y131.34 Z-4.92 I-0.095 J0.03
X103.247 Y131.28 Z-4.93 I0.095 J-0.03
X103.057 Y131.34 Z-4.941 I-0.095 J0.03
X103.247 Y131.28 Z-4.952 I0.095 J-0.03
X103.057 Y131.34 Z-4.963 I-0.095 J0.03
X103.247 Y131.28 Z-4.974 I0.095 J-0.03
X103.057 Y131.34 Z-4.985 I-0.095 J0.03
X103.247 Y131.28 Z-4.996 I0.095 J-0.03
X103.057 Y131.34 Z-5.007 I-0.095 J0.03
X103.247 Y131.28 Z-5.018 I0.095 J-0.03
X103.057 Y131.34 Z-5.029 I-0.095 J0.03
X103.247 Y131.28 Z-5.04 I0.095 J-0.03
X103.057 Y131.34 Z-5.051 I-0.095 J0.03
X103.247 Y131.28 Z-5.062 I0.095 J-0.03
X103.057 Y131.34 Z-5.073 I-0.095 J0.03
X103.247 Y131.28 Z-5.084 I0.095 J-0.03
X103.057 Y131.34 Z-5.095 I-0.095 J0.03
X103.247 Y131.28 Z-5.106 I0.095 J-0.03
X103.057 Y131.34 Z-5.117 I-0.095 J0.03
X103.247 Y131.28 Z-5.128 I0.095 J-0.03
X103.057 Y131.34 Z-5.139 I-0.095 J0.03
X103.247 Y131.28 Z-5.15 I0.095 J-0.03
X103.057 Y131.34 Z-5.161 I-0.095 J0.03
X103.247 Y131.28 Z-5.172 I0.095 J-0.03
X103.057 Y131.34 Z-5.183 I-0.095 J0.03
X103.247 Y131.28 Z-5.194 I0.095 J-0.03
X103.057 Y131.34 Z-5.205 I-0.095 J0.03
X103.247 Y131.28 Z-5.216 I0.095 J-0.03
X103.057 Y131.34 Z-5.227 I-0.095 J0.03
X103.247 Y131.28 Z-5.238 I0.095 J-0.03
X103.057 Y131.34 Z-5.249 I-0.095 J0.03
X103.247 Y131.28 Z-5.26 I0.095 J-0.03
X103.057 Y131.34 Z-5.271 I-0.095 J0.03
X103.247 Y131.28 Z-5.282 I0.095 J-0.03
X103.057 Y131.34 Z-5.293 I-0.095 J0.03
X103.247 Y131.28 Z-5.303 I0.095 J-0.03
X103.057 Y131.34 Z-5.314 I-0.095 J0.03
X103.247 Y131.28 Z-5.325 I0.095 J-0.03
X103.057 Y131.34 Z-5.336 I-0.095 J0.03
X103.247 Y131.28 Z-5.347 I0.095 J-0.03
X103.057 Y131.34 Z-5.358 I-0.095 J0.03
X103.247 Y131.28 Z-5.369 I0.095 J-0.03
X103.057 Y131.34 Z-5.38 I-0.095 J0.03
X103.247 Y131.28 Z-5.391 I0.095 J-0.03
X103.057 Y131.34 Z-5.402 I-0.095 J0.03
X103.247 Y131.28 Z-5.413 I0.095 J-0.03
X103.057 Y131.34 Z-5.424 I-0.095 J0.03
X103.247 Y131.28 Z-5.435 I0.095 J-0.03
X103.057 Y131.34 Z-5.446 I-0.095 J0.03
X103.247 Y131.28 Z-5.457 I0.095 J-0.03
X103.057 Y131.34 Z-5.468 I-0.095 J0.03
X103.247 Y131.28 Z-5.479 I0.095 J-0.03
X103.057 Y131.34 Z-5.49 I-0.095 J0.03
X103.247 Y131.28 Z-5.501 I0.095 J-0.03
X103.057 Y131.34 Z-5.512 I-0.095 J0.03
X103.247 Y131.28 Z-5.523 I0.095 J-0.03
X103.057 Y131.34 Z-5.534 I-0.095 J0.03
X103.247 Y131.28 Z-5.545 I0.095 J-0.03
X103.057 Y131.34 Z-5.556 I-0.095 J0.03
X103.247 Y131.28 Z-5.567 I0.095 J-0.03
X103.057 Y131.34 Z-5.578 I-0.095 J0.03
X103.247 Y131.28 Z-5.589 I0.095 J-0.03
X103.057 Y131.34 Z-5.6 I-0.095 J0.03
X103.247 Y131.28 Z-5.611 I0.095 J-0.03
X103.057 Y131.34 Z-5.622 I-0.095 J0.03
X103.247 Y131.28 Z-5.633 I0.095 J-0.03
X103.057 Y131.34 Z-5.644 I-0.095 J0.03
X103.247 Y131.28 Z-5.655 I0.095 J-0.03
X103.057 Y131.34 Z-5.666 I-0.095 J0.03
X103.247 Y131.28 Z-5.676 I0.095 J-0.03
X103.057 Y131.34 Z-5.687 I-0.095 J0.03
X103.247 Y131.28 Z-5.698 I0.095 J-0.03
X103.057 Y131.34 Z-5.709 I-0.095 J0.03
X103.247 Y131.28 Z-5.72 I0.095 J-0.03
X103.057 Y131.34 Z-5.731 I-0.095 J0.03
X103.247 Y131.28 Z-5.742 I0.095 J-0.03
X103.057 Y131.34 Z-5.753 I-0.095 J0.03
X103.247 Y131.28 Z-5.764 I0.095 J-0.03
X103.057 Y131.34 Z-5.775 I-0.095 J0.03
X103.247 Y131.28 Z-5.786 I0.095 J-0.03
X103.057 Y131.34 Z-5.797 I-0.095 J0.03
X103.247 Y131.28 Z-5.808 I0.095 J-0.03
X103.057 Y131.34 Z-5.819 I-0.095 J0.03
X103.247 Y131.28 Z-5.83 I0.095 J-0.03
X103.057 Y131.34 Z-5.841 I-0.095 J0.03
X103.247 Y131.28 Z-5.852 I0.095 J-0.03
X103.057 Y131.34 Z-5.863 I-0.095 J0.03
X103.247 Y131.28 Z-5.874 I0.095 J-0.03
X103.057 Y131.34 Z-5.885 I-0.095 J0.03
X103.247 Y131.28 Z-5.896 I0.095 J-0.03
X103.057 Y131.34 Z-5.907 I-0.095 J0.03
X103.247 Y131.28 Z-5.918 I0.095 J-0.03
X103.057 Y131.34 Z-5.929 I-0.095 J0.03
X103.247 Y131.28 Z-5.94 I0.095 J-0.03
X103.057 Y131.34 Z-5.951 I-0.095 J0.03
X103.247 Y131.28 Z-5.962 I0.095 J-0.03
X103.057 Y131.34 Z-5.973 I-0.095 J0.03
X103.247 Y131.28 Z-5.984 I0.095 J-0.03
X103.057 Y131.34 Z-5.995 I-0.095 J0.03
X103.247 Y131.28 Z-6.006 I0.095 J-0.03
X103.057 Y131.34 Z-6.017 I-0.095 J0.03
X103.247 Y131.28 Z-6.028 I0.095 J-0.03
X103.057 Y131.34 Z-6.039 I-0.095 J0.03
X103.247 Y131.28 Z-6.049 I0.095 J-0.03
X103.057 Y131.34 Z-6.06 I-0.095 J0.03
X103.247 Y131.28 Z-6.071 I0.095 J-0.03
X103.057 Y131.34 Z-6.082 I-0.095 J0.03
X103.247 Y131.28 Z-6.093 I0.095 J-0.03
X103.057 Y131.34 Z-6.104 I-0.095 J0.03
X103.247 Y131.28 Z-6.115 I0.095 J-0.03
X103.057 Y131.34 Z-6.126 I-0.095 J0.03
X103.247 Y131.28 Z-6.137 I0.095 J-0.03
X103.057 Y131.34 Z-6.148 I-0.095 J0.03
X103.247 Y131.28 Z-6.159 I0.095 J-0.03
X103.057 Y131.34 Z-6.17 I-0.095 J0.03
X103.247 Y131.28 Z-6.181 I0.095 J-0.03
X103.057 Y131.34 Z-6.192 I-0.095 J0.03
X103.247 Y131.28 Z-6.203 I0.095 J-0.03
X103.057 Y131.34 Z-6.214 I-0.095 J0.03
X103.247 Y131.28 Z-6.225 I0.095 J-0.03
X103.057 Y131.34 Z-6.236 I-0.095 J0.03
X103.247 Y131.28 Z-6.247 I0.095 J-0.03
X103.057 Y131.34 Z-6.258 I-0.095 J0.03
X103.247 Y131.28 Z-6.269 I0.095 J-0.03
X103.057 Y131.34 Z-6.28 I-0.095 J0.03
X103.247 Y131.28 Z-6.291 I0.095 J-0.03
X103.057 Y131.34 Z-6.302 I-0.095 J0.03
X103.247 Y131.28 Z-6.313 I0.095 J-0.03
X103.057 Y131.34 Z-6.324 I-0.095 J0.03
X103.247 Y131.28 Z-6.335 I0.095 J-0.03
X103.057 Y131.34 Z-6.346 I-0.095 J0.03
X103.247 Y131.28 Z-6.357 I0.095 J-0.03
X103.057 Y131.34 Z-6.368 I-0.095 J0.03
X103.247 Y131.28 Z-6.379 I0.095 J-0.03
X103.057 Y131.34 Z-6.39 I-0.095 J0.03
X103.247 Y131.28 Z-6.401 I0.095 J-0.03
X103.057 Y131.34 Z-6.412 I-0.095 J0.03
X103.247 Y131.28 Z-6.423 I0.095 J-0.03
X103.057 Y131.34 Z-6.433 I-0.095 J0.03
X103.247 Y131.28 Z-6.444 I0.095 J-0.03
X103.057 Y131.34 Z-6.455 I-0.095 J0.03
X103.247 Y131.28 Z-6.466 I0.095 J-0.03
X103.057 Y131.34 Z-6.477 I-0.095 J0.03
X103.247 Y131.28 Z-6.488 I0.095 J-0.03
X103.057 Y131.34 Z-6.499 I-0.095 J0.03
X103.247 Y131.28 Z-6.51 I0.095 J-0.03
X103.057 Y131.34 Z-6.521 I-0.095 J0.03
X103.247 Y131.28 Z-6.532 I0.095 J-0.03
X103.057 Y131.34 Z-6.543 I-0.095 J0.03
X103.247 Y131.28 Z-6.554 I0.095 J-0.03
X103.057 Y131.34 Z-6.565 I-0.095 J0.03
X103.247 Y131.28 Z-6.576 I0.095 J-0.03
X103.057 Y131.34 Z-6.587 I-0.095 J0.03
X103.247 Y131.28 Z-6.598 I0.095 J-0.03
X103.057 Y131.34 Z-6.609 I-0.095 J0.03
X103.247 Y131.28 Z-6.62 I0.095 J-0.03
X103.057 Y131.34 Z-6.631 I-0.095 J0.03
X103.247 Y131.28 Z-6.642 I0.095 J-0.03
X103.057 Y131.34 Z-6.653 I-0.095 J0.03
X103.247 Y131.28 Z-6.664 I0.095 J-0.03
X103.057 Y131.34 Z-6.675 I-0.095 J0.03
X103.247 Y131.28 Z-6.686 I0.095 J-0.03
X103.057 Y131.34 Z-6.697 I-0.095 J0.03
X103.247 Y131.28 Z-6.708 I0.095 J-0.03
X103.057 Y131.34 Z-6.719 I-0.095 J0.03
X103.247 Y131.28 Z-6.73 I0.095 J-0.03
X103.057 Y131.34 Z-6.741 I-0.095 J0.03
X103.247 Y131.28 Z-6.752 I0.095 J-0.03
X103.057 Y131.34 Z-6.763 I-0.095 J0.03
X103.247 Y131.28 Z-6.774 I0.095 J-0.03
X103.057 Y131.34 Z-6.785 I-0.095 J0.03
X103.247 Y131.28 Z-6.796 I0.095 J-0.03
X103.057 Y131.34 Z-6.806 I-0.095 J0.03
X103.247 Y131.28 Z-6.817 I0.095 J-0.03
X103.057 Y131.34 Z-6.828 I-0.095 J0.03
X103.247 Y131.28 Z-6.839 I0.095 J-0.03
X103.057 Y131.34 Z-6.85 I-0.095 J0.03
X103.247 Y131.28 Z-6.861 I0.095 J-0.03
X103.057 Y131.34 Z-6.872 I-0.095 J0.03
X103.247 Y131.28 Z-6.883 I0.095 J-0.03
X103.057 Y131.34 Z-6.894 I-0.095 J0.03
X103.247 Y131.28 Z-6.905 I0.095 J-0.03
X103.057 Y131.34 Z-6.916 I-0.095 J0.03
X103.247 Y131.28 Z-6.927 I0.095 J-0.03
X103.057 Y131.34 Z-6.938 I-0.095 J0.03
X103.247 Y131.28 Z-6.949 I0.095 J-0.03
X103.057 Y131.34 Z-6.96 I-0.095 J0.03
X103.247 Y131.28 Z-6.971 I0.095 J-0.03
X103.057 Y131.34 Z-6.982 I-0.095 J0.03
X103.247 Y131.28 Z-6.993 I0.095 J-0.03
X103.057 Y131.34 Z-7.004 I-0.095 J0.03
X103.247 Y131.28 Z-7.015 I0.095 J-0.03
X103.057 Y131.34 Z-7.026 I-0.095 J0.03
X103.247 Y131.28 Z-7.037 I0.095 J-0.03
X103.057 Y131.34 Z-7.048 I-0.095 J0.03
X103.247 Y131.28 Z-7.059 I0.095 J-0.03
X103.057 Y131.34 Z-7.07 I-0.095 J0.03
X103.247 Y131.28 Z-7.081 I0.095 J-0.03
X103.057 Y131.34 Z-7.092 I-0.095 J0.03
X103.247 Y131.28 Z-7.103 I0.095 J-0.03
X103.057 Y131.34 Z-7.114 I-0.095 J0.03
X103.247 Y131.28 Z-7.125 I0.095 J-0.03
X103.057 Y131.34 Z-7.136 I-0.095 J0.03
X103.247 Y131.28 Z-7.147 I0.095 J-0.03
X103.057 Y131.34 Z-7.158 I-0.095 J0.03
X103.247 Y131.28 Z-7.169 I0.095 J-0.03
X103.057 Y131.34 Z-7.179 I-0.095 J0.03
X103.247 Y131.28 Z-7.19 I0.095 J-0.03
X103.057 Y131.34 Z-7.201 I-0.095 J0.03
X103.247 Y131.28 Z-7.212 I0.095 J-0.03
X103.057 Y131.34 Z-7.223 I-0.095 J0.03
X103.247 Y131.28 Z-7.234 I0.095 J-0.03
X103.057 Y131.34 Z-7.245 I-0.095 J0.03
X103.247 Y131.28 Z-7.256 I0.095 J-0.03
X103.057 Y131.34 Z-7.267 I-0.095 J0.03
X103.247 Y131.28 Z-7.278 I0.095 J-0.03
X103.057 Y131.34 Z-7.289 I-0.095 J0.03
X103.247 Y131.28 Z-7.3 I0.095 J-0.03
X103.057 Y131.34 Z-7.311 I-0.095 J0.03
X103.247 Y131.28 Z-7.322 I0.095 J-0.03
X103.057 Y131.34 Z-7.333 I-0.095 J0.03
X103.247 Y131.28 Z-7.344 I0.095 J-0.03
X103.057 Y131.34 Z-7.355 I-0.095 J0.03
X103.247 Y131.28 Z-7.366 I0.095 J-0.03
X103.057 Y131.34 Z-7.377 I-0.095 J0.03
X103.247 Y131.28 Z-7.388 I0.095 J-0.03
X103.057 Y131.34 Z-7.399 I-0.095 J0.03
X103.247 Y131.28 Z-7.41 I0.095 J-0.03
X103.057 Y131.34 Z-7.421 I-0.095 J0.03
X103.247 Y131.28 Z-7.432 I0.095 J-0.03
X103.057 Y131.34 Z-7.443 I-0.095 J0.03
X103.247 Y131.28 Z-7.454 I0.095 J-0.03
X103.057 Y131.34 Z-7.465 I-0.095 J0.03
X103.247 Y131.28 Z-7.476 I0.095 J-0.03
X103.057 Y131.34 Z-7.487 I-0.095 J0.03
X103.247 Y131.28 Z-7.498 I0.095 J-0.03
X103.057 Y131.34 Z-7.509 I-0.095 J0.03
X103.247 Y131.28 Z-7.52 I0.095 J-0.03
X103.057 Y131.34 Z-7.531 I-0.095 J0.03
X103.247 Y131.28 Z-7.542 I0.095 J-0.03
X103.057 Y131.34 Z-7.552 I-0.095 J0.03
X103.247 Y131.28 Z-7.563 I0.095 J-0.03
X103.057 Y131.34 Z-7.574 I-0.095 J0.03
X103.247 Y131.28 Z-7.585 I0.095 J-0.03
X103.057 Y131.34 Z-7.596 I-0.095 J0.03
X103.247 Y131.28 Z-7.607 I0.095 J-0.03
X103.057 Y131.34 Z-7.618 I-0.095 J0.03
X103.247 Y131.28 Z-7.629 I0.095 J-0.03
X103.057 Y131.34 Z-7.64 I-0.095 J0.03
X103.247 Y131.28 Z-7.651 I0.095 J-0.03
X103.057 Y131.34 Z-7.662 I-0.095 J0.03
X103.247 Y131.28 Z-7.673 I0.095 J-0.03
X103.057 Y131.34 Z-7.684 I-0.095 J0.03
X103.247 Y131.28 Z-7.695 I0.095 J-0.03
X103.057 Y131.34 Z-7.706 I-0.095 J0.03
X103.247 Y131.28 Z-7.717 I0.095 J-0.03
X103.057 Y131.34 Z-7.728 I-0.095 J0.03
X103.247 Y131.28 Z-7.739 I0.095 J-0.03
X103.057 Y131.34 Z-7.75 I-0.095 J0.03
X103.247 Y131.28 Z-7.761 I0.095 J-0.03
X103.057 Y131.34 Z-7.772 I-0.095 J0.03
X103.247 Y131.28 Z-7.783 I0.095 J-0.03
X103.057 Y131.34 Z-7.794 I-0.095 J0.03
X103.247 Y131.28 Z-7.805 I0.095 J-0.03
X103.057 Y131.34 Z-7.816 I-0.095 J0.03
X103.247 Y131.28 Z-7.827 I0.095 J-0.03
X103.057 Y131.34 Z-7.838 I-0.095 J0.03
X103.247 Y131.28 Z-7.849 I0.095 J-0.03
X103.057 Y131.34 Z-7.86 I-0.095 J0.03
X103.247 Y131.28 Z-7.871 I0.095 J-0.03
X103.057 Y131.34 Z-7.882 I-0.095 J0.03
X103.247 Y131.28 Z-7.893 I0.095 J-0.03
X103.057 Y131.34 Z-7.904 I-0.095 J0.03
X103.247 Y131.28 Z-7.915 I0.095 J-0.03
X103.057 Y131.34 Z-7.925 I-0.095 J0.03
X103.247 Y131.28 Z-7.936 I0.095 J-0.03
X103.057 Y131.34 Z-7.947 I-0.095 J0.03
X103.247 Y131.28 Z-7.958 I0.095 J-0.03
X103.057 Y131.34 Z-7.969 I-0.095 J0.03
X103.247 Y131.28 Z-7.98 I0.095 J-0.03
X103.057 Y131.34 Z-7.991 I-0.095 J0.03
X103.247 Y131.28 Z-8.002 I0.095 J-0.03
X103.057 Y131.34 Z-8.013 I-0.095 J0.03
X103.247 Y131.28 Z-8.024 I0.095 J-0.03
X103.057 Y131.34 Z-8.035 I-0.095 J0.03
X103.247 Y131.28 Z-8.046 I0.095 J-0.03
X103.057 Y131.34 Z-8.057 I-0.095 J0.03
X103.247 Y131.28 Z-8.068 I0.095 J-0.03
X103.057 Y131.34 Z-8.079 I-0.095 J0.03
X103.247 Y131.28 Z-8.09 I0.095 J-0.03
X103.057 Y131.34 Z-8.101 I-0.095 J0.03
X103.247 Y131.28 Z-8.112 I0.095 J-0.03
X103.057 Y131.34 Z-8.123 I-0.095 J0.03
X103.247 Y131.28 Z-8.134 I0.095 J-0.03
X103.057 Y131.34 Z-8.145 I-0.095 J0.03
X103.247 Y131.28 Z-8.156 I0.095 J-0.03
X103.057 Y131.34 Z-8.167 I-0.095 J0.03
X103.247 Y131.28 Z-8.178 I0.095 J-0.03
X103.057 Y131.34 Z-8.189 I-0.095 J0.03
X103.247 Y131.28 Z-8.2 I0.095 J-0.03
X103.057 Y131.34 Z-8.211 I-0.095 J0.03
X103.247 Y131.28 Z-8.222 I0.095 J-0.03
X103.057 Y131.34 Z-8.233 I-0.095 J0.03
X103.247 Y131.28 Z-8.244 I0.095 J-0.03
X103.057 Y131.34 Z-8.255 I-0.095 J0.03
X103.247 Y131.28 Z-8.266 I0.095 J-0.03
X103.057 Y131.34 Z-8.277 I-0.095 J0.03
X103.247 Y131.28 Z-8.288 I0.095 J-0.03
X103.057 Y131.34 Z-8.298 I-0.095 J0.03
X103.247 Y131.28 Z-8.309 I0.095 J-0.03
X103.057 Y131.34 Z-8.32 I-0.095 J0.03
X103.247 Y131.28 Z-8.331 I0.095 J-0.03
X103.057 Y131.34 Z-8.342 I-0.095 J0.03
X103.247 Y131.28 Z-8.353 I0.095 J-0.03
X103.057 Y131.34 Z-8.364 I-0.095 J0.03
X103.247 Y131.28 Z-8.375 I0.095 J-0.03
X103.057 Y131.34 Z-8.386 I-0.095 J0.03
X103.247 Y131.28 Z-8.397 I0.095 J-0.03
X103.057 Y131.34 Z-8.408 I-0.095 J0.03
X103.247 Y131.28 Z-8.419 I0.095 J-0.03
X103.057 Y131.34 Z-8.43 I-0.095 J0.03
X103.247 Y131.28 Z-8.441 I0.095 J-0.03
X103.057 Y131.34 Z-8.452 I-0.095 J0.03
X103.247 Y131.28 Z-8.463 I0.095 J-0.03
X103.057 Y131.34 Z-8.474 I-0.095 J0.03
X103.247 Y131.28 Z-8.485 I0.095 J-0.03
X103.057 Y131.34 Z-8.496 I-0.095 J0.03
X103.247 Y131.28 Z-8.507 I0.095 J-0.03
X103.057 Y131.34 Z-8.518 I-0.095 J0.03
X103.247 Y131.28 Z-8.529 I0.095 J-0.03
X103.057 Y131.34 Z-8.54 I-0.095 J0.03
X103.247 Y131.28 Z-8.551 I0.095 J-0.03
X103.057 Y131.34 Z-8.562 I-0.095 J0.03
X103.247 Y131.28 Z-8.573 I0.095 J-0.03
X103.057 Y131.34 Z-8.584 I-0.095 J0.03
X103.247 Y131.28 Z-8.595 I0.095 J-0.03
X103.057 Y131.34 Z-8.606 I-0.095 J0.03
X103.247 Y131.28 Z-8.617 I0.095 J-0.03
X103.057 Y131.34 Z-8.628 I-0.095 J0.03
X103.247 Y131.28 Z-8.639 I0.095 J-0.03
X103.057 Y131.34 Z-8.65 I-0.095 J0.03
X103.247 Y131.28 Z-8.661 I0.095 J-0.03
X103.057 Y131.34 Z-8.671 I-0.095 J0.03
X103.247 Y131.28 Z-8.682 I0.095 J-0.03
X103.057 Y131.34 Z-8.693 I-0.095 J0.03
X103.247 Y131.28 Z-8.704 I0.095 J-0.03
X103.057 Y131.34 Z-8.715 I-0.095 J0.03
X103.247 Y131.28 Z-8.726 I0.095 J-0.03
X103.057 Y131.34 Z-8.737 I-0.095 J0.03
X103.247 Y131.28 Z-8.748 I0.095 J-0.03
X103.057 Y131.34 Z-8.759 I-0.095 J0.03
X103.247 Y131.28 Z-8.77 I0.095 J-0.03
X103.057 Y131.34 Z-8.781 I-0.095 J0.03
X103.247 Y131.28 Z-8.792 I0.095 J-0.03
X103.057 Y131.34 Z-8.803 I-0.095 J0.03
X103.247 Y131.28 Z-8.814 I0.095 J-0.03
X103.057 Y131.34 Z-8.825 I-0.095 J0.03
X103.247 Y131.28 Z-8.836 I0.095 J-0.03
X103.057 Y131.34 Z-8.847 I-0.095 J0.03
X103.247 Y131.28 Z-8.858 I0.095 J-0.03
X103.057 Y131.34 Z-8.869 I-0.095 J0.03
X103.247 Y131.28 Z-8.88 I0.095 J-0.03
X103.057 Y131.34 Z-8.891 I-0.095 J0.03
X103.247 Y131.28 Z-8.902 I0.095 J-0.03
X103.057 Y131.34 Z-8.913 I-0.095 J0.03
X103.247 Y131.28 Z-8.924 I0.095 J-0.03
X103.057 Y131.34 Z-8.935 I-0.095 J0.03
X103.247 Y131.28 Z-8.946 I0.095 J-0.03
X103.057 Y131.34 Z-8.957 I-0.095 J0.03
X103.247 Y131.28 Z-8.968 I0.095 J-0.03
X103.057 Y131.34 Z-8.979 I-0.095 J0.03
X103.247 Y131.28 Z-8.99 I0.095 J-0.03
X103.057 Y131.34 Z-9.001 I-0.095 J0.03
X103.247 Y131.28 Z-9.012 I0.095 J-0.03
X103.057 Y131.34 Z-9.023 I-0.095 J0.03
X103.247 Y131.28 Z-9.034 I0.095 J-0.03
X103.057 Y131.34 Z-9.044 I-0.095 J0.03
X103.247 Y131.28 Z-9.055 I0.095 J-0.03
X103.057 Y131.34 Z-9.066 I-0.095 J0.03
X103.247 Y131.28 Z-9.077 I0.095 J-0.03
X103.057 Y131.34 Z-9.088 I-0.095 J0.03
X103.247 Y131.28 Z-9.099 I0.095 J-0.03
X103.057 Y131.34 Z-9.11 I-0.095 J0.03
X103.247 Y131.28 Z-9.121 I0.095 J-0.03
X103.057 Y131.34 Z-9.132 I-0.095 J0.03
X103.247 Y131.28 Z-9.143 I0.095 J-0.03
X103.057 Y131.34 Z-9.154 I-0.095 J0.03
X103.247 Y131.28 Z-9.165 I0.095 J-0.03
X103.057 Y131.34 Z-9.176 I-0.095 J0.03
X103.247 Y131.28 Z-9.187 I0.095 J-0.03
X103.057 Y131.34 Z-9.198 I-0.095 J0.03
X103.247 Y131.28 Z-9.209 I0.095 J-0.03
X103.057 Y131.34 Z-9.22 I-0.095 J0.03
X103.247 Y131.28 Z-9.231 I0.095 J-0.03
X103.057 Y131.34 Z-9.242 I-0.095 J0.03
X103.247 Y131.28 Z-9.253 I0.095 J-0.03
X103.057 Y131.34 Z-9.264 I-0.095 J0.03
X103.247 Y131.28 Z-9.275 I0.095 J-0.03
X103.057 Y131.34 Z-9.286 I-0.095 J0.03
X103.247 Y131.28 Z-9.297 I0.095 J-0.03
X103.057 Y131.34 Z-9.308 I-0.095 J0.03
X103.247 Y131.28 Z-9.319 I0.095 J-0.03
X103.057 Y131.34 Z-9.33 I-0.095 J0.03
X103.247 Y131.28 Z-9.341 I0.095 J-0.03
X103.057 Y131.34 Z-9.352 I-0.095 J0.03
X103.247 Y131.28 Z-9.363 I0.095 J-0.03
X103.057 Y131.34 Z-9.374 I-0.095 J0.03
X103.247 Y131.28 Z-9.385 I0.095 J-0.03
X103.057 Y131.34 Z-9.396 I-0.095 J0.03
X103.247 Y131.28 Z-9.407 I0.095 J-0.03
X103.057 Y131.34 Z-9.417 I-0.095 J0.03
X103.247 Y131.28 Z-9.428 I0.095 J-0.03
X103.057 Y131.34 Z-9.439 I-0.095 J0.03
X103.247 Y131.28 Z-9.45 I0.095 J-0.03
X103.057 Y131.34 Z-9.461 I-0.095 J0.03
X103.247 Y131.28 Z-9.472 I0.095 J-0.03
X103.057 Y131.34 Z-9.483 I-0.095 J0.03
X103.247 Y131.28 Z-9.494 I0.095 J-0.03
X103.057 Y131.34 Z-9.505 I-0.095 J0.03
X103.247 Y131.28 Z-9.516 I0.095 J-0.03
X103.057 Y131.34 Z-9.527 I-0.095 J0.03
X103.247 Y131.28 Z-9.538 I0.095 J-0.03
X103.057 Y131.34 Z-9.549 I-0.095 J0.03
X103.247 Y131.28 Z-9.56 I0.095 J-0.03
X103.057 Y131.34 Z-9.571 I-0.095 J0.03
X103.247 Y131.28 Z-9.582 I0.095 J-0.03
X103.057 Y131.34 Z-9.593 I-0.095 J0.03
X103.247 Y131.28 Z-9.604 I0.095 J-0.03
X103.057 Y131.34 Z-9.615 I-0.095 J0.03
X103.247 Y131.28 Z-9.626 I0.095 J-0.03
X103.057 Y131.34 Z-9.637 I-0.095 J0.03
X103.247 Y131.28 Z-9.648 I0.095 J-0.03
X103.057 Y131.34 Z-9.659 I-0.095 J0.03
X103.247 Y131.28 Z-9.67 I0.095 J-0.03
X103.057 Y131.34 Z-9.681 I-0.095 J0.03
X103.247 Y131.28 Z-9.692 I0.095 J-0.03
X103.057 Y131.34 Z-9.703 I-0.095 J0.03
X103.247 Y131.28 Z-9.714 I0.095 J-0.03
X103.057 Y131.34 Z-9.725 I-0.095 J0.03
X103.247 Y131.28 Z-9.736 I0.095 J-0.03
X103.057 Y131.34 Z-9.747 I-0.095 J0.03
X103.247 Y131.28 Z-9.758 I0.095 J-0.03
X103.057 Y131.34 Z-9.769 I-0.095 J0.03
X103.247 Y131.28 Z-9.78 I0.095 J-0.03
X103.057 Y131.34 Z-9.791 I-0.095 J0.03
X103.247 Y131.28 Z-9.801 I0.095 J-0.03
X103.057 Y131.34 Z-9.812 I-0.095 J0.03
X103.247 Y131.28 Z-9.823 I0.095 J-0.03
X103.057 Y131.34 Z-9.834 I-0.095 J0.03
X103.247 Y131.28 Z-9.845 I0.095 J-0.03
X103.057 Y131.34 Z-9.856 I-0.095 J0.03
X103.247 Y131.28 Z-9.867 I0.095 J-0.03
X103.057 Y131.34 Z-9.878 I-0.095 J0.03
X103.247 Y131.28 Z-9.889 I0.095 J-0.03
X103.057 Y131.34 Z-9.9 I-0.095 J0.03
X103.247 Y131.28 Z-9.911 I0.095 J-0.03
X103.057 Y131.34 Z-9.922 I-0.095 J0.03
X103.247 Y131.28 Z-9.933 I0.095 J-0.03
X103.057 Y131.34 Z-9.944 I-0.095 J0.03
X103.247 Y131.28 Z-9.955 I0.095 J-0.03
X103.057 Y131.34 Z-9.966 I-0.095 J0.03
X103.247 Y131.28 Z-9.977 I0.095 J-0.03
X103.057 Y131.34 Z-9.988 I-0.095 J0.03
X103.137 Y131.211 Z-9.994 I0.095 J-0.03
X103.252 Y131.31 Z-10. I0.015 J0.099
X103.052 I-0.1 J0. F600.
X103.252 I0.1 J0.
G1 Z1. F720.
G0 X57.247 Y64.82
G1 Z0.5 F30.
G3 X57.252 Y64.85 Z0.499 I-0.095 J0.03 F720.
X57.052 Z0.488 I-0.1 J0.
X57.252 Z0.477 I0.1 J0.
X57.052 Z0.466 I-0.1 J0.
X57.252 Z0.455 I0.1 J0.
X57.052 Z0.444 I-0.1 J0.
X57.252 Z0.433 I0.1 J0.
X57.052 Z0.422 I-0.1 J0.
X57.252 Z0.411 I0.1 J0.
X57.052 Z0.4 I-0.1 J0.
X57.252 Z0.389 I0.1 J0.
X57.052 Z0.378 I-0.1 J0.
X57.252 Z0.367 I0.1 J0.
X57.052 Z0.356 I-0.1 J0.
X57.252 Z0.345 I0.1 J0.
X57.052 Z0.334 I-0.1 J0.
X57.252 Z0.323 I0.1 J0.
X57.052 Z0.312 I-0.1 J0.
X57.252 Z0.301 I0.1 J0.
X57.052 Z0.291 I-0.1 J0.
X57.252 Z0.28 I0.1 J0.
X57.052 Z0.269 I-0.1 J0.
X57.252 Z0.258 I0.1 J0.
X57.052 Z0.247 I-0.1 J0.
X57.252 Z0.236 I0.1 J0.
X57.052 Z0.225 I-0.1 J0.
X57.252 Z0.214 I0.1 J0.
X57.052 Z0.203 I-0.1 J0.
X57.252 Z0.192 I0.1 J0.
X57.052 Z0.181 I-0.1 J0.
X57.252 Z0.17 I0.1 J0.
X57.052 Z0.159 I-0.1 J0.
X57.252 Z0.148 I0.1 J0.
X57.052 Z0.137 I-0.1 J0.
X57.252 Z0.126 I0.1 J0.
X57.052 Z0.115 I-0.1 J0.
X57.252 Z0.104 I0.1 J0.
X57.052 Z0.093 I-0.1 J0.
X57.252 Z0.082 I0.1 J0.
X57.052 Z0.071 I-0.1 J0.
X57.252 Z0.06 I0.1 J0.
X57.052 Z0.049 I-0.1 J0.
X57.252 Z0.038 I0.1 J0.
X57.052 Z0.027 I-0.1 J0.
X57.252 Z0.016 I0.1 J0.
X57.052 Z0.005 I-0.1 J0.
X57.252 Z-0.006 I0.1 J0.
X57.052 Z-0.017 I-0.1 J0.
X57.252 Z-0.028 I0.1 J0.
X57.052 Z-0.039 I-0.1 J0.
X57.252 Z-0.05 I0.1 J0.
X57.052 Z-0.061 I-0.1 J0.
X57.252 Z-0.072 I0.1 J0.
X57.052 Z-0.083 I-0.1 J0.
X57.252 Z-0.093 I0.1 J0.
X57.052 Z-0.104 I-0.1 J0.
X57.252 Z-0.115 I0.1 J0.
X57.052 Z-0.126 I-0.1 J0.
X57.252 Z-0.137 I0.1 J0.
X57.052 Z-0.148 I-0.1 J0.
X57.252 Z-0.159 I0.1 J0.
X57.052 Z-0.17 I-0.1 J0.
X57.252 Z-0.181 I0.1 J0.
X57.052 Z-0.192 I-0.1 J0.
X57.252 Z-0.203 I0.1 J0.
X57.052 Z-0.214 I-0.1 J0.
X57.252 Z-0.225 I0.1 J0.
X57.052 Z-0.236 I-0.1 J0.
X57.252 Z-0.247 I0.1 J0.
X57.052 Z-0.258 I-0.1 J0.
X57.252 Z-0.269 I0.1 J0.
X57.052 Z-0.28 I-0.1 J0.
X57.252 Z-0.291 I0.1 J0.
X57.052 Z-0.302 I-0.1 J0.
X57.252 Z-0.313 I0.1 J0.
X57.052 Z-0.324 I-0.1 J0.
X57.252 Z-0.335 I0.1 J0.
X57.052 Z-0.346 I-0.1 J0.
X57.252 Z-0.357 I0.1 J0.
X57.052 Z-0.368 I-0.1 J0.
X57.252 Z-0.379 I0.1 J0.
X57.052 Z-0.39 I-0.1 J0.
X57.252 Z-0.401 I0.1 J0.
X57.052 Z-0.412 I-0.1 J0.
X57.252 Z-0.423 I0.1 J0.
X57.052 Z-0.434 I-0.1 J0.
X57.252 Z-0.445 I0.1 J0.
X57.052 Z-0.456 I-0.1 J0.
X57.252 Z-0.466 I0.1 J0.
X57.052 Z-0.477 I-0.1 J0.
X57.252 Z-0.488 I0.1 J0.
X57.052 Z-0.499 I-0.1 J0.
X57.252 Z-0.51 I0.1 J0.
X57.052 Z-0.521 I-0.1 J0.
X57.252 Z-0.532 I0.1 J0.
X57.052 Z-0.543 I-0.1 J0.
X57.252 Z-0.554 I0.1 J0.
X57.052 Z-0.565 I-0.1 J0.
X57.252 Z-0.576 I0.1 J0.
X57.052 Z-0.587 I-0.1 J0.
X57.252 Z-0.598 I0.1 J0.
X57.052 Z-0.609 I-0.1 J0.
X57.252 Z-0.62 I0.1 J0.
X57.052 Z-0.631 I-0.1 J0.
X57.252 Z-0.642 I0.1 J0.
X57.052 Z-0.653 I-0.1 J0.
X57.252 Z-0.664 I0.1 J0.
X57.052 Z-0.675 I-0.1 J0.
X57.252 Z-0.686 I0.1 J0.
X57.052 Z-0.697 I-0.1 J0.
X57.252 Z-0.708 I0.1 J0.
X57.052 Z-0.719 I-0.1 J0.
X57.252 Z-0.73 I0.1 J0.
X57.052 Z-0.741 I-0.1 J0.
X57.252 Z-0.752 I0.1 J0.
X57.052 Z-0.763 I-0.1 J0.
X57.252 Z-0.774 I0.1 J0.
X57.052 Z-0.785 I-0.1 J0.
X57.252 Z-0.796 I0.1 J0.
X57.052 Z-0.807 I-0.1 J0.
X57.252 Z-0.818 I0.1 J0.
X57.052 Z-0.829 I-0.1 J0.
X57.252 Z-0.839 I0.1 J0.
X57.052 Z-0.85 I-0.1 J0.
X57.252 Z-0.861 I0.1 J0.
X57.052 Z-0.872 I-0.1 J0.
X57.252 Z-0.883 I0.1 J0.
X57.052 Z-0.894 I-0.1 J0.
X57.252 Z-0.905 I0.1 J0.
X57.052 Z-0.916 I-0.1 J0.
X57.252 Z-0.927 I0.1 J0.
X57.052 Z-0.938 I-0.1 J0.
X57.252 Z-0.949 I0.1 J0.
X57.052 Z-0.96 I-0.1 J0.
X57.252 Z-0.971 I0.1 J0.
X57.052 Z-0.982 I-0.1 J0.
X57.252 Z-0.993 I0.1 J0.
X57.052 Z-1.004 I-0.1 J0.
X57.252 Z-1.015 I0.1 J0.
X57.052 Z-1.026 I-0.1 J0.
X57.252 Z-1.037 I0.1 J0.
X57.052 Z-1.048 I-0.1 J0.
X57.252 Z-1.059 I0.1 J0.
X57.052 Z-1.07 I-0.1 J0.
X57.252 Z-1.081 I0.1 J0.
X57.052 Z-1.092 I-0.1 J0.
X57.252 Z-1.103 I0.1 J0.
X57.052 Z-1.114 I-0.1 J0.
X57.252 Z-1.125 I0.1 J0.
X57.052 Z-1.136 I-0.1 J0.
X57.252 Z-1.147 I0.1 J0.
X57.052 Z-1.158 I-0.1 J0.
X57.252 Z-1.169 I0.1 J0.
X57.052 Z-1.18 I-0.1 J0.
X57.252 Z-1.191 I0.1 J0.
X57.052 Z-1.202 I-0.1 J0.
X57.252 Z-1.212 I0.1 J0.
X57.052 Z-1.223 I-0.1 J0.
X57.252 Z-1.234 I0.1 J0.
X57.052 Z-1.245 I-0.1 J0.
X57.252 Z-1.256 I0.1 J0.
X57.052 Z-1.267 I-0.1 J0.
X57.252 Z-1.278 I0.1 J0.
X57.052 Z-1.289 I-0.1 J0.
X57.252 Z-1.3 I0.1 J0.
X57.052 Z-1.311 I-0.1 J0.
X57.252 Z-1.322 I0.1 J0.
X57.052 Z-1.333 I-0.1 J0.
X57.252 Z-1.344 I0.1 J0.
X57.052 Z-1.355 I-0.1 J0.
X57.252 Z-1.366 I0.1 J0.
X57.052 Z-1.377 I-0.1 J0.
X57.252 Z-1.388 I0.1 J0.
X57.052 Z-1.399 I-0.1 J0.
X57.252 Z-1.41 I0.1 J0.
X57.052 Z-1.421 I-0.1 J0.
X57.252 Z-1.432 I0.1 J0.
X57.052 Z-1.443 I-0.1 J0.
X57.252 Z-1.454 I0.1 J0.
X57.052 Z-1.465 I-0.1 J0.
X57.252 Z-1.476 I0.1 J0.
X57.052 Z-1.487 I-0.1 J0.
X57.252 Z-1.498 I0.1 J0.
X57.052 Z-1.509 I-0.1 J0.
X57.252 Z-1.52 I0.1 J0.
X57.052 Z-1.531 I-0.1 J0.
X57.252 Z-1.542 I0.1 J0.
X57.052 Z-1.553 I-0.1 J0.
X57.252 Z-1.564 I0.1 J0.
X57.052 Z-1.575 I-0.1 J0.
X57.252 Z-1.585 I0.1 J0.
X57.052 Z-1.596 I-0.1 J0.
X57.252 Z-1.607 I0.1 J0.
X57.052 Z-1.618 I-0.1 J0.
X57.252 Z-1.629 I0.1 J0.
X57.052 Z-1.64 I-0.1 J0.
X57.252 Z-1.651 I0.1 J0.
X57.052 Z-1.662 I-0.1 J0.
X57.252 Z-1.673 I0.1 J0.
X57.052 Z-1.684 I-0.1 J0.
X57.252 Z-1.695 I0.1 J0.
X57.052 Z-1.706 I-0.1 J0.
X57.252 Z-1.717 I0.1 J0.
X57.052 Z-1.728 I-0.1 J0.
X57.252 Z-1.739 I0.1 J0.
X57.052 Z-1.75 I-0.1 J0.
X57.252 Z-1.761 I0.1 J0.
X57.052 Z-1.772 I-0.1 J0.
X57.252 Z-1.783 I0.1 J0.
X57.052 Z-1.794 I-0.1 J0.
X57.252 Z-1.805 I0.1 J0.
X57.052 Z-1.816 I-0.1 J0.
X57.252 Z-1.827 I0.1 J0.
X57.052 Z-1.838 I-0.1 J0.
X57.252 Z-1.849 I0.1 J0.
X57.052 Z-1.86 I-0.1 J0.
X57.252 Z-1.871 I0.1 J0.
X57.052 Z-1.882 I-0.1 J0.
X57.252 Z-1.893 I0.1 J0.
X57.052 Z-1.904 I-0.1 J0.
X57.252 Z-1.915 I0.1 J0.
X57.052 Z-1.926 I-0.1 J0.
X57.252 Z-1.937 I0.1 J0.
X57.052 Z-1.948 I-0.1 J0.
X57.252 Z-1.958 I0.1 J0.
X57.052 Z-1.969 I-0.1 J0.
X57.252 Z-1.98 I0.1 J0.
X57.052 Z-1.991 I-0.1 J0.
X57.252 Z-2.002 I0.1 J0.
X57.052 Z-2.013 I-0.1 J0.
X57.252 Z-2.024 I0.1 J0.
X57.052 Z-2.035 I-0.1 J0.
X57.252 Z-2.046 I0.1 J0.
X57.052 Z-2.057 I-0.1 J0.
X57.252 Z-2.068 I0.1 J0.
X57.052 Z-2.079 I-0.1 J0.
X57.252 Z-2.09 I0.1 J0.
X57.052 Z-2.101 I-0.1 J0.
X57.252 Z-2.112 I0.1 J0.
X57.052 Z-2.123 I-0.1 J0.
X57.252 Z-2.134 I0.1 J0.
X57.052 Z-2.145 I-0.1 J0.
X57.252 Z-2.156 I0.1 J0.
X57.052 Z-2.167 I-0.1 J0.
X57.252 Z-2.178 I0.1 J0.
X57.052 Z-2.189 I-0.1 J0.
X57.252 Z-2.2 I0.1 J0.
X57.052 Z-2.211 I-0.1 J0.
X57.252 Z-2.222 I0.1 J0.
X57.052 Z-2.233 I-0.1 J0.
X57.252 Z-2.244 I0.1 J0.
X57.052 Z-2.255 I-0.1 J0.
X57.252 Z-2.266 I0.1 J0.
X57.052 Z-2.277 I-0.1 J0.
X57.252 Z-2.288 I0.1 J0.
X57.052 Z-2.299 I-0.1 J0.
X57.252 Z-2.31 I0.1 J0.
X57.052 Z-2.321 I-0.1 J0.
X57.252 Z-2.331 I0.1 J0.
X57.052 Z-2.342 I-0.1 J0.
X57.252 Z-2.353 I0.1 J0.
X57.052 Z-2.364 I-0.1 J0.
X57.252 Z-2.375 I0.1 J0.
X57.052 Z-2.386 I-0.1 J0.
X57.252 Z-2.397 I0.1 J0.
X57.052 Z-2.408 I-0.1 J0.
X57.252 Z-2.419 I0.1 J0.
X57.052 Z-2.43 I-0.1 J0.
X57.252 Z-2.441 I0.1 J0.
X57.052 Z-2.452 I-0.1 J0.
X57.252 Z-2.463 I0.1 J0.
X57.052 Z-2.474 I-0.1 J0.
X57.252 Z-2.485 I0.1 J0.
X57.052 Z-2.496 I-0.1 J0.
X57.252 Z-2.507 I0.1 J0.
X57.052 Z-2.518 I-0.1 J0.
X57.252 Z-2.529 I0.1 J0.
X57.052 Z-2.54 I-0.1 J0.
X57.252 Z-2.551 I0.1 J0.
X57.052 Z-2.562 I-0.1 J0.
X57.252 Z-2.573 I0.1 J0.
X57.052 Z-2.584 I-0.1 J0.
X57.252 Z-2.595 I0.1 J0.
X57.052 Z-2.606 I-0.1 J0.
X57.252 Z-2.617 I0.1 J0.
X57.052 Z-2.628 I-0.1 J0.
X57.252 Z-2.639 I0.1 J0.
X57.052 Z-2.65 I-0.1 J0.
X57.252 Z-2.661 I0.1 J0.
X57.052 Z-2.672 I-0.1 J0.
X57.252 Z-2.683 I0.1 J0.
X57.052 Z-2.694 I-0.1 J0.
X57.252 Z-2.704 I0.1 J0.
X57.052 Z-2.715 I-0.1 J0.
X57.252 Z-2.726 I0.1 J0.
X57.052 Z-2.737 I-0.1 J0.
X57.252 Z-2.748 I0.1 J0.
X57.052 Z-2.759 I-0.1 J0.
X57.252 Z-2.77 I0.1 J0.
X57.052 Z-2.781 I-0.1 J0.
X57.252 Z-2.792 I0.1 J0.
X57.052 Z-2.803 I-0.1 J0.
X57.252 Z-2.814 I0.1 J0.
X57.052 Z-2.825 I-0.1 J0.
X57.252 Z-2.836 I0.1 J0.
X57.052 Z-2.847 I-0.1 J0.
X57.252 Z-2.858 I0.1 J0.
X57.052 Z-2.869 I-0.1 J0.
X57.252 Z-2.88 I0.1 J0.
X57.052 Z-2.891 I-0.1 J0.
X57.252 Z-2.902 I0.1 J0.
X57.052 Z-2.913 I-0.1 J0.
X57.252 Z-2.924 I0.1 J0.
X57.052 Z-2.935 I-0.1 J0.
X57.252 Z-2.946 I0.1 J0.
X57.052 Z-2.957 I-0.1 J0.
X57.252 Z-2.968 I0.1 J0.
X57.052 Z-2.979 I-0.1 J0.
X57.252 Z-2.99 I0.1 J0.
X57.052 Z-3.001 I-0.1 J0.
X57.252 Z-3.012 I0.1 J0.
X57.052 Z-3.023 I-0.1 J0.
X57.252 Z-3.034 I0.1 J0.
X57.052 Z-3.045 I-0.1 J0.
X57.252 Z-3.056 I0.1 J0.
X57.052 Z-3.067 I-0.1 J0.
X57.252 Z-3.077 I0.1 J0.
X57.052 Z-3.088 I-0.1 J0.
X57.252 Z-3.099 I0.1 J0.
X57.052 Z-3.11 I-0.1 J0.
X57.252 Z-3.121 I0.1 J0.
X57.052 Z-3.132 I-0.1 J0.
X57.252 Z-3.143 I0.1 J0.
X57.052 Z-3.154 I-0.1 J0.
X57.252 Z-3.165 I0.1 J0.
X57.052 Z-3.176 I-0.1 J0.
X57.252 Z-3.187 I0.1 J0.
X57.052 Z-3.198 I-0.1 J0.
X57.252 Z-3.209 I0.1 J0.
X57.052 Z-3.22 I-0.1 J0.
X57.252 Z-3.231 I0.1 J0.
X57.052 Z-3.242 I-0.1 J0.
X57.252 Z-3.253 I0.1 J0.
X57.052 Z-3.264 I-0.1 J0.
X57.252 Z-3.275 I0.1 J0.
X57.052 Z-3.286 I-0.1 J0.
X57.252 Z-3.297 I0.1 J0.
X57.052 Z-3.308 I-0.1 J0.
X57.252 Z-3.319 I0.1 J0.
X57.052 Z-3.33 I-0.1 J0.
X57.252 Z-3.341 I0.1 J0.
X57.052 Z-3.352 I-0.1 J0.
X57.252 Z-3.363 I0.1 J0.
X57.052 Z-3.374 I-0.1 J0.
X57.252 Z-3.385 I0.1 J0.
X57.052 Z-3.396 I-0.1 J0.
X57.252 Z-3.407 I0.1 J0.
X57.052 Z-3.418 I-0.1 J0.
X57.252 Z-3.429 I0.1 J0.
X57.052 Z-3.44 I-0.1 J0.
X57.252 Z-3.451 I0.1 J0.
X57.052 Z-3.461 I-0.1 J0.
X57.252 Z-3.472 I0.1 J0.
X57.052 Z-3.483 I-0.1 J0.
X57.252 Z-3.494 I0.1 J0.
X57.052 Z-3.505 I-0.1 J0.
X57.252 Z-3.516 I0.1 J0.
X57.052 Z-3.527 I-0.1 J0.
X57.252 Z-3.538 I0.1 J0.
X57.052 Z-3.549 I-0.1 J0.
X57.252 Z-3.56 I0.1 J0.
X57.052 Z-3.571 I-0.1 J0.
X57.252 Z-3.582 I0.1 J0.
X57.052 Z-3.593 I-0.1 J0.
X57.252 Z-3.604 I0.1 J0.
X57.052 Z-3.615 I-0.1 J0.
X57.252 Z-3.626 I0.1 J0.
X57.052 Z-3.637 I-0.1 J0.
X57.252 Z-3.648 I0.1 J0.
X57.052 Z-3.659 I-0.1 J0.
X57.252 Z-3.67 I0.1 J0.
X57.052 Z-3.681 I-0.1 J0.
X57.252 Z-3.692 I0.1 J0.
X57.052 Z-3.703 I-0.1 J0.
X57.252 Z-3.714 I0.1 J0.
X57.052 Z-3.725 I-0.1 J0.
X57.252 Z-3.736 I0.1 J0.
X57.052 Z-3.747 I-0.1 J0.
X57.252 Z-3.758 I0.1 J0.
X57.052 Z-3.769 I-0.1 J0.
X57.252 Z-3.78 I0.1 J0.
X57.052 Z-3.791 I-0.1 J0.
X57.252 Z-3.802 I0.1 J0.
X57.052 Z-3.813 I-0.1 J0.
X57.252 Z-3.824 I0.1 J0.
X57.052 Z-3.834 I-0.1 J0.
X57.252 Z-3.845 I0.1 J0.
X57.052 Z-3.856 I-0.1 J0.
X57.252 Z-3.867 I0.1 J0.
X57.052 Z-3.878 I-0.1 J0.
X57.252 Z-3.889 I0.1 J0.
X57.052 Z-3.9 I-0.1 J0.
X57.252 Z-3.911 I0.1 J0.
X57.052 Z-3.922 I-0.1 J0.
X57.252 Z-3.933 I0.1 J0.
X57.052 Z-3.944 I-0.1 J0.
X57.252 Z-3.955 I0.1 J0.
X57.052 Z-3.966 I-0.1 J0.
X57.252 Z-3.977 I0.1 J0.
X57.052 Z-3.988 I-0.1 J0.
X57.252 Z-3.999 I0.1 J0.
X57.052 Z-4.01 I-0.1 J0.
X57.252 Z-4.021 I0.1 J0.
X57.052 Z-4.032 I-0.1 J0.
X57.252 Z-4.043 I0.1 J0.
X57.052 Z-4.054 I-0.1 J0.
X57.252 Z-4.065 I0.1 J0.
X57.052 Z-4.076 I-0.1 J0.
X57.252 Z-4.087 I0.1 J0.
X57.052 Z-4.098 I-0.1 J0.
X57.252 Z-4.109 I0.1 J0.
X57.052 Z-4.12 I-0.1 J0.
X57.252 Z-4.131 I0.1 J0.
X57.052 Z-4.142 I-0.1 J0.
X57.252 Z-4.153 I0.1 J0.
X57.052 Z-4.164 I-0.1 J0.
X57.252 Z-4.175 I0.1 J0.
X57.052 Z-4.186 I-0.1 J0.
X57.252 Z-4.197 I0.1 J0.
X57.052 Z-4.207 I-0.1 J0.
X57.252 Z-4.218 I0.1 J0.
X57.052 Z-4.229 I-0.1 J0.
X57.252 Z-4.24 I0.1 J0.
X57.052 Z-4.251 I-0.1 J0.
X57.252 Z-4.262 I0.1 J0.
X57.052 Z-4.273 I-0.1 J0.
X57.252 Z-4.284 I0.1 J0.
X57.052 Z-4.295 I-0.1 J0.
X57.252 Z-4.306 I0.1 J0.
X57.052 Z-4.317 I-0.1 J0.
X57.252 Z-4.328 I0.1 J0.
X57.052 Z-4.339 I-0.1 J0.
X57.252 Z-4.35 I0.1 J0.
X57.052 Z-4.361 I-0.1 J0.
X57.252 Z-4.372 I0.1 J0.
X57.052 Z-4.383 I-0.1 J0.
X57.252 Z-4.394 I0.1 J0.
X57.052 Z-4.405 I-0.1 J0.
X57.252 Z-4.416 I0.1 J0.
X57.052 Z-4.427 I-0.1 J0.
X57.252 Z-4.438 I0.1 J0.
X57.052 Z-4.449 I-0.1 J0.
X57.252 Z-4.46 I0.1 J0.
X57.052 Z-4.471 I-0.1 J0.
X57.252 Z-4.482 I0.1 J0.
X57.052 Z-4.493 I-0.1 J0.
X57.252 Z-4.504 I0.1 J0.
X57.052 Z-4.515 I-0.1 J0.
X57.252 Z-4.526 I0.1 J0.
X57.052 Z-4.537 I-0.1 J0.
X57.252 Z-4.548 I0.1 J0.
X57.052 Z-4.559 I-0.1 J0.
X57.252 Z-4.57 I0.1 J0.
X57.052 Z-4.58 I-0.1 J0.
X57.252 Z-4.591 I0.1 J0.
X57.052 Z-4.602 I-0.1 J0.
X57.252 Z-4.613 I0.1 J0.
X57.052 Z-4.624 I-0.1 J0.
X57.252 Z-4.635 I0.1 J0.
X57.052 Z-4.646 I-0.1 J0.
X57.252 Z-4.657 I0.1 J0.
X57.052 Z-4.668 I-0.1 J0.
X57.252 Z-4.679 I0.1 J0.
X57.052 Z-4.69 I-0.1 J0.
X57.252 Z-4.701 I0.1 J0.
X57.052 Z-4.712 I-0.1 J0.
X57.252 Z-4.723 I0.1 J0.
X57.052 Z-4.734 I-0.1 J0.
X57.252 Z-4.745 I0.1 J0.
X57.052 Z-4.756 I-0.1 J0.
X57.252 Z-4.767 I0.1 J0.
X57.052 Z-4.778 I-0.1 J0.
X57.252 Z-4.789 I0.1 J0.
X57.052 Z-4.8 I-0.1 J0.
X57.252 Z-4.811 I0.1 J0.
X57.052 Z-4.822 I-0.1 J0.
X57.252 Z-4.833 I0.1 J0.
X57.052 Z-4.844 I-0.1 J0.
X57.252 Z-4.855 I0.1 J0.
X57.052 Z-4.866 I-0.1 J0.
X57.252 Z-4.877 I0.1 J0.
X57.052 Z-4.888 I-0.1 J0.
X57.252 Z-4.899 I0.1 J0.
X57.052 Z-4.91 I-0.1 J0.
X57.252 Z-4.921 I0.1 J0.
X57.052 Z-4.932 I-0.1 J0.
X57.252 Z-4.943 I0.1 J0.
X57.052 Z-4.953 I-0.1 J0.
X57.252 Z-4.964 I0.1 J0.
X57.052 Z-4.975 I-0.1 J0.
X57.252 Z-4.986 I0.1 J0.
X57.052 Z-4.997 I-0.1 J0.
X57.252 Z-5.008 I0.1 J0.
