(1001)
(T2  D=2. CR=0. - ZMIN=-1. - FLAT END MILL)
G90 G94 G91.1 G40 G49 G17
G21

(2D 2)
M5
M9
T2 M6
S10000 M3
G54
M8
G0 X50.749 Y146.25
G43 Z1.5 H2
Z1.
G1 Z0.1 F30.
G3 Y148.75 Z0.075 I0. J1.25 F900.
Y146.25 Z0.05 I0. J-1.25
Y148.75 Z0.025 I0. J1.25
Y146.25 Z0. I0. J-1.25
Y148.75 Z-0.025 I0. J1.25
Y146.25 Z-0.05 I0. J-1.25
Y148.75 Z-0.075 I0. J1.25
Y146.25 Z-0.1 I0. J-1.25
Y148.75 Z-0.125 I0. J1.25
Y146.25 Z-0.15 I0. J-1.25
Y148.75 Z-0.175 I0. J1.25
Y146.25 Z-0.2 I0. J-1.25
Y148.75 Z-0.225 I0. J1.25
Y146.25 Z-0.25 I0. J-1.25
Y148.75 Z-0.275 I0. J1.25
Y146.25 Z-0.3 I0. J-1.25
Y148.75 Z-0.325 I0. J1.25
Y146.25 Z-0.35 I0. J-1.25
Y148.75 Z-0.375 I0. J1.25
Y146.25 Z-0.4 I0. J-1.25
Y148.75 Z-0.425 I0. J1.25
Y146.25 Z-0.45 I0. J-1.25
Y148.75 Z-0.475 I0. J1.25
Y146.25 Z-0.5 I0. J-1.25
Y148.75 Z-0.525 I0. J1.25
Y146.25 Z-0.55 I0. J-1.25
Y148.75 Z-0.575 I0. J1.25
Y146.25 Z-0.6 I0. J-1.25
Y148.75 Z-0.625 I0. J1.25
Y146.25 Z-0.65 I0. J-1.25
Y148.75 Z-0.675 I0. J1.25
Y146.25 Z-0.7 I0. J-1.25
Y148.75 Z-0.725 I0. J1.25
Y146.25 Z-0.75 I0. J-1.25
Y148.75 Z-0.775 I0. J1.25
Y146.25 Z-0.8 I0. J-1.25
Y148.75 Z-0.825 I0. J1.25
Y146.25 Z-0.85 I0. J-1.25
Y148.75 Z-0.875 I0. J1.25
Y146.25 Z-0.9 I0. J-1.25
Y148.75 Z-0.925 I0. J1.25
Y146.25 Z-0.95 I0. J-1.25
Y148.75 Z-0.975 I0. J1.25
Y146.25 Z-1. I0. J-1.25
Y148.75 I0. J1.25 F600.
Y146.25 I0. J-1.25
G1 Z1. F900.
G0 Y128.25
G1 Z0.1 F30.
G3 Y125.75 Z0.075 I0. J-1.25 F900.
Y128.25 Z0.05 I0. J1.25
Y125.75 Z0.025 I0. J-1.25
Y128.25 Z0. I0. J1.25
Y125.75 Z-0.025 I0. J-1.25
Y128.25 Z-0.05 I0. J1.25
Y125.75 Z-0.075 I0. J-1.25
Y128.25 Z-0.1 I0. J1.25
Y125.75 Z-0.125 I0. J-1.25
Y128.25 Z-0.15 I0. J1.25
Y125.75 Z-0.175 I0. J-1.25
Y128.25 Z-0.2 I0. J1.25
Y125.75 Z-0.225 I0. J-1.25
Y128.25 Z-0.25 I0. J1.25
Y125.75 Z-0.275 I0. J-1.25
Y128.25 Z-0.3 I0. J1.25
Y125.75 Z-0.325 I0. J-1.25
Y128.25 Z-0.35 I0. J1.25
Y125.75 Z-0.375 I0. J-1.25
Y128.25 Z-0.4 I0. J1.25
Y125.75 Z-0.425 I0. J-1.25
Y128.25 Z-0.45 I0. J1.25
Y125.75 Z-0.475 I0. J-1.25
Y128.25 Z-0.5 I0. J1.25
Y125.75 Z-0.525 I0. J-1.25
Y128.25 Z-0.55 I0. J1.25
Y125.75 Z-0.575 I0. J-1.25
Y128.25 Z-0.6 I0. J1.25
Y125.75 Z-0.625 I0. J-1.25
Y128.25 Z-0.65 I0. J1.25
Y125.75 Z-0.675 I0. J-1.25
Y128.25 Z-0.7 I0. J1.25
Y125.75 Z-0.725 I0. J-1.25
Y128.25 Z-0.75 I0. J1.25
Y125.75 Z-0.775 I0. J-1.25
Y128.25 Z-0.8 I0. J1.25
Y125.75 Z-0.825 I0. J-1.25
Y128.25 Z-0.85 I0. J1.25
Y125.75 Z-0.875 I0. J-1.25
Y128.25 Z-0.9 I0. J1.25
Y125.75 Z-0.925 I0. J-1.25
Y128.25 Z-0.95 I0. J1.25
Y125.75 Z-0.975 I0. J-1.25
Y128.25 Z-1. I0. J1.25
Y125.75 I0. J-1.25 F600.
Y128.25 I0. J1.25
G1 Z1. F900.
G0 X51.999 Y106.5
G1 Z0.1 F30.
G3 X49.499 Z0.075 I-1.25 J0. F900.
X51.999 Z0.05 I1.25 J0.
X49.499 Z0.025 I-1.25 J0.
X51.999 Z0. I1.25 J0.
X49.499 Z-0.025 I-1.25 J0.
X51.999 Z-0.05 I1.25 J0.
X49.499 Z-0.075 I-1.25 J0.
X51.999 Z-0.1 I1.25 J0.
X49.499 Z-0.125 I-1.25 J0.
X51.999 Z-0.15 I1.25 J0.
X49.499 Z-0.175 I-1.25 J0.
X51.999 Z-0.2 I1.25 J0.
X49.499 Z-0.225 I-1.25 J0.
X51.999 Z-0.25 I1.25 J0.
X49.499 Z-0.275 I-1.25 J0.
X51.999 Z-0.3 I1.25 J0.
X49.499 Z-0.325 I-1.25 J0.
X51.999 Z-0.35 I1.25 J0.
X49.499 Z-0.375 I-1.25 J0.
X51.999 Z-0.4 I1.25 J0.
X49.499 Z-0.425 I-1.25 J0.
X51.999 Z-0.45 I1.25 J0.
X49.499 Z-0.475 I-1.25 J0.
X51.999 Z-0.5 I1.25 J0.
X49.499 Z-0.525 I-1.25 J0.
X51.999 Z-0.55 I1.25 J0.
X49.499 Z-0.575 I-1.25 J0.
X51.999 Z-0.6 I1.25 J0.
X49.499 Z-0.625 I-1.25 J0.
X51.999 Z-0.65 I1.25 J0.
X49.499 Z-0.675 I-1.25 J0.
X51.999 Z-0.7 I1.25 J0.
X49.499 Z-0.725 I-1.25 J0.
X51.999 Z-0.75 I1.25 J0.
X49.499 Z-0.775 I-1.25 J0.
X51.999 Z-0.8 I1.25 J0.
X49.499 Z-0.825 I-1.25 J0.
X51.999 Z-0.85 I1.25 J0.
X49.499 Z-0.875 I-1.25 J0.
X51.999 Z-0.9 I1.25 J0.
X49.499 Z-0.925 I-1.25 J0.
X51.999 Z-0.95 I1.25 J0.
X49.499 Z-0.975 I-1.25 J0.
X51.999 Z-1. I1.25 J0.
X49.499 I-1.25 J0. F600.
X51.999 I1.25 J0.
G1 Z1. F900.
G0 X50.749 Y87.25
G1 Z0.1 F30.
G3 Y84.75 Z0.075 I0. J-1.25 F900.
Y87.25 Z0.05 I0. J1.25
Y84.75 Z0.025 I0. J-1.25
Y87.25 Z0. I0. J1.25
Y84.75 Z-0.025 I0. J-1.25
Y87.25 Z-0.05 I0. J1.25
Y84.75 Z-0.075 I0. J-1.25
Y87.25 Z-0.1 I0. J1.25
Y84.75 Z-0.125 I0. J-1.25
Y87.25 Z-0.15 I0. J1.25
Y84.75 Z-0.175 I0. J-1.25
Y87.25 Z-0.2 I0. J1.25
Y84.75 Z-0.225 I0. J-1.25
Y87.25 Z-0.25 I0. J1.25
Y84.75 Z-0.275 I0. J-1.25
Y87.25 Z-0.3 I0. J1.25
Y84.75 Z-0.325 I0. J-1.25
Y87.25 Z-0.35 I0. J1.25
Y84.75 Z-0.375 I0. J-1.25
Y87.25 Z-0.4 I0. J1.25
Y84.75 Z-0.425 I0. J-1.25
Y87.25 Z-0.45 I0. J1.25
Y84.75 Z-0.475 I0. J-1.25
Y87.25 Z-0.5 I0. J1.25
Y84.75 Z-0.525 I0. J-1.25
Y87.25 Z-0.55 I0. J1.25
Y84.75 Z-0.575 I0. J-1.25
Y87.25 Z-0.6 I0. J1.25
Y84.75 Z-0.625 I0. J-1.25
Y87.25 Z-0.65 I0. J1.25
Y84.75 Z-0.675 I0. J-1.25
Y87.25 Z-0.7 I0. J1.25
Y84.75 Z-0.725 I0. J-1.25
Y87.25 Z-0.75 I0. J1.25
Y84.75 Z-0.775 I0. J-1.25
Y87.25 Z-0.8 I0. J1.25
Y84.75 Z-0.825 I0. J-1.25
Y87.25 Z-0.85 I0. J1.25
Y84.75 Z-0.875 I0. J-1.25
Y87.25 Z-0.9 I0. J1.25
Y84.75 Z-0.925 I0. J-1.25
Y87.25 Z-0.95 I0. J1.25
Y84.75 Z-0.975 I0. J-1.25
Y87.25 Z-1. I0. J1.25
Y84.75 I0. J-1.25 F600.
Y87.25 I0. J1.25
G1 Z1. F900.
G0 Y66.75
G1 Z0.1 F30.
G3 Y64.25 Z0.075 I0. J-1.25 F900.
Y66.75 Z0.05 I0. J1.25
Y64.25 Z0.025 I0. J-1.25
Y66.75 Z0. I0. J1.25
Y64.25 Z-0.025 I0. J-1.25
Y66.75 Z-0.05 I0. J1.25
Y64.25 Z-0.075 I0. J-1.25
Y66.75 Z-0.1 I0. J1.25
Y64.25 Z-0.125 I0. J-1.25
Y66.75 Z-0.15 I0. J1.25
Y64.25 Z-0.175 I0. J-1.25
Y66.75 Z-0.2 I0. J1.25
Y64.25 Z-0.225 I0. J-1.25
Y66.75 Z-0.25 I0. J1.25
Y64.25 Z-0.275 I0. J-1.25
Y66.75 Z-0.3 I0. J1.25
Y64.25 Z-0.325 I0. J-1.25
Y66.75 Z-0.35 I0. J1.25
Y64.25 Z-0.375 I0. J-1.25
Y66.75 Z-0.4 I0. J1.25
Y64.25 Z-0.425 I0. J-1.25
Y66.75 Z-0.45 I0. J1.25
Y64.25 Z-0.475 I0. J-1.25
Y66.75 Z-0.5 I0. J1.25
Y64.25 Z-0.525 I0. J-1.25
Y66.75 Z-0.55 I0. J1.25
Y64.25 Z-0.575 I0. J-1.25
Y66.75 Z-0.6 I0. J1.25
Y64.25 Z-0.625 I0. J-1.25
Y66.75 Z-0.65 I0. J1.25
Y64.25 Z-0.675 I0. J-1.25
Y66.75 Z-0.7 I0. J1.25
Y64.25 Z-0.725 I0. J-1.25
Y66.75 Z-0.75 I0. J1.25
Y64.25 Z-0.775 I0. J-1.25
Y66.75 Z-0.8 I0. J1.25
Y64.25 Z-0.825 I0. J-1.25
Y66.75 Z-0.85 I0. J1.25
Y64.25 Z-0.875 I0. J-1.25
Y66.75 Z-0.9 I0. J1.25
Y64.25 Z-0.925 I0. J-1.25
Y66.75 Z-0.95 I0. J1.25
Y64.25 Z-0.975 I0. J-1.25
Y66.75 Z-1. I0. J1.25
Y64.25 I0. J-1.25 F600.
Y66.75 I0. J1.25
G1 Z1. F900.
G0 Y46.25
G1 Z0.1 F30.
G3 Y43.75 Z0.075 I0. J-1.25 F900.
Y46.25 Z0.05 I0. J1.25
Y43.75 Z0.025 I0. J-1.25
Y46.25 Z0. I0. J1.25
Y43.75 Z-0.025 I0. J-1.25
Y46.25 Z-0.05 I0. J1.25
Y43.75 Z-0.075 I0. J-1.25
Y46.25 Z-0.1 I0. J1.25
Y43.75 Z-0.125 I0. J-1.25
Y46.25 Z-0.15 I0. J1.25
Y43.75 Z-0.175 I0. J-1.25
Y46.25 Z-0.2 I0. J1.25
Y43.75 Z-0.225 I0. J-1.25
Y46.25 Z-0.25 I0. J1.25
Y43.75 Z-0.275 I0. J-1.25
Y46.25 Z-0.3 I0. J1.25
Y43.75 Z-0.325 I0. J-1.25
Y46.25 Z-0.35 I0. J1.25
Y43.75 Z-0.375 I0. J-1.25
Y46.25 Z-0.4 I0. J1.25
Y43.75 Z-0.425 I0. J-1.25
Y46.25 Z-0.45 I0. J1.25
Y43.75 Z-0.475 I0. J-1.25
Y46.25 Z-0.5 I0. J1.25
Y43.75 Z-0.525 I0. J-1.25
Y46.25 Z-0.55 I0. J1.25
Y43.75 Z-0.575 I0. J-1.25
Y46.25 Z-0.6 I0. J1.25
Y43.75 Z-0.625 I0. J-1.25
Y46.25 Z-0.65 I0. J1.25
Y43.75 Z-0.675 I0. J-1.25
Y46.25 Z-0.7 I0. J1.25
Y43.75 Z-0.725 I0. J-1.25
Y46.25 Z-0.75 I0. J1.25
Y43.75 Z-0.775 I0. J-1.25
Y46.25 Z-0.8 I0. J1.25
Y43.75 Z-0.825 I0. J-1.25
Y46.25 Z-0.85 I0. J1.25
Y43.75 Z-0.875 I0. J-1.25
Y46.25 Z-0.9 I0. J1.25
Y43.75 Z-0.925 I0. J-1.25
Y46.25 Z-0.95 I0. J1.25
Y43.75 Z-0.975 I0. J-1.25
Y46.25 Z-1. I0. J1.25
Y43.75 I0. J-1.25 F600.
Y46.25 I0. J1.25
G1 Z1. F900.
G0 Y25.75
G1 Z0.1 F30.
G3 Y23.25 Z0.075 I0. J-1.25 F900.
Y25.75 Z0.05 I0. J1.25
Y23.25 Z0.025 I0. J-1.25
Y25.75 Z0. I0. J1.25
Y23.25 Z-0.025 I0. J-1.25
Y25.75 Z-0.05 I0. J1.25
Y23.25 Z-0.075 I0. J-1.25
Y25.75 Z-0.1 I0. J1.25
Y23.25 Z-0.125 I0. J-1.25
Y25.75 Z-0.15 I0. J1.25
Y23.25 Z-0.175 I0. J-1.25
Y25.75 Z-0.2 I0. J1.25
Y23.25 Z-0.225 I0. J-1.25
Y25.75 Z-0.25 I0. J1.25
Y23.25 Z-0.275 I0. J-1.25
Y25.75 Z-0.3 I0. J1.25
Y23.25 Z-0.325 I0. J-1.25
Y25.75 Z-0.35 I0. J1.25
Y23.25 Z-0.375 I0. J-1.25
Y25.75 Z-0.4 I0. J1.25
Y23.25 Z-0.425 I0. J-1.25
Y25.75 Z-0.45 I0. J1.25
Y23.25 Z-0.475 I0. J-1.25
Y25.75 Z-0.5 I0. J1.25
Y23.25 Z-0.525 I0. J-1.25
Y25.75 Z-0.55 I0. J1.25
Y23.25 Z-0.575 I0. J-1.25
Y25.75 Z-0.6 I0. J1.25
Y23.25 Z-0.625 I0. J-1.25
Y25.75 Z-0.65 I0. J1.25
Y23.25 Z-0.675 I0. J-1.25
Y25.75 Z-0.7 I0. J1.25
Y23.25 Z-0.725 I0. J-1.25
Y25.75 Z-0.75 I0. J1.25
Y23.25 Z-0.775 I0. J-1.25
Y25.75 Z-0.8 I0. J1.25
Y23.25 Z-0.825 I0. J-1.25
Y25.75 Z-0.85 I0. J1.25
Y23.25 Z-0.875 I0. J-1.25
Y25.75 Z-0.9 I0. J1.25
Y23.25 Z-0.925 I0. J-1.25
Y25.75 Z-0.95 I0. J1.25
Y23.25 Z-0.975 I0. J-1.25
Y25.75 Z-1. I0. J1.25
Y23.25 I0. J-1.25 F600.
Y25.75 I0. J1.25
G1 Z1. F900.
G0 X49.499 Y4.
G1 Z0.1 F30.
G3 X51.999 Z0.075 I1.25 J0. F900.
X49.499 Z0.05 I-1.25 J0.
X51.999 Z0.025 I1.25 J0.
X49.499 Z0. I-1.25 J0.
X51.999 Z-0.025 I1.25 J0.
X49.499 Z-0.05 I-1.25 J0.
X51.999 Z-0.075 I1.25 J0.
X49.499 Z-0.1 I-1.25 J0.
X51.999 Z-0.125 I1.25 J0.
X49.499 Z-0.15 I-1.25 J0.
X51.999 Z-0.175 I1.25 J0.
X49.499 Z-0.2 I-1.25 J0.
X51.999 Z-0.225 I1.25 J0.
X49.499 Z-0.25 I-1.25 J0.
X51.999 Z-0.275 I1.25 J0.
X49.499 Z-0.3 I-1.25 J0.
X51.999 Z-0.325 I1.25 J0.
X49.499 Z-0.35 I-1.25 J0.
X51.999 Z-0.375 I1.25 J0.
X49.499 Z-0.4 I-1.25 J0.
X51.999 Z-0.425 I1.25 J0.
X49.499 Z-0.45 I-1.25 J0.
X51.999 Z-0.475 I1.25 J0.
X49.499 Z-0.5 I-1.25 J0.
X51.999 Z-0.525 I1.25 J0.
X49.499 Z-0.55 I-1.25 J0.
X51.999 Z-0.575 I1.25 J0.
X49.499 Z-0.6 I-1.25 J0.
X51.999 Z-0.625 I1.25 J0.
X49.499 Z-0.65 I-1.25 J0.
X51.999 Z-0.675 I1.25 J0.
X49.499 Z-0.7 I-1.25 J0.
X51.999 Z-0.725 I1.25 J0.
X49.499 Z-0.75 I-1.25 J0.
X51.999 Z-0.775 I1.25 J0.
X49.499 Z-0.8 I-1.25 J0.
X51.999 Z-0.825 I1.25 J0.
X49.499 Z-0.85 I-1.25 J0.
X51.999 Z-0.875 I1.25 J0.
X49.499 Z-0.9 I-1.25 J0.
X51.999 Z-0.925 I1.25 J0.
X49.499 Z-0.95 I-1.25 J0.
X51.999 Z-0.975 I1.25 J0.
X49.499 Z-1. I-1.25 J0.
X51.999 I1.25 J0. F600.
X49.499 I-1.25 J0.
G1 Z1. F900.
G0 X32.649 Y24.544
G1 Z0.1 F30.
X32.609 Y24.547 Z0.099 F900.
X32.575 Y24.5 Z0.096
X32.609 Y24.453 Z0.094
X32.642 Z0.093
Y24.547 Z0.089
X32.609 Z0.088
X32.575 Y24.5 Z0.085
X32.609 Y24.453 Z0.083
X32.642 Z0.082
Y24.547 Z0.078
X32.609 Z0.077
X32.575 Y24.5 Z0.074
X32.609 Y24.453 Z0.072
X32.642 Z0.071
Y24.547 Z0.067
X32.609 Z0.066
X32.575 Y24.5 Z0.064
X32.609 Y24.453 Z0.061
X32.642 Z0.06
Y24.547 Z0.056
X32.609 Z0.055
X32.575 Y24.5 Z0.053
X32.609 Y24.453 Z0.05
X32.642 Z0.049
Y24.547 Z0.045
X32.609 Z0.044
X32.575 Y24.5 Z0.042
X32.609 Y24.453 Z0.039
X32.642 Z0.038
Y24.547 Z0.034
X32.609 Z0.033
X32.575 Y24.5 Z0.031
X32.609 Y24.453 Z0.028
X32.642 Z0.027
Y24.547 Z0.023
X32.609 Z0.022
X32.575 Y24.5 Z0.02
X32.609 Y24.453 Z0.017
X32.642 Z0.016
Y24.547 Z0.012
X32.609 Z0.011
X32.575 Y24.5 Z0.009
X32.609 Y24.453 Z0.007
X32.642 Z0.005
Y24.547 Z0.001
X32.609 Z0.
X32.575 Y24.5 Z-0.002
X32.609 Y24.453 Z-0.004
X32.642 Z-0.006
Y24.547 Z-0.01
X32.609 Z-0.011
X32.575 Y24.5 Z-0.013
X32.609 Y24.453 Z-0.015
X32.642 Z-0.017
Y24.547 Z-0.021
X32.609 Z-0.022
X32.575 Y24.5 Z-0.024
X32.609 Y24.453 Z-0.026
X32.642 Z-0.028
Y24.547 Z-0.032
X32.609 Z-0.033
X32.575 Y24.5 Z-0.035
X32.609 Y24.453 Z-0.037
X32.642 Z-0.038
Y24.547 Z-0.043
X32.609 Z-0.044
X32.575 Y24.5 Z-0.046
X32.609 Y24.453 Z-0.048
X32.642 Z-0.049
Y24.547 Z-0.054
X32.609 Z-0.055
X32.575 Y24.5 Z-0.057
X32.609 Y24.453 Z-0.059
X32.642 Z-0.06
Y24.547 Z-0.065
X32.609 Z-0.066
X32.575 Y24.5 Z-0.068
X32.609 Y24.453 Z-0.07
X32.642 Z-0.071
Y24.547 Z-0.076
X32.609 Z-0.077
X32.575 Y24.5 Z-0.079
X32.609 Y24.453 Z-0.081
X32.642 Z-0.082
Y24.547 Z-0.087
X32.609 Z-0.088
X32.575 Y24.5 Z-0.09
X32.609 Y24.453 Z-0.092
X32.642 Z-0.093
Y24.547 Z-0.098
X32.609 Z-0.099
X32.575 Y24.5 Z-0.101
X32.609 Y24.453 Z-0.103
X32.642 Z-0.104
Y24.547 Z-0.109
X32.609 Z-0.11
X32.575 Y24.5 Z-0.112
X32.609 Y24.453 Z-0.114
X32.642 Z-0.115
Y24.547 Z-0.12
X32.609 Z-0.121
X32.575 Y24.5 Z-0.123
X32.609 Y24.453 Z-0.125
X32.642 Z-0.126
Y24.547 Z-0.131
X32.609 Z-0.132
X32.575 Y24.5 Z-0.134
X32.609 Y24.453 Z-0.136
X32.642 Z-0.137
Y24.547 Z-0.141
X32.609 Z-0.143
X32.575 Y24.5 Z-0.145
X32.609 Y24.453 Z-0.147
X32.642 Z-0.148
Y24.547 Z-0.152
X32.609 Z-0.154
X32.575 Y24.5 Z-0.156
X32.609 Y24.453 Z-0.158
X32.642 Z-0.159
Y24.547 Z-0.163
X32.609 Z-0.165
X32.575 Y24.5 Z-0.167
X32.609 Y24.453 Z-0.169
X32.642 Z-0.17
Y24.547 Z-0.174
X32.609 Z-0.176
X32.575 Y24.5 Z-0.178
X32.609 Y24.453 Z-0.18
X32.642 Z-0.181
Y24.547 Z-0.185
X32.609 Z-0.187
X32.575 Y24.5 Z-0.189
X32.609 Y24.453 Z-0.191
X32.642 Z-0.192
Y24.547 Z-0.196
X32.609 Z-0.197
X32.575 Y24.5 Z-0.2
X32.609 Y24.453 Z-0.202
X32.642 Z-0.203
Y24.547 Z-0.207
X32.609 Z-0.208
X32.575 Y24.5 Z-0.211
X32.609 Y24.453 Z-0.213
X32.642 Z-0.214
Y24.547 Z-0.218
X32.609 Z-0.219
X32.575 Y24.5 Z-0.222
X32.609 Y24.453 Z-0.224
X32.642 Z-0.225
Y24.547 Z-0.229
X32.609 Z-0.23
X32.575 Y24.5 Z-0.233
X32.609 Y24.453 Z-0.235
X32.642 Z-0.236
Y24.547 Z-0.24
X32.609 Z-0.241
X32.575 Y24.5 Z-0.243
X32.609 Y24.453 Z-0.246
X32.642 Z-0.247
Y24.547 Z-0.251
X32.609 Z-0.252
X32.575 Y24.5 Z-0.254
X32.609 Y24.453 Z-0.257
X32.642 Z-0.258
Y24.547 Z-0.262
X32.609 Z-0.263
X32.575 Y24.5 Z-0.265
X32.609 Y24.453 Z-0.268
X32.642 Z-0.269
Y24.547 Z-0.273
X32.609 Z-0.274
X32.575 Y24.5 Z-0.276
X32.609 Y24.453 Z-0.279
X32.642 Z-0.28
Y24.547 Z-0.284
X32.609 Z-0.285
X32.575 Y24.5 Z-0.287
X32.609 Y24.453 Z-0.289
X32.642 Z-0.291
Y24.547 Z-0.295
X32.609 Z-0.296
X32.575 Y24.5 Z-0.298
X32.609 Y24.453 Z-0.3
X32.642 Z-0.302
Y24.547 Z-0.306
X32.609 Z-0.307
X32.575 Y24.5 Z-0.309
X32.609 Y24.453 Z-0.311
X32.642 Z-0.313
Y24.547 Z-0.317
X32.609 Z-0.318
X32.575 Y24.5 Z-0.32
X32.609 Y24.453 Z-0.322
X32.642 Z-0.324
Y24.547 Z-0.328
X32.609 Z-0.329
X32.575 Y24.5 Z-0.331
X32.609 Y24.453 Z-0.333
X32.642 Z-0.335
Y24.547 Z-0.339
X32.609 Z-0.34
X32.575 Y24.5 Z-0.342
X32.609 Y24.453 Z-0.344
X32.642 Z-0.345
Y24.547 Z-0.35
X32.609 Z-0.351
X32.575 Y24.5 Z-0.353
X32.609 Y24.453 Z-0.355
X32.642 Z-0.356
Y24.547 Z-0.361
X32.609 Z-0.362
X32.575 Y24.5 Z-0.364
X32.609 Y24.453 Z-0.366
X32.642 Z-0.367
Y24.547 Z-0.372
X32.609 Z-0.373
X32.575 Y24.5 Z-0.375
X32.609 Y24.453 Z-0.377
X32.642 Z-0.378
Y24.547 Z-0.383
X32.609 Z-0.384
X32.575 Y24.5 Z-0.386
X32.609 Y24.453 Z-0.388
X32.642 Z-0.389
Y24.547 Z-0.394
X32.609 Z-0.395
X32.575 Y24.5 Z-0.397
X32.609 Y24.453 Z-0.399
X32.642 Z-0.4
Y24.547 Z-0.405
X32.609 Z-0.406
X32.575 Y24.5 Z-0.408
X32.609 Y24.453 Z-0.41
X32.642 Z-0.411
Y24.547 Z-0.416
X32.609 Z-0.417
X32.575 Y24.5 Z-0.419
X32.609 Y24.453 Z-0.421
X32.642 Z-0.422
Y24.547 Z-0.427
X32.609 Z-0.428
X32.575 Y24.5 Z-0.43
X32.609 Y24.453 Z-0.432
X32.642 Z-0.433
Y24.547 Z-0.438
X32.609 Z-0.439
X32.575 Y24.5 Z-0.441
X32.609 Y24.453 Z-0.443
X32.642 Z-0.444
Y24.547 Z-0.448
X32.609 Z-0.45
X32.575 Y24.5 Z-0.452
X32.609 Y24.453 Z-0.454
X32.642 Z-0.455
Y24.547 Z-0.459
X32.609 Z-0.461
X32.575 Y24.5 Z-0.463
X32.609 Y24.453 Z-0.465
X32.642 Z-0.466
Y24.547 Z-0.47
X32.609 Z-0.472
X32.575 Y24.5 Z-0.474
X32.609 Y24.453 Z-0.476
X32.642 Z-0.477
Y24.547 Z-0.481
X32.609 Z-0.483
X32.575 Y24.5 Z-0.485
X32.609 Y24.453 Z-0.487
X32.642 Z-0.488
Y24.547 Z-0.492
X32.609 Z-0.494
X32.575 Y24.5 Z-0.496
X32.609 Y24.453 Z-0.498
X32.642 Z-0.499
Y24.547 Z-0.503
X32.609 Z-0.504
X32.575 Y24.5 Z-0.507
X32.609 Y24.453 Z-0.509
X32.642 Z-0.51
Y24.547 Z-0.514
X32.609 Z-0.515
X32.575 Y24.5 Z-0.518
X32.609 Y24.453 Z-0.52
X32.642 Z-0.521
Y24.547 Z-0.525
X32.609 Z-0.526
X32.575 Y24.5 Z-0.529
X32.609 Y24.453 Z-0.531
X32.642 Z-0.532
Y24.547 Z-0.536
X32.609 Z-0.537
X32.575 Y24.5 Z-0.54
X32.609 Y24.453 Z-0.542
X32.642 Z-0.543
Y24.547 Z-0.547
X32.609 Z-0.548
X32.575 Y24.5 Z-0.55
X32.609 Y24.453 Z-0.553
X32.642 Z-0.554
Y24.547 Z-0.558
X32.609 Z-0.559
X32.575 Y24.5 Z-0.561
X32.609 Y24.453 Z-0.564
X32.642 Z-0.565
Y24.547 Z-0.569
X32.609 Z-0.57
X32.575 Y24.5 Z-0.572
X32.609 Y24.453 Z-0.575
X32.642 Z-0.576
Y24.547 Z-0.58
X32.609 Z-0.581
X32.575 Y24.5 Z-0.583
X32.609 Y24.453 Z-0.586
X32.642 Z-0.587
Y24.547 Z-0.591
X32.609 Z-0.592
X32.575 Y24.5 Z-0.594
X32.609 Y24.453 Z-0.596
X32.642 Z-0.598
Y24.547 Z-0.602
X32.609 Z-0.603
X32.575 Y24.5 Z-0.605
X32.609 Y24.453 Z-0.607
X32.642 Z-0.609
Y24.547 Z-0.613
X32.609 Z-0.614
X32.575 Y24.5 Z-0.616
X32.609 Y24.453 Z-0.618
X32.642 Z-0.62
Y24.547 Z-0.624
X32.609 Z-0.625
X32.575 Y24.5 Z-0.627
X32.609 Y24.453 Z-0.629
X32.642 Z-0.631
Y24.547 Z-0.635
X32.609 Z-0.636
X32.575 Y24.5 Z-0.638
X32.609 Y24.453 Z-0.64
X32.642 Z-0.642
Y24.547 Z-0.646
X32.609 Z-0.647
X32.575 Y24.5 Z-0.649
X32.609 Y24.453 Z-0.651
X32.642 Z-0.652
Y24.547 Z-0.657
X32.609 Z-0.658
X32.575 Y24.5 Z-0.66
X32.609 Y24.453 Z-0.662
X32.642 Z-0.663
Y24.547 Z-0.668
X32.609 Z-0.669
X32.575 Y24.5 Z-0.671
X32.609 Y24.453 Z-0.673
X32.642 Z-0.674
Y24.547 Z-0.679
X32.609 Z-0.68
X32.575 Y24.5 Z-0.682
X32.609 Y24.453 Z-0.684
X32.642 Z-0.685
Y24.547 Z-0.69
X32.609 Z-0.691
X32.575 Y24.5 Z-0.693
X32.609 Y24.453 Z-0.695
X32.642 Z-0.696
Y24.547 Z-0.701
X32.609 Z-0.702
X32.575 Y24.5 Z-0.704
X32.609 Y24.453 Z-0.706
X32.642 Z-0.707
Y24.547 Z-0.712
X32.609 Z-0.713
X32.575 Y24.5 Z-0.715
X32.609 Y24.453 Z-0.717
X32.642 Z-0.718
Y24.547 Z-0.723
X32.609 Z-0.724
X32.575 Y24.5 Z-0.726
X32.609 Y24.453 Z-0.728
X32.642 Z-0.729
Y24.547 Z-0.734
X32.609 Z-0.735
X32.575 Y24.5 Z-0.737
X32.609 Y24.453 Z-0.739
X32.642 Z-0.74
Y24.547 Z-0.745
X32.609 Z-0.746
X32.575 Y24.5 Z-0.748
X32.609 Y24.453 Z-0.75
X32.642 Z-0.751
Y24.547 Z-0.755
X32.609 Z-0.757
X32.575 Y24.5 Z-0.759
X32.609 Y24.453 Z-0.761
X32.642 Z-0.762
Y24.547 Z-0.766
X32.609 Z-0.768
X32.575 Y24.5 Z-0.77
X32.609 Y24.453 Z-0.772
X32.642 Z-0.773
Y24.547 Z-0.777
X32.609 Z-0.779
X32.575 Y24.5 Z-0.781
X32.609 Y24.453 Z-0.783
X32.642 Z-0.784
Y24.547 Z-0.788
X32.609 Z-0.79
X32.575 Y24.5 Z-0.792
X32.609 Y24.453 Z-0.794
X32.642 Z-0.795
Y24.547 Z-0.799
X32.609 Z-0.8
X32.575 Y24.5 Z-0.803
X32.609 Y24.453 Z-0.805
X32.642 Z-0.806
Y24.547 Z-0.81
X32.609 Z-0.811
X32.575 Y24.5 Z-0.814
X32.609 Y24.453 Z-0.816
X32.642 Z-0.817
Y24.547 Z-0.821
X32.609 Z-0.822
X32.575 Y24.5 Z-0.825
X32.609 Y24.453 Z-0.827
X32.642 Z-0.828
Y24.547 Z-0.832
X32.609 Z-0.833
X32.575 Y24.5 Z-0.836
X32.609 Y24.453 Z-0.838
X32.642 Z-0.839
Y24.547 Z-0.843
X32.609 Z-0.844
X32.575 Y24.5 Z-0.847
X32.609 Y24.453 Z-0.849
X32.642 Z-0.85
Y24.547 Z-0.854
X32.609 Z-0.855
X32.575 Y24.5 Z-0.857
X32.609 Y24.453 Z-0.86
X32.642 Z-0.861
Y24.547 Z-0.865
X32.609 Z-0.866
X32.575 Y24.5 Z-0.868
X32.609 Y24.453 Z-0.871
X32.642 Z-0.872
Y24.547 Z-0.876
X32.609 Z-0.877
X32.575 Y24.5 Z-0.879
X32.609 Y24.453 Z-0.882
X32.642 Z-0.883
Y24.547 Z-0.887
X32.609 Z-0.888
X32.575 Y24.5 Z-0.89
X32.609 Y24.453 Z-0.893
X32.642 Z-0.894
Y24.547 Z-0.898
X32.609 Z-0.899
X32.575 Y24.5 Z-0.901
X32.609 Y24.453 Z-0.903
X32.642 Z-0.905
Y24.547 Z-0.909
X32.609 Z-0.91
X32.575 Y24.5 Z-0.912
X32.609 Y24.453 Z-0.914
X32.642 Z-0.916
Y24.547 Z-0.92
X32.609 Z-0.921
X32.575 Y24.5 Z-0.923
X32.609 Y24.453 Z-0.925
X32.642 Z-0.927
Y24.547 Z-0.931
X32.609 Z-0.932
X32.575 Y24.5 Z-0.934
X32.609 Y24.453 Z-0.936
X32.642 Z-0.938
Y24.547 Z-0.942
X32.609 Z-0.943
X32.575 Y24.5 Z-0.945
X32.609 Y24.453 Z-0.947
X32.642 Z-0.949
Y24.547 Z-0.953
X32.609 Z-0.954
X32.575 Y24.5 Z-0.956
X32.609 Y24.453 Z-0.958
X32.642 Z-0.959
Y24.547 Z-0.964
X32.609 Z-0.965
X32.575 Y24.5 Z-0.967
X32.609 Y24.453 Z-0.969
X32.642 Z-0.97
Y24.547 Z-0.975
X32.609 Z-0.976
X32.575 Y24.5 Z-0.978
X32.609 Y24.453 Z-0.98
X32.642 Z-0.981
Y24.547 Z-0.986
X32.609 Z-0.987
X32.575 Y24.5 Z-0.989
X32.609 Y24.453 Z-0.991
X32.642 Z-0.992
Y24.547 Z-0.997
X32.609 Z-0.998
X32.575 Y24.5 Z-1.
X32.609 Y24.453 F600.
X32.642
Y24.547
X32.609
X32.575 Y24.5
Z1. F900.
G0 X32.651 Y45.043
G1 Z0.1 F30.
X32.642 Y45.047 F900.
X32.609 Z0.098
X32.575 Y45. Z0.096
X32.609 Y44.953 Z0.094
X32.642 Z0.093
Y45.047 Z0.089
X32.609 Z0.087
X32.575 Y45. Z0.085
X32.609 Y44.953 Z0.083
X32.642 Z0.082
Y45.047 Z0.078
X32.609 Z0.077
X32.575 Y45. Z0.074
X32.609 Y44.953 Z0.072
X32.642 Z0.071
Y45.047 Z0.067
X32.609 Z0.066
X32.575 Y45. Z0.063
X32.609 Y44.953 Z0.061
X32.642 Z0.06
Y45.047 Z0.056
X32.609 Z0.055
X32.575 Y45. Z0.052
X32.609 Y44.953 Z0.05
X32.642 Z0.049
Y45.047 Z0.045
X32.609 Z0.044
X32.575 Y45. Z0.041
X32.609 Y44.953 Z0.039
X32.642 Z0.038
Y45.047 Z0.034
X32.609 Z0.033
X32.575 Y45. Z0.031
X32.609 Y44.953 Z0.028
X32.642 Z0.027
Y45.047 Z0.023
X32.609 Z0.022
X32.575 Y45. Z0.02
X32.609 Y44.953 Z0.017
X32.642 Z0.016
Y45.047 Z0.012
X32.609 Z0.011
X32.575 Y45. Z0.009
X32.609 Y44.953 Z0.006
X32.642 Z0.005
Y45.047 Z0.001
X32.609 Z0.
X32.575 Y45. Z-0.002
X32.609 Y44.953 Z-0.005
X32.642 Z-0.006
Y45.047 Z-0.01
X32.609 Z-0.011
X32.575 Y45. Z-0.013
X32.609 Y44.953 Z-0.015
X32.642 Z-0.017
Y45.047 Z-0.021
X32.609 Z-0.022
X32.575 Y45. Z-0.024
X32.609 Y44.953 Z-0.026
X32.642 Z-0.028
Y45.047 Z-0.032
X32.609 Z-0.033
X32.575 Y45. Z-0.035
X32.609 Y44.953 Z-0.037
X32.642 Z-0.039
Y45.047 Z-0.043
X32.609 Z-0.044
X32.575 Y45. Z-0.046
X32.609 Y44.953 Z-0.048
X32.642 Z-0.05
Y45.047 Z-0.054
X32.609 Z-0.055
X32.575 Y45. Z-0.057
X32.609 Y44.953 Z-0.059
X32.642 Z-0.061
Y45.047 Z-0.065
X32.609 Z-0.066
X32.575 Y45. Z-0.068
X32.609 Y44.953 Z-0.07
X32.642 Z-0.071
Y45.047 Z-0.076
X32.609 Z-0.077
X32.575 Y45. Z-0.079
X32.609 Y44.953 Z-0.081
X32.642 Z-0.082
Y45.047 Z-0.087
X32.609 Z-0.088
X32.575 Y45. Z-0.09
X32.609 Y44.953 Z-0.092
X32.642 Z-0.093
Y45.047 Z-0.098
X32.609 Z-0.099
X32.575 Y45. Z-0.101
X32.609 Y44.953 Z-0.103
X32.642 Z-0.104
Y45.047 Z-0.109
X32.609 Z-0.11
X32.575 Y45. Z-0.112
X32.609 Y44.953 Z-0.114
X32.642 Z-0.115
Y45.047 Z-0.12
X32.609 Z-0.121
X32.575 Y45. Z-0.123
X32.609 Y44.953 Z-0.125
X32.642 Z-0.126
Y45.047 Z-0.131
X32.609 Z-0.132
X32.575 Y45. Z-0.134
X32.609 Y44.953 Z-0.136
X32.642 Z-0.137
Y45.047 Z-0.142
X32.609 Z-0.143
X32.575 Y45. Z-0.145
X32.609 Y44.953 Z-0.147
X32.642 Z-0.148
Y45.047 Z-0.153
X32.609 Z-0.154
X32.575 Y45. Z-0.156
X32.609 Y44.953 Z-0.158
X32.642 Z-0.159
Y45.047 Z-0.163
X32.609 Z-0.165
X32.575 Y45. Z-0.167
X32.609 Y44.953 Z-0.169
X32.642 Z-0.17
Y45.047 Z-0.174
X32.609 Z-0.176
X32.575 Y45. Z-0.178
X32.609 Y44.953 Z-0.18
X32.642 Z-0.181
Y45.047 Z-0.185
X32.609 Z-0.187
X32.575 Y45. Z-0.189
X32.609 Y44.953 Z-0.191
X32.642 Z-0.192
Y45.047 Z-0.196
X32.609 Z-0.198
X32.575 Y45. Z-0.2
X32.609 Y44.953 Z-0.202
X32.642 Z-0.203
Y45.047 Z-0.207
X32.609 Z-0.209
X32.575 Y45. Z-0.211
X32.609 Y44.953 Z-0.213
X32.642 Z-0.214
Y45.047 Z-0.218
X32.609 Z-0.219
X32.575 Y45. Z-0.222
X32.609 Y44.953 Z-0.224
X32.642 Z-0.225
Y45.047 Z-0.229
X32.609 Z-0.23
X32.575 Y45. Z-0.233
X32.609 Y44.953 Z-0.235
X32.642 Z-0.236
Y45.047 Z-0.24
X32.609 Z-0.241
X32.575 Y45. Z-0.244
X32.609 Y44.953 Z-0.246
X32.642 Z-0.247
Y45.047 Z-0.251
X32.609 Z-0.252
X32.575 Y45. Z-0.255
X32.609 Y44.953 Z-0.257
X32.642 Z-0.258
Y45.047 Z-0.262
X32.609 Z-0.263
X32.575 Y45. Z-0.265
X32.609 Y44.953 Z-0.268
X32.642 Z-0.269
Y45.047 Z-0.273
X32.609 Z-0.274
X32.575 Y45. Z-0.276
X32.609 Y44.953 Z-0.279
X32.642 Z-0.28
Y45.047 Z-0.284
X32.609 Z-0.285
X32.575 Y45. Z-0.287
X32.609 Y44.953 Z-0.29
X32.642 Z-0.291
Y45.047 Z-0.295
X32.609 Z-0.296
X32.575 Y45. Z-0.298
X32.609 Y44.953 Z-0.301
X32.642 Z-0.302
Y45.047 Z-0.306
X32.609 Z-0.307
X32.575 Y45. Z-0.309
X32.609 Y44.953 Z-0.311
X32.642 Z-0.313
Y45.047 Z-0.317
X32.609 Z-0.318
X32.575 Y45. Z-0.32
X32.609 Y44.953 Z-0.322
X32.642 Z-0.324
Y45.047 Z-0.328
X32.609 Z-0.329
X32.575 Y45. Z-0.331
X32.609 Y44.953 Z-0.333
X32.642 Z-0.335
Y45.047 Z-0.339
X32.609 Z-0.34
X32.575 Y45. Z-0.342
X32.609 Y44.953 Z-0.344
X32.642 Z-0.346
Y45.047 Z-0.35
X32.609 Z-0.351
X32.575 Y45. Z-0.353
X32.609 Y44.953 Z-0.355
X32.642 Z-0.357
Y45.047 Z-0.361
X32.609 Z-0.362
X32.575 Y45. Z-0.364
X32.609 Y44.953 Z-0.366
X32.642 Z-0.367
Y45.047 Z-0.372
X32.609 Z-0.373
X32.575 Y45. Z-0.375
X32.609 Y44.953 Z-0.377
X32.642 Z-0.378
Y45.047 Z-0.383
X32.609 Z-0.384
X32.575 Y45. Z-0.386
X32.609 Y44.953 Z-0.388
X32.642 Z-0.389
Y45.047 Z-0.394
X32.609 Z-0.395
X32.575 Y45. Z-0.397
X32.609 Y44.953 Z-0.399
X32.642 Z-0.4
Y45.047 Z-0.405
X32.609 Z-0.406
X32.575 Y45. Z-0.408
X32.609 Y44.953 Z-0.41
X32.642 Z-0.411
Y45.047 Z-0.416
X32.609 Z-0.417
X32.575 Y45. Z-0.419
X32.609 Y44.953 Z-0.421
X32.642 Z-0.422
Y45.047 Z-0.427
X32.609 Z-0.428
X32.575 Y45. Z-0.43
X32.609 Y44.953 Z-0.432
X32.642 Z-0.433
Y45.047 Z-0.438
X32.609 Z-0.439
X32.575 Y45. Z-0.441
X32.609 Y44.953 Z-0.443
X32.642 Z-0.444
Y45.047 Z-0.449
X32.609 Z-0.45
X32.575 Y45. Z-0.452
X32.609 Y44.953 Z-0.454
X32.642 Z-0.455
Y45.047 Z-0.459
X32.609 Z-0.461
X32.575 Y45. Z-0.463
X32.609 Y44.953 Z-0.465
X32.642 Z-0.466
Y45.047 Z-0.47
X32.609 Z-0.472
X32.575 Y45. Z-0.474
X32.609 Y44.953 Z-0.476
X32.642 Z-0.477
Y45.047 Z-0.481
X32.609 Z-0.483
X32.575 Y45. Z-0.485
X32.609 Y44.953 Z-0.487
X32.642 Z-0.488
Y45.047 Z-0.492
X32.609 Z-0.494
X32.575 Y45. Z-0.496
X32.609 Y44.953 Z-0.498
X32.642 Z-0.499
Y45.047 Z-0.503
X32.609 Z-0.505
X32.575 Y45. Z-0.507
X32.609 Y44.953 Z-0.509
X32.642 Z-0.51
Y45.047 Z-0.514
X32.609 Z-0.515
X32.575 Y45. Z-0.518
X32.609 Y44.953 Z-0.52
X32.642 Z-0.521
Y45.047 Z-0.525
X32.609 Z-0.526
X32.575 Y45. Z-0.529
X32.609 Y44.953 Z-0.531
X32.642 Z-0.532
Y45.047 Z-0.536
X32.609 Z-0.537
X32.575 Y45. Z-0.54
X32.609 Y44.953 Z-0.542
X32.642 Z-0.543
Y45.047 Z-0.547
X32.609 Z-0.548
X32.575 Y45. Z-0.551
X32.609 Y44.953 Z-0.553
X32.642 Z-0.554
Y45.047 Z-0.558
X32.609 Z-0.559
X32.575 Y45. Z-0.561
X32.609 Y44.953 Z-0.564
X32.642 Z-0.565
Y45.047 Z-0.569
X32.609 Z-0.57
X32.575 Y45. Z-0.572
X32.609 Y44.953 Z-0.575
X32.642 Z-0.576
Y45.047 Z-0.58
X32.609 Z-0.581
X32.575 Y45. Z-0.583
X32.609 Y44.953 Z-0.586
X32.642 Z-0.587
Y45.047 Z-0.591
X32.609 Z-0.592
X32.575 Y45. Z-0.594
X32.609 Y44.953 Z-0.597
X32.642 Z-0.598
Y45.047 Z-0.602
X32.609 Z-0.603
X32.575 Y45. Z-0.605
X32.609 Y44.953 Z-0.607
X32.642 Z-0.609
Y45.047 Z-0.613
X32.609 Z-0.614
X32.575 Y45. Z-0.616
X32.609 Y44.953 Z-0.618
X32.642 Z-0.62
Y45.047 Z-0.624
X32.609 Z-0.625
X32.575 Y45. Z-0.627
X32.609 Y44.953 Z-0.629
X32.642 Z-0.631
Y45.047 Z-0.635
X32.609 Z-0.636
X32.575 Y45. Z-0.638
X32.609 Y44.953 Z-0.64
X32.642 Z-0.642
Y45.047 Z-0.646
X32.609 Z-0.647
X32.575 Y45. Z-0.649
X32.609 Y44.953 Z-0.651
X32.642 Z-0.653
Y45.047 Z-0.657
X32.609 Z-0.658
X32.575 Y45. Z-0.66
X32.609 Y44.953 Z-0.662
X32.642 Z-0.663
Y45.047 Z-0.668
X32.609 Z-0.669
X32.575 Y45. Z-0.671
X32.609 Y44.953 Z-0.673
X32.642 Z-0.674
Y45.047 Z-0.679
X32.609 Z-0.68
X32.575 Y45. Z-0.682
X32.609 Y44.953 Z-0.684
X32.642 Z-0.685
Y45.047 Z-0.69
X32.609 Z-0.691
X32.575 Y45. Z-0.693
X32.609 Y44.953 Z-0.695
X32.642 Z-0.696
Y45.047 Z-0.701
X32.609 Z-0.702
X32.575 Y45. Z-0.704
X32.609 Y44.953 Z-0.706
X32.642 Z-0.707
Y45.047 Z-0.712
X32.609 Z-0.713
X32.575 Y45. Z-0.715
X32.609 Y44.953 Z-0.717
X32.642 Z-0.718
Y45.047 Z-0.723
X32.609 Z-0.724
X32.575 Y45. Z-0.726
X32.609 Y44.953 Z-0.728
X32.642 Z-0.729
Y45.047 Z-0.734
X32.609 Z-0.735
X32.575 Y45. Z-0.737
X32.609 Y44.953 Z-0.739
X32.642 Z-0.74
Y45.047 Z-0.745
X32.609 Z-0.746
X32.575 Y45. Z-0.748
X32.609 Y44.953 Z-0.75
X32.642 Z-0.751
Y45.047 Z-0.755
X32.609 Z-0.757
X32.575 Y45. Z-0.759
X32.609 Y44.953 Z-0.761
X32.642 Z-0.762
Y45.047 Z-0.766
X32.609 Z-0.768
X32.575 Y45. Z-0.77
X32.609 Y44.953 Z-0.772
X32.642 Z-0.773
Y45.047 Z-0.777
X32.609 Z-0.779
X32.575 Y45. Z-0.781
X32.609 Y44.953 Z-0.783
X32.642 Z-0.784
Y45.047 Z-0.788
X32.609 Z-0.79
X32.575 Y45. Z-0.792
X32.609 Y44.953 Z-0.794
X32.642 Z-0.795
Y45.047 Z-0.799
X32.609 Z-0.801
X32.575 Y45. Z-0.803
X32.609 Y44.953 Z-0.805
X32.642 Z-0.806
Y45.047 Z-0.81
X32.609 Z-0.811
X32.575 Y45. Z-0.814
X32.609 Y44.953 Z-0.816
X32.642 Z-0.817
Y45.047 Z-0.821
X32.609 Z-0.822
X32.575 Y45. Z-0.825
X32.609 Y44.953 Z-0.827
X32.642 Z-0.828
Y45.047 Z-0.832
X32.609 Z-0.833
X32.575 Y45. Z-0.836
X32.609 Y44.953 Z-0.838
X32.642 Z-0.839
Y45.047 Z-0.843
X32.609 Z-0.844
X32.575 Y45. Z-0.847
X32.609 Y44.953 Z-0.849
X32.642 Z-0.85
Y45.047 Z-0.854
X32.609 Z-0.855
X32.575 Y45. Z-0.857
X32.609 Y44.953 Z-0.86
X32.642 Z-0.861
Y45.047 Z-0.865
X32.609 Z-0.866
X32.575 Y45. Z-0.868
X32.609 Y44.953 Z-0.871
X32.642 Z-0.872
Y45.047 Z-0.876
X32.609 Z-0.877
X32.575 Y45. Z-0.879
X32.609 Y44.953 Z-0.882
X32.642 Z-0.883
Y45.047 Z-0.887
X32.609 Z-0.888
X32.575 Y45. Z-0.89
X32.609 Y44.953 Z-0.893
X32.642 Z-0.894
Y45.047 Z-0.898
X32.609 Z-0.899
X32.575 Y45. Z-0.901
X32.609 Y44.953 Z-0.903
X32.642 Z-0.905
Y45.047 Z-0.909
X32.609 Z-0.91
X32.575 Y45. Z-0.912
X32.609 Y44.953 Z-0.914
X32.642 Z-0.916
Y45.047 Z-0.92
X32.609 Z-0.921
X32.575 Y45. Z-0.923
X32.609 Y44.953 Z-0.925
X32.642 Z-0.927
Y45.047 Z-0.931
X32.609 Z-0.932
X32.575 Y45. Z-0.934
X32.609 Y44.953 Z-0.936
X32.642 Z-0.938
Y45.047 Z-0.942
X32.609 Z-0.943
X32.575 Y45. Z-0.945
X32.609 Y44.953 Z-0.947
X32.642 Z-0.949
Y45.047 Z-0.953
X32.609 Z-0.954
X32.575 Y45. Z-0.956
X32.609 Y44.953 Z-0.958
X32.642 Z-0.959
Y45.047 Z-0.964
X32.609 Z-0.965
X32.575 Y45. Z-0.967
X32.609 Y44.953 Z-0.969
X32.642 Z-0.97
Y45.047 Z-0.975
X32.609 Z-0.976
X32.575 Y45. Z-0.978
X32.609 Y44.953 Z-0.98
X32.642 Z-0.981
Y45.047 Z-0.986
X32.609 Z-0.987
X32.575 Y45. Z-0.989
X32.609 Y44.953 Z-0.991
X32.642 Z-0.992
Y45.047 Z-0.997
X32.609 Z-0.998
X32.575 Y45. Z-1.
X32.609 Y44.953 F600.
X32.642
Y45.047
X32.609
X32.575 Y45.
Z1. F900.
G0 X32.656 Y65.54
G1 Z0.1 F30.
X32.642 Y65.547 Z0.099 F900.
X32.609 Z0.098
X32.575 Y65.5 Z0.096
X32.609 Y65.453 Z0.094
X32.642 Z0.093
Y65.547 Z0.088
X32.609 Z0.087
X32.575 Y65.5 Z0.085
X32.609 Y65.453 Z0.083
X32.642 Z0.082
Y65.547 Z0.078
X32.609 Z0.076
X32.575 Y65.5 Z0.074
X32.609 Y65.453 Z0.072
X32.642 Z0.071
Y65.547 Z0.067
X32.609 Z0.065
X32.575 Y65.5 Z0.063
X32.609 Y65.453 Z0.061
X32.642 Z0.06
Y65.547 Z0.056
X32.609 Z0.054
X32.575 Y65.5 Z0.052
X32.609 Y65.453 Z0.05
X32.642 Z0.049
Y65.547 Z0.045
X32.609 Z0.043
X32.575 Y65.5 Z0.041
X32.609 Y65.453 Z0.039
X32.642 Z0.038
Y65.547 Z0.034
X32.609 Z0.033
X32.575 Y65.5 Z0.03
X32.609 Y65.453 Z0.028
X32.642 Z0.027
Y65.547 Z0.023
X32.609 Z0.022
X32.575 Y65.5 Z0.019
X32.609 Y65.453 Z0.017
X32.642 Z0.016
Y65.547 Z0.012
X32.609 Z0.011
X32.575 Y65.5 Z0.008
X32.609 Y65.453 Z0.006
X32.642 Z0.005
Y65.547 Z0.001
X32.609 Z0.
X32.575 Y65.5 Z-0.003
X32.609 Y65.453 Z-0.005
X32.642 Z-0.006
Y65.547 Z-0.01
X32.609 Z-0.011
X32.575 Y65.5 Z-0.013
X32.609 Y65.453 Z-0.016
X32.642 Z-0.017
Y65.547 Z-0.021
X32.609 Z-0.022
X32.575 Y65.5 Z-0.024
X32.609 Y65.453 Z-0.027
X32.642 Z-0.028
Y65.547 Z-0.032
X32.609 Z-0.033
X32.575 Y65.5 Z-0.035
X32.609 Y65.453 Z-0.038
X32.642 Z-0.039
Y65.547 Z-0.043
X32.609 Z-0.044
X32.575 Y65.5 Z-0.046
X32.609 Y65.453 Z-0.049
X32.642 Z-0.05
Y65.547 Z-0.054
X32.609 Z-0.055
X32.575 Y65.5 Z-0.057
X32.609 Y65.453 Z-0.059
X32.642 Z-0.061
Y65.547 Z-0.065
X32.609 Z-0.066
X32.575 Y65.5 Z-0.068
X32.609 Y65.453 Z-0.07
X32.642 Z-0.072
Y65.547 Z-0.076
X32.609 Z-0.077
X32.575 Y65.5 Z-0.079
X32.609 Y65.453 Z-0.081
X32.642 Z-0.083
Y65.547 Z-0.087
X32.609 Z-0.088
X32.575 Y65.5 Z-0.09
X32.609 Y65.453 Z-0.092
X32.642 Z-0.094
Y65.547 Z-0.098
X32.609 Z-0.099
X32.575 Y65.5 Z-0.101
X32.609 Y65.453 Z-0.103
X32.642 Z-0.105
Y65.547 Z-0.109
X32.609 Z-0.11
X32.575 Y65.5 Z-0.112
X32.609 Y65.453 Z-0.114
X32.642 Z-0.115
Y65.547 Z-0.12
X32.609 Z-0.121
X32.575 Y65.5 Z-0.123
X32.609 Y65.453 Z-0.125
X32.642 Z-0.126
Y65.547 Z-0.131
X32.609 Z-0.132
X32.575 Y65.5 Z-0.134
X32.609 Y65.453 Z-0.136
X32.642 Z-0.137
Y65.547 Z-0.142
X32.609 Z-0.143
X32.575 Y65.5 Z-0.145
X32.609 Y65.453 Z-0.147
X32.642 Z-0.148
Y65.547 Z-0.153
X32.609 Z-0.154
X32.575 Y65.5 Z-0.156
X32.609 Y65.453 Z-0.158
X32.642 Z-0.159
Y65.547 Z-0.164
X32.609 Z-0.165
X32.575 Y65.5 Z-0.167
X32.609 Y65.453 Z-0.169
X32.642 Z-0.17
Y65.547 Z-0.175
X32.609 Z-0.176
X32.575 Y65.5 Z-0.178
X32.609 Y65.453 Z-0.18
X32.642 Z-0.181
Y65.547 Z-0.186
X32.609 Z-0.187
X32.575 Y65.5 Z-0.189
X32.609 Y65.453 Z-0.191
X32.642 Z-0.192
Y65.547 Z-0.197
X32.609 Z-0.198
X32.575 Y65.5 Z-0.2
X32.609 Y65.453 Z-0.202
X32.642 Z-0.203
Y65.547 Z-0.207
X32.609 Z-0.209
X32.575 Y65.5 Z-0.211
X32.609 Y65.453 Z-0.213
X32.642 Z-0.214
Y65.547 Z-0.218
X32.609 Z-0.22
X32.575 Y65.5 Z-0.222
X32.609 Y65.453 Z-0.224
X32.642 Z-0.225
Y65.547 Z-0.229
X32.609 Z-0.231
X32.575 Y65.5 Z-0.233
X32.609 Y65.453 Z-0.235
X32.642 Z-0.236
Y65.547 Z-0.24
X32.609 Z-0.242
X32.575 Y65.5 Z-0.244
X32.609 Y65.453 Z-0.246
X32.642 Z-0.247
Y65.547 Z-0.251
X32.609 Z-0.252
X32.575 Y65.5 Z-0.255
X32.609 Y65.453 Z-0.257
X32.642 Z-0.258
Y65.547 Z-0.262
X32.609 Z-0.263
X32.575 Y65.5 Z-0.266
X32.609 Y65.453 Z-0.268
X32.642 Z-0.269
Y65.547 Z-0.273
X32.609 Z-0.274
X32.575 Y65.5 Z-0.277
X32.609 Y65.453 Z-0.279
X32.642 Z-0.28
Y65.547 Z-0.284
X32.609 Z-0.285
X32.575 Y65.5 Z-0.288
X32.609 Y65.453 Z-0.29
X32.642 Z-0.291
Y65.547 Z-0.295
X32.609 Z-0.296
X32.575 Y65.5 Z-0.298
X32.609 Y65.453 Z-0.301
X32.642 Z-0.302
Y65.547 Z-0.306
X32.609 Z-0.307
X32.575 Y65.5 Z-0.309
X32.609 Y65.453 Z-0.312
X32.642 Z-0.313
Y65.547 Z-0.317
X32.609 Z-0.318
X32.575 Y65.5 Z-0.32
X32.609 Y65.453 Z-0.323
X32.642 Z-0.324
Y65.547 Z-0.328
X32.609 Z-0.329
X32.575 Y65.5 Z-0.331
X32.609 Y65.453 Z-0.334
X32.642 Z-0.335
Y65.547 Z-0.339
X32.609 Z-0.34
X32.575 Y65.5 Z-0.342
X32.609 Y65.453 Z-0.344
X32.642 Z-0.346
Y65.547 Z-0.35
X32.609 Z-0.351
X32.575 Y65.5 Z-0.353
X32.609 Y65.453 Z-0.355
X32.642 Z-0.357
Y65.547 Z-0.361
X32.609 Z-0.362
X32.575 Y65.5 Z-0.364
X32.609 Y65.453 Z-0.366
X32.642 Z-0.368
Y65.547 Z-0.372
X32.609 Z-0.373
X32.575 Y65.5 Z-0.375
X32.609 Y65.453 Z-0.377
X32.642 Z-0.379
Y65.547 Z-0.383
X32.609 Z-0.384
X32.575 Y65.5 Z-0.386
X32.609 Y65.453 Z-0.388
X32.642 Z-0.389
Y65.547 Z-0.394
X32.609 Z-0.395
X32.575 Y65.5 Z-0.397
X32.609 Y65.453 Z-0.399
X32.642 Z-0.4
Y65.547 Z-0.405
X32.609 Z-0.406
X32.575 Y65.5 Z-0.408
X32.609 Y65.453 Z-0.41
X32.642 Z-0.411
Y65.547 Z-0.416
X32.609 Z-0.417
X32.575 Y65.5 Z-0.419
X32.609 Y65.453 Z-0.421
X32.642 Z-0.422
Y65.547 Z-0.427
X32.609 Z-0.428
X32.575 Y65.5 Z-0.43
X32.609 Y65.453 Z-0.432
X32.642 Z-0.433
Y65.547 Z-0.438
X32.609 Z-0.439
X32.575 Y65.5 Z-0.441
X32.609 Y65.453 Z-0.443
X32.642 Z-0.444
Y65.547 Z-0.449
X32.609 Z-0.45
X32.575 Y65.5 Z-0.452
X32.609 Y65.453 Z-0.454
X32.642 Z-0.455
Y65.547 Z-0.46
X32.609 Z-0.461
X32.575 Y65.5 Z-0.463
X32.609 Y65.453 Z-0.465
X32.642 Z-0.466
Y65.547 Z-0.471
X32.609 Z-0.472
X32.575 Y65.5 Z-0.474
X32.609 Y65.453 Z-0.476
X32.642 Z-0.477
Y65.547 Z-0.481
X32.609 Z-0.483
X32.575 Y65.5 Z-0.485
X32.609 Y65.453 Z-0.487
X32.642 Z-0.488
Y65.547 Z-0.492
X32.609 Z-0.494
X32.575 Y65.5 Z-0.496
X32.609 Y65.453 Z-0.498
X32.642 Z-0.499
Y65.547 Z-0.503
X32.609 Z-0.505
X32.575 Y65.5 Z-0.507
X32.609 Y65.453 Z-0.509
X32.642 Z-0.51
Y65.547 Z-0.514
X32.609 Z-0.516
X32.575 Y65.5 Z-0.518
X32.609 Y65.453 Z-0.52
X32.642 Z-0.521
Y65.547 Z-0.525
X32.609 Z-0.527
X32.575 Y65.5 Z-0.529
X32.609 Y65.453 Z-0.531
X32.642 Z-0.532
Y65.547 Z-0.536
X32.609 Z-0.537
X32.575 Y65.5 Z-0.54
X32.609 Y65.453 Z-0.542
X32.642 Z-0.543
Y65.547 Z-0.547
X32.609 Z-0.548
X32.575 Y65.5 Z-0.551
X32.609 Y65.453 Z-0.553
X32.642 Z-0.554
Y65.547 Z-0.558
X32.609 Z-0.559
X32.575 Y65.5 Z-0.562
X32.609 Y65.453 Z-0.564
X32.642 Z-0.565
Y65.547 Z-0.569
X32.609 Z-0.57
X32.575 Y65.5 Z-0.573
X32.609 Y65.453 Z-0.575
X32.642 Z-0.576
Y65.547 Z-0.58
X32.609 Z-0.581
X32.575 Y65.5 Z-0.583
X32.609 Y65.453 Z-0.586
X32.642 Z-0.587
Y65.547 Z-0.591
X32.609 Z-0.592
X32.575 Y65.5 Z-0.594
X32.609 Y65.453 Z-0.597
X32.642 Z-0.598
Y65.547 Z-0.602
X32.609 Z-0.603
X32.575 Y65.5 Z-0.605
X32.609 Y65.453 Z-0.608
X32.642 Z-0.609
Y65.547 Z-0.613
X32.609 Z-0.614
X32.575 Y65.5 Z-0.616
X32.609 Y65.453 Z-0.619
X32.642 Z-0.62
Y65.547 Z-0.624
X32.609 Z-0.625
X32.575 Y65.5 Z-0.627
X32.609 Y65.453 Z-0.629
X32.642 Z-0.631
Y65.547 Z-0.635
X32.609 Z-0.636
X32.575 Y65.5 Z-0.638
X32.609 Y65.453 Z-0.64
X32.642 Z-0.642
Y65.547 Z-0.646
X32.609 Z-0.647
X32.575 Y65.5 Z-0.649
X32.609 Y65.453 Z-0.651
X32.642 Z-0.653
Y65.547 Z-0.657
X32.609 Z-0.658
X32.575 Y65.5 Z-0.66
X32.609 Y65.453 Z-0.662
X32.642 Z-0.664
Y65.547 Z-0.668
X32.609 Z-0.669
X32.575 Y65.5 Z-0.671
X32.609 Y65.453 Z-0.673
X32.642 Z-0.674
Y65.547 Z-0.679
X32.609 Z-0.68
X32.575 Y65.5 Z-0.682
X32.609 Y65.453 Z-0.684
X32.642 Z-0.685
Y65.547 Z-0.69
X32.609 Z-0.691
X32.575 Y65.5 Z-0.693
X32.609 Y65.453 Z-0.695
X32.642 Z-0.696
Y65.547 Z-0.701
X32.609 Z-0.702
X32.575 Y65.5 Z-0.704
X32.609 Y65.453 Z-0.706
X32.642 Z-0.707
Y65.547 Z-0.712
X32.609 Z-0.713
X32.575 Y65.5 Z-0.715
X32.609 Y65.453 Z-0.717
X32.642 Z-0.718
Y65.547 Z-0.723
X32.609 Z-0.724
X32.575 Y65.5 Z-0.726
X32.609 Y65.453 Z-0.728
X32.642 Z-0.729
Y65.547 Z-0.734
X32.609 Z-0.735
X32.575 Y65.5 Z-0.737
X32.609 Y65.453 Z-0.739
X32.642 Z-0.74
Y65.547 Z-0.745
X32.609 Z-0.746
X32.575 Y65.5 Z-0.748
X32.609 Y65.453 Z-0.75
X32.642 Z-0.751
Y65.547 Z-0.756
X32.609 Z-0.757
X32.575 Y65.5 Z-0.759
X32.609 Y65.453 Z-0.761
X32.642 Z-0.762
Y65.547 Z-0.766
X32.609 Z-0.768
X32.575 Y65.5 Z-0.77
X32.609 Y65.453 Z-0.772
X32.642 Z-0.773
Y65.547 Z-0.777
X32.609 Z-0.779
X32.575 Y65.5 Z-0.781
X32.609 Y65.453 Z-0.783
X32.642 Z-0.784
Y65.547 Z-0.788
X32.609 Z-0.79
X32.575 Y65.5 Z-0.792
X32.609 Y65.453 Z-0.794
X32.642 Z-0.795
Y65.547 Z-0.799
X32.609 Z-0.801
X32.575 Y65.5 Z-0.803
X32.609 Y65.453 Z-0.805
X32.642 Z-0.806
Y65.547 Z-0.81
X32.609 Z-0.812
X32.575 Y65.5 Z-0.814
X32.609 Y65.453 Z-0.816
X32.642 Z-0.817
Y65.547 Z-0.821
X32.609 Z-0.822
X32.575 Y65.5 Z-0.825
X32.609 Y65.453 Z-0.827
X32.642 Z-0.828
Y65.547 Z-0.832
X32.609 Z-0.833
X32.575 Y65.5 Z-0.836
X32.609 Y65.453 Z-0.838
X32.642 Z-0.839
Y65.547 Z-0.843
X32.609 Z-0.844
X32.575 Y65.5 Z-0.847
X32.609 Y65.453 Z-0.849
X32.642 Z-0.85
Y65.547 Z-0.854
X32.609 Z-0.855
X32.575 Y65.5 Z-0.858
X32.609 Y65.453 Z-0.86
X32.642 Z-0.861
Y65.547 Z-0.865
X32.609 Z-0.866
X32.575 Y65.5 Z-0.868
X32.609 Y65.453 Z-0.871
X32.642 Z-0.872
Y65.547 Z-0.876
X32.609 Z-0.877
X32.575 Y65.5 Z-0.879
X32.609 Y65.453 Z-0.882
X32.642 Z-0.883
Y65.547 Z-0.887
X32.609 Z-0.888
X32.575 Y65.5 Z-0.89
X32.609 Y65.453 Z-0.893
X32.642 Z-0.894
Y65.547 Z-0.898
X32.609 Z-0.899
X32.575 Y65.5 Z-0.901
X32.609 Y65.453 Z-0.904
X32.642 Z-0.905
Y65.547 Z-0.909
X32.609 Z-0.91
X32.575 Y65.5 Z-0.912
X32.609 Y65.453 Z-0.914
X32.642 Z-0.916
Y65.547 Z-0.92
X32.609 Z-0.921
X32.575 Y65.5 Z-0.923
X32.609 Y65.453 Z-0.925
X32.642 Z-0.927
Y65.547 Z-0.931
X32.609 Z-0.932
X32.575 Y65.5 Z-0.934
X32.609 Y65.453 Z-0.936
X32.642 Z-0.938
Y65.547 Z-0.942
X32.609 Z-0.943
X32.575 Y65.5 Z-0.945
X32.609 Y65.453 Z-0.947
X32.642 Z-0.949
Y65.547 Z-0.953
X32.609 Z-0.954
X32.575 Y65.5 Z-0.956
X32.609 Y65.453 Z-0.958
X32.642 Z-0.959
Y65.547 Z-0.964
X32.609 Z-0.965
X32.575 Y65.5 Z-0.967
X32.609 Y65.453 Z-0.969
X32.642 Z-0.97
Y65.547 Z-0.975
X32.609 Z-0.976
X32.575 Y65.5 Z-0.978
X32.609 Y65.453 Z-0.98
X32.642 Z-0.981
Y65.547 Z-0.986
X32.609 Z-0.987
X32.575 Y65.5 Z-0.989
X32.609 Y65.453 Z-0.991
X32.642 Z-0.992
Y65.547 Z-0.997
X32.609 Z-0.998
X32.575 Y65.5 Z-1.
X32.609 Y65.453 F600.
X32.642
Y65.547
X32.609
X32.575 Y65.5
Z1. F900.
G0 X32.651 Y86.043
G1 Z0.1 F30.
X32.642 Y86.047 F900.
X32.609 Z0.098
X32.575 Y86. Z0.096
X32.609 Y85.953 Z0.094
X32.642 Z0.093
Y86.047 Z0.089
X32.609 Z0.087
X32.575 Y86. Z0.085
X32.609 Y85.953 Z0.083
X32.642 Z0.082
Y86.047 Z0.078
X32.609 Z0.077
X32.575 Y86. Z0.074
X32.609 Y85.953 Z0.072
X32.642 Z0.071
Y86.047 Z0.067
X32.609 Z0.066
X32.575 Y86. Z0.063
X32.609 Y85.953 Z0.061
X32.642 Z0.06
Y86.047 Z0.056
X32.609 Z0.055
X32.575 Y86. Z0.052
X32.609 Y85.953 Z0.05
X32.642 Z0.049
Y86.047 Z0.045
X32.609 Z0.044
X32.575 Y86. Z0.041
X32.609 Y85.953 Z0.039
X32.642 Z0.038
Y86.047 Z0.034
X32.609 Z0.033
X32.575 Y86. Z0.031
X32.609 Y85.953 Z0.028
X32.642 Z0.027
Y86.047 Z0.023
X32.609 Z0.022
X32.575 Y86. Z0.02
X32.609 Y85.953 Z0.017
X32.642 Z0.016
Y86.047 Z0.012
X32.609 Z0.011
X32.575 Y86. Z0.009
X32.609 Y85.953 Z0.006
X32.642 Z0.005
Y86.047 Z0.001
X32.609 Z0.
X32.575 Y86. Z-0.002
X32.609 Y85.953 Z-0.005
X32.642 Z-0.006
Y86.047 Z-0.01
X32.609 Z-0.011
X32.575 Y86. Z-0.013
X32.609 Y85.953 Z-0.015
X32.642 Z-0.017
Y86.047 Z-0.021
X32.609 Z-0.022
X32.575 Y86. Z-0.024
X32.609 Y85.953 Z-0.026
X32.642 Z-0.028
Y86.047 Z-0.032
X32.609 Z-0.033
X32.575 Y86. Z-0.035
X32.609 Y85.953 Z-0.037
X32.642 Z-0.039
Y86.047 Z-0.043
X32.609 Z-0.044
X32.575 Y86. Z-0.046
X32.609 Y85.953 Z-0.048
X32.642 Z-0.05
Y86.047 Z-0.054
X32.609 Z-0.055
X32.575 Y86. Z-0.057
X32.609 Y85.953 Z-0.059
X32.642 Z-0.061
Y86.047 Z-0.065
X32.609 Z-0.066
X32.575 Y86. Z-0.068
X32.609 Y85.953 Z-0.07
X32.642 Z-0.071
Y86.047 Z-0.076
X32.609 Z-0.077
X32.575 Y86. Z-0.079
X32.609 Y85.953 Z-0.081
X32.642 Z-0.082
Y86.047 Z-0.087
X32.609 Z-0.088
X32.575 Y86. Z-0.09
X32.609 Y85.953 Z-0.092
X32.642 Z-0.093
Y86.047 Z-0.098
X32.609 Z-0.099
X32.575 Y86. Z-0.101
X32.609 Y85.953 Z-0.103
X32.642 Z-0.104
Y86.047 Z-0.109
X32.609 Z-0.11
X32.575 Y86. Z-0.112
X32.609 Y85.953 Z-0.114
X32.642 Z-0.115
Y86.047 Z-0.12
X32.609 Z-0.121
X32.575 Y86. Z-0.123
X32.609 Y85.953 Z-0.125
X32.642 Z-0.126
Y86.047 Z-0.131
X32.609 Z-0.132
X32.575 Y86. Z-0.134
X32.609 Y85.953 Z-0.136
X32.642 Z-0.137
Y86.047 Z-0.142
X32.609 Z-0.143
X32.575 Y86. Z-0.145
X32.609 Y85.953 Z-0.147
X32.642 Z-0.148
Y86.047 Z-0.153
X32.609 Z-0.154
X32.575 Y86. Z-0.156
X32.609 Y85.953 Z-0.158
X32.642 Z-0.159
Y86.047 Z-0.163
X32.609 Z-0.165
X32.575 Y86. Z-0.167
X32.609 Y85.953 Z-0.169
X32.642 Z-0.17
Y86.047 Z-0.174
X32.609 Z-0.176
X32.575 Y86. Z-0.178
X32.609 Y85.953 Z-0.18
X32.642 Z-0.181
Y86.047 Z-0.185
X32.609 Z-0.187
X32.575 Y86. Z-0.189
X32.609 Y85.953 Z-0.191
X32.642 Z-0.192
Y86.047 Z-0.196
X32.609 Z-0.198
X32.575 Y86. Z-0.2
X32.609 Y85.953 Z-0.202
X32.642 Z-0.203
Y86.047 Z-0.207
X32.609 Z-0.209
X32.575 Y86. Z-0.211
X32.609 Y85.953 Z-0.213
X32.642 Z-0.214
Y86.047 Z-0.218
X32.609 Z-0.219
X32.575 Y86. Z-0.222
X32.609 Y85.953 Z-0.224
X32.642 Z-0.225
Y86.047 Z-0.229
X32.609 Z-0.23
X32.575 Y86. Z-0.233
X32.609 Y85.953 Z-0.235
X32.642 Z-0.236
Y86.047 Z-0.24
X32.609 Z-0.241
X32.575 Y86. Z-0.244
X32.609 Y85.953 Z-0.246
X32.642 Z-0.247
Y86.047 Z-0.251
X32.609 Z-0.252
X32.575 Y86. Z-0.255
X32.609 Y85.953 Z-0.257
X32.642 Z-0.258
Y86.047 Z-0.262
X32.609 Z-0.263
X32.575 Y86. Z-0.265
X32.609 Y85.953 Z-0.268
X32.642 Z-0.269
Y86.047 Z-0.273
X32.609 Z-0.274
X32.575 Y86. Z-0.276
X32.609 Y85.953 Z-0.279
X32.642 Z-0.28
Y86.047 Z-0.284
X32.609 Z-0.285
X32.575 Y86. Z-0.287
X32.609 Y85.953 Z-0.29
X32.642 Z-0.291
Y86.047 Z-0.295
X32.609 Z-0.296
X32.575 Y86. Z-0.298
X32.609 Y85.953 Z-0.301
X32.642 Z-0.302
Y86.047 Z-0.306
X32.609 Z-0.307
X32.575 Y86. Z-0.309
X32.609 Y85.953 Z-0.311
X32.642 Z-0.313
Y86.047 Z-0.317
X32.609 Z-0.318
X32.575 Y86. Z-0.32
X32.609 Y85.953 Z-0.322
X32.642 Z-0.324
Y86.047 Z-0.328
X32.609 Z-0.329
X32.575 Y86. Z-0.331
X32.609 Y85.953 Z-0.333
X32.642 Z-0.335
Y86.047 Z-0.339
X32.609 Z-0.34
X32.575 Y86. Z-0.342
X32.609 Y85.953 Z-0.344
X32.642 Z-0.346
Y86.047 Z-0.35
X32.609 Z-0.351
X32.575 Y86. Z-0.353
X32.609 Y85.953 Z-0.355
X32.642 Z-0.357
Y86.047 Z-0.361
X32.609 Z-0.362
X32.575 Y86. Z-0.364
X32.609 Y85.953 Z-0.366
X32.642 Z-0.367
Y86.047 Z-0.372
X32.609 Z-0.373
X32.575 Y86. Z-0.375
X32.609 Y85.953 Z-0.377
X32.642 Z-0.378
Y86.047 Z-0.383
X32.609 Z-0.384
X32.575 Y86. Z-0.386
X32.609 Y85.953 Z-0.388
X32.642 Z-0.389
Y86.047 Z-0.394
X32.609 Z-0.395
X32.575 Y86. Z-0.397
X32.609 Y85.953 Z-0.399
X32.642 Z-0.4
Y86.047 Z-0.405
X32.609 Z-0.406
X32.575 Y86. Z-0.408
X32.609 Y85.953 Z-0.41
X32.642 Z-0.411
Y86.047 Z-0.416
X32.609 Z-0.417
X32.575 Y86. Z-0.419
X32.609 Y85.953 Z-0.421
X32.642 Z-0.422
Y86.047 Z-0.427
X32.609 Z-0.428
X32.575 Y86. Z-0.43
X32.609 Y85.953 Z-0.432
X32.642 Z-0.433
Y86.047 Z-0.438
X32.609 Z-0.439
X32.575 Y86. Z-0.441
X32.609 Y85.953 Z-0.443
X32.642 Z-0.444
Y86.047 Z-0.449
X32.609 Z-0.45
X32.575 Y86. Z-0.452
X32.609 Y85.953 Z-0.454
X32.642 Z-0.455
Y86.047 Z-0.459
X32.609 Z-0.461
X32.575 Y86. Z-0.463
X32.609 Y85.953 Z-0.465
X32.642 Z-0.466
Y86.047 Z-0.47
X32.609 Z-0.472
X32.575 Y86. Z-0.474
X32.609 Y85.953 Z-0.476
X32.642 Z-0.477
Y86.047 Z-0.481
X32.609 Z-0.483
X32.575 Y86. Z-0.485
X32.609 Y85.953 Z-0.487
X32.642 Z-0.488
Y86.047 Z-0.492
X32.609 Z-0.494
X32.575 Y86. Z-0.496
X32.609 Y85.953 Z-0.498
X32.642 Z-0.499
Y86.047 Z-0.503
X32.609 Z-0.505
X32.575 Y86. Z-0.507
X32.609 Y85.953 Z-0.509
X32.642 Z-0.51
Y86.047 Z-0.514
X32.609 Z-0.515
X32.575 Y86. Z-0.518
X32.609 Y85.953 Z-0.52
X32.642 Z-0.521
Y86.047 Z-0.525
X32.609 Z-0.526
X32.575 Y86. Z-0.529
X32.609 Y85.953 Z-0.531
X32.642 Z-0.532
Y86.047 Z-0.536
X32.609 Z-0.537
X32.575 Y86. Z-0.54
X32.609 Y85.953 Z-0.542
X32.642 Z-0.543
Y86.047 Z-0.547
X32.609 Z-0.548
X32.575 Y86. Z-0.551
X32.609 Y85.953 Z-0.553
X32.642 Z-0.554
Y86.047 Z-0.558
X32.609 Z-0.559
X32.575 Y86. Z-0.561
X32.609 Y85.953 Z-0.564
X32.642 Z-0.565
Y86.047 Z-0.569
X32.609 Z-0.57
X32.575 Y86. Z-0.572
X32.609 Y85.953 Z-0.575
X32.642 Z-0.576
Y86.047 Z-0.58
X32.609 Z-0.581
X32.575 Y86. Z-0.583
X32.609 Y85.953 Z-0.586
X32.642 Z-0.587
Y86.047 Z-0.591
X32.609 Z-0.592
X32.575 Y86. Z-0.594
X32.609 Y85.953 Z-0.597
X32.642 Z-0.598
Y86.047 Z-0.602
X32.609 Z-0.603
X32.575 Y86. Z-0.605
X32.609 Y85.953 Z-0.607
X32.642 Z-0.609
Y86.047 Z-0.613
X32.609 Z-0.614
X32.575 Y86. Z-0.616
X32.609 Y85.953 Z-0.618
X32.642 Z-0.62
Y86.047 Z-0.624
X32.609 Z-0.625
X32.575 Y86. Z-0.627
X32.609 Y85.953 Z-0.629
X32.642 Z-0.631
Y86.047 Z-0.635
X32.609 Z-0.636
X32.575 Y86. Z-0.638
X32.609 Y85.953 Z-0.64
X32.642 Z-0.642
Y86.047 Z-0.646
X32.609 Z-0.647
X32.575 Y86. Z-0.649
X32.609 Y85.953 Z-0.651
X32.642 Z-0.653
Y86.047 Z-0.657
X32.609 Z-0.658
X32.575 Y86. Z-0.66
X32.609 Y85.953 Z-0.662
X32.642 Z-0.663
Y86.047 Z-0.668
X32.609 Z-0.669
X32.575 Y86. Z-0.671
X32.609 Y85.953 Z-0.673
X32.642 Z-0.674
Y86.047 Z-0.679
X32.609 Z-0.68
X32.575 Y86. Z-0.682
X32.609 Y85.953 Z-0.684
X32.642 Z-0.685
Y86.047 Z-0.69
X32.609 Z-0.691
X32.575 Y86. Z-0.693
X32.609 Y85.953 Z-0.695
X32.642 Z-0.696
Y86.047 Z-0.701
X32.609 Z-0.702
X32.575 Y86. Z-0.704
X32.609 Y85.953 Z-0.706
X32.642 Z-0.707
Y86.047 Z-0.712
X32.609 Z-0.713
X32.575 Y86. Z-0.715
X32.609 Y85.953 Z-0.717
X32.642 Z-0.718
Y86.047 Z-0.723
X32.609 Z-0.724
X32.575 Y86. Z-0.726
X32.609 Y85.953 Z-0.728
X32.642 Z-0.729
Y86.047 Z-0.734
X32.609 Z-0.735
X32.575 Y86. Z-0.737
X32.609 Y85.953 Z-0.739
X32.642 Z-0.74
Y86.047 Z-0.745
X32.609 Z-0.746
X32.575 Y86. Z-0.748
X32.609 Y85.953 Z-0.75
X32.642 Z-0.751
Y86.047 Z-0.755
X32.609 Z-0.757
X32.575 Y86. Z-0.759
X32.609 Y85.953 Z-0.761
X32.642 Z-0.762
Y86.047 Z-0.766
X32.609 Z-0.768
X32.575 Y86. Z-0.77
X32.609 Y85.953 Z-0.772
X32.642 Z-0.773
Y86.047 Z-0.777
X32.609 Z-0.779
X32.575 Y86. Z-0.781
X32.609 Y85.953 Z-0.783
X32.642 Z-0.784
Y86.047 Z-0.788
X32.609 Z-0.79
X32.575 Y86. Z-0.792
X32.609 Y85.953 Z-0.794
X32.642 Z-0.795
Y86.047 Z-0.799
X32.609 Z-0.801
X32.575 Y86. Z-0.803
X32.609 Y85.953 Z-0.805
X32.642 Z-0.806
Y86.047 Z-0.81
X32.609 Z-0.811
X32.575 Y86. Z-0.814
X32.609 Y85.953 Z-0.816
X32.642 Z-0.817
Y86.047 Z-0.821
X32.609 Z-0.822
X32.575 Y86. Z-0.825
X32.609 Y85.953 Z-0.827
X32.642 Z-0.828
Y86.047 Z-0.832
X32.609 Z-0.833
X32.575 Y86. Z-0.836
X32.609 Y85.953 Z-0.838
X32.642 Z-0.839
Y86.047 Z-0.843
X32.609 Z-0.844
X32.575 Y86. Z-0.847
X32.609 Y85.953 Z-0.849
X32.642 Z-0.85
Y86.047 Z-0.854
X32.609 Z-0.855
X32.575 Y86. Z-0.857
X32.609 Y85.953 Z-0.86
X32.642 Z-0.861
Y86.047 Z-0.865
X32.609 Z-0.866
X32.575 Y86. Z-0.868
X32.609 Y85.953 Z-0.871
X32.642 Z-0.872
Y86.047 Z-0.876
X32.609 Z-0.877
X32.575 Y86. Z-0.879
X32.609 Y85.953 Z-0.882
X32.642 Z-0.883
Y86.047 Z-0.887
X32.609 Z-0.888
X32.575 Y86. Z-0.89
X32.609 Y85.953 Z-0.893
X32.642 Z-0.894
Y86.047 Z-0.898
X32.609 Z-0.899
X32.575 Y86. Z-0.901
X32.609 Y85.953 Z-0.903
X32.642 Z-0.905
Y86.047 Z-0.909
X32.609 Z-0.91
X32.575 Y86. Z-0.912
X32.609 Y85.953 Z-0.914
X32.642 Z-0.916
Y86.047 Z-0.92
X32.609 Z-0.921
X32.575 Y86. Z-0.923
X32.609 Y85.953 Z-0.925
X32.642 Z-0.927
Y86.047 Z-0.931
X32.609 Z-0.932
X32.575 Y86. Z-0.934
X32.609 Y85.953 Z-0.936
X32.642 Z-0.938
Y86.047 Z-0.942
X32.609 Z-0.943
X32.575 Y86. Z-0.945
X32.609 Y85.953 Z-0.947
X32.642 Z-0.949
Y86.047 Z-0.953
X32.609 Z-0.954
X32.575 Y86. Z-0.956
X32.609 Y85.953 Z-0.958
X32.642 Z-0.959
Y86.047 Z-0.964
X32.609 Z-0.965
X32.575 Y86. Z-0.967
X32.609 Y85.953 Z-0.969
X32.642 Z-0.97
Y86.047 Z-0.975
X32.609 Z-0.976
X32.575 Y86. Z-0.978
X32.609 Y85.953 Z-0.98
X32.642 Z-0.981
Y86.047 Z-0.986
X32.609 Z-0.987
X32.575 Y86. Z-0.989
X32.609 Y85.953 Z-0.991
X32.642 Z-0.992
Y86.047 Z-0.997
X32.609 Z-0.998
X32.575 Y86. Z-1.
X32.609 Y85.953 F600.
X32.642
Y86.047
X32.609
X32.575 Y86.
Z1. F900.
G0 X32.638 Y106.452
G1 Z0.1 F30.
X32.642 Y106.547 Z0.096 F900.
X32.609 Z0.094
X32.576 Y106.5 Z0.092
X32.609 Y106.453 Z0.09
X32.642 Z0.089
Y106.547 Z0.085
X32.609 Z0.083
X32.576 Y106.5 Z0.081
X32.609 Y106.453 Z0.079
X32.642 Z0.078
Y106.547 Z0.074
X32.609 Z0.073
X32.576 Y106.5 Z0.07
X32.609 Y106.453 Z0.068
X32.642 Z0.067
Y106.547 Z0.063
X32.609 Z0.062
X32.576 Y106.5 Z0.059
X32.609 Y106.453 Z0.057
X32.642 Z0.056
Y106.547 Z0.052
X32.609 Z0.051
X32.576 Y106.5 Z0.049
X32.609 Y106.453 Z0.046
X32.642 Z0.045
Y106.547 Z0.041
X32.609 Z0.04
X32.576 Y106.5 Z0.038
X32.609 Y106.453 Z0.035
X32.642 Z0.034
Y106.547 Z0.03
X32.609 Z0.029
X32.576 Y106.5 Z0.027
X32.609 Y106.453 Z0.025
X32.642 Z0.023
Y106.547 Z0.019
X32.609 Z0.018
X32.576 Y106.5 Z0.016
X32.609 Y106.453 Z0.014
X32.642 Z0.012
Y106.547 Z0.008
X32.609 Z0.007
X32.576 Y106.5 Z0.005
X32.609 Y106.453 Z0.003
X32.642 Z0.002
Y106.547 Z-0.003
X32.609 Z-0.004
X32.576 Y106.5 Z-0.006
X32.609 Y106.453 Z-0.008
X32.642 Z-0.009
Y106.547 Z-0.014
X32.609 Z-0.015
X32.576 Y106.5 Z-0.017
X32.609 Y106.453 Z-0.019
X32.642 Z-0.02
Y106.547 Z-0.025
X32.609 Z-0.026
X32.576 Y106.5 Z-0.028
X32.609 Y106.453 Z-0.03
X32.642 Z-0.031
Y106.547 Z-0.036
X32.609 Z-0.037
X32.576 Y106.5 Z-0.039
X32.609 Y106.453 Z-0.041
X32.642 Z-0.042
Y106.547 Z-0.046
X32.609 Z-0.048
X32.576 Y106.5 Z-0.05
X32.609 Y106.453 Z-0.052
X32.642 Z-0.053
Y106.547 Z-0.057
X32.609 Z-0.059
X32.576 Y106.5 Z-0.061
X32.609 Y106.453 Z-0.063
X32.642 Z-0.064
Y106.547 Z-0.068
X32.609 Z-0.069
X32.576 Y106.5 Z-0.072
X32.609 Y106.453 Z-0.074
X32.642 Z-0.075
Y106.547 Z-0.079
X32.609 Z-0.08
X32.576 Y106.5 Z-0.083
X32.609 Y106.453 Z-0.085
X32.642 Z-0.086
Y106.547 Z-0.09
X32.609 Z-0.091
X32.576 Y106.5 Z-0.093
X32.609 Y106.453 Z-0.096
X32.642 Z-0.097
Y106.547 Z-0.101
X32.609 Z-0.102
X32.576 Y106.5 Z-0.104
X32.609 Y106.453 Z-0.106
X32.642 Z-0.108
Y106.547 Z-0.112
X32.609 Z-0.113
X32.576 Y106.5 Z-0.115
X32.609 Y106.453 Z-0.117
X32.642 Z-0.119
Y106.547 Z-0.123
X32.609 Z-0.124
X32.576 Y106.5 Z-0.126
X32.609 Y106.453 Z-0.128
X32.642 Z-0.13
Y106.547 Z-0.134
X32.609 Z-0.135
X32.576 Y106.5 Z-0.137
X32.609 Y106.453 Z-0.139
X32.642 Z-0.14
Y106.547 Z-0.145
X32.609 Z-0.146
X32.576 Y106.5 Z-0.148
X32.609 Y106.453 Z-0.15
X32.642 Z-0.151
Y106.547 Z-0.156
X32.609 Z-0.157
X32.576 Y106.5 Z-0.159
X32.609 Y106.453 Z-0.161
X32.642 Z-0.162
Y106.547 Z-0.167
X32.609 Z-0.168
X32.576 Y106.5 Z-0.17
X32.609 Y106.453 Z-0.172
X32.642 Z-0.173
Y106.547 Z-0.177
X32.609 Z-0.179
X32.576 Y106.5 Z-0.181
X32.609 Y106.453 Z-0.183
X32.642 Z-0.184
Y106.547 Z-0.188
X32.609 Z-0.19
X32.576 Y106.5 Z-0.192
X32.609 Y106.453 Z-0.194
X32.642 Z-0.195
Y106.547 Z-0.199
X32.609 Z-0.201
X32.576 Y106.5 Z-0.203
X32.609 Y106.453 Z-0.205
X32.642 Z-0.206
Y106.547 Z-0.21
X32.609 Z-0.211
X32.576 Y106.5 Z-0.214
X32.609 Y106.453 Z-0.216
X32.642 Z-0.217
Y106.547 Z-0.221
X32.609 Z-0.222
X32.576 Y106.5 Z-0.224
X32.609 Y106.453 Z-0.227
X32.642 Z-0.228
Y106.547 Z-0.232
X32.609 Z-0.233
X32.576 Y106.5 Z-0.235
X32.609 Y106.453 Z-0.238
X32.642 Z-0.239
Y106.547 Z-0.243
X32.609 Z-0.244
X32.576 Y106.5 Z-0.246
X32.609 Y106.453 Z-0.248
X32.642 Z-0.25
Y106.547 Z-0.254
X32.609 Z-0.255
X32.576 Y106.5 Z-0.257
X32.609 Y106.453 Z-0.259
X32.642 Z-0.261
Y106.547 Z-0.265
X32.609 Z-0.266
X32.576 Y106.5 Z-0.268
X32.609 Y106.453 Z-0.27
X32.642 Z-0.272
Y106.547 Z-0.276
X32.609 Z-0.277
X32.576 Y106.5 Z-0.279
X32.609 Y106.453 Z-0.281
X32.642 Z-0.282
Y106.547 Z-0.287
X32.609 Z-0.288
X32.576 Y106.5 Z-0.29
X32.609 Y106.453 Z-0.292
X32.642 Z-0.293
Y106.547 Z-0.298
X32.609 Z-0.299
X32.576 Y106.5 Z-0.301
X32.609 Y106.453 Z-0.303
X32.642 Z-0.304
Y106.547 Z-0.309
X32.609 Z-0.31
X32.576 Y106.5 Z-0.312
X32.609 Y106.453 Z-0.314
X32.642 Z-0.315
Y106.547 Z-0.319
X32.609 Z-0.321
X32.576 Y106.5 Z-0.323
X32.609 Y106.453 Z-0.325
X32.642 Z-0.326
Y106.547 Z-0.33
X32.609 Z-0.332
X32.576 Y106.5 Z-0.334
X32.609 Y106.453 Z-0.336
X32.642 Z-0.337
Y106.547 Z-0.341
X32.609 Z-0.343
X32.576 Y106.5 Z-0.345
X32.609 Y106.453 Z-0.347
X32.642 Z-0.348
Y106.547 Z-0.352
X32.609 Z-0.353
X32.576 Y106.5 Z-0.356
X32.609 Y106.453 Z-0.358
X32.642 Z-0.359
Y106.547 Z-0.363
X32.609 Z-0.364
X32.576 Y106.5 Z-0.366
X32.609 Y106.453 Z-0.369
X32.642 Z-0.37
Y106.547 Z-0.374
X32.609 Z-0.375
X32.576 Y106.5 Z-0.377
X32.609 Y106.453 Z-0.38
X32.642 Z-0.381
Y106.547 Z-0.385
X32.609 Z-0.386
X32.576 Y106.5 Z-0.388
X32.609 Y106.453 Z-0.39
X32.642 Z-0.392
Y106.547 Z-0.396
X32.609 Z-0.397
X32.576 Y106.5 Z-0.399
X32.609 Y106.453 Z-0.401
X32.642 Z-0.403
Y106.547 Z-0.407
X32.609 Z-0.408
X32.576 Y106.5 Z-0.41
X32.609 Y106.453 Z-0.412
X32.642 Z-0.413
Y106.547 Z-0.418
X32.609 Z-0.419
X32.576 Y106.5 Z-0.421
X32.609 Y106.453 Z-0.423
X32.642 Z-0.424
Y106.547 Z-0.429
X32.609 Z-0.43
X32.576 Y106.5 Z-0.432
X32.609 Y106.453 Z-0.434
X32.642 Z-0.435
Y106.547 Z-0.44
X32.609 Z-0.441
X32.576 Y106.5 Z-0.443
X32.609 Y106.453 Z-0.445
X32.642 Z-0.446
Y106.547 Z-0.451
X32.609 Z-0.452
X32.576 Y106.5 Z-0.454
X32.609 Y106.453 Z-0.456
X32.642 Z-0.457
Y106.547 Z-0.461
X32.609 Z-0.463
X32.576 Y106.5 Z-0.465
X32.609 Y106.453 Z-0.467
X32.642 Z-0.468
Y106.547 Z-0.472
X32.609 Z-0.474
X32.576 Y106.5 Z-0.476
X32.609 Y106.453 Z-0.478
X32.642 Z-0.479
Y106.547 Z-0.483
X32.609 Z-0.484
X32.576 Y106.5 Z-0.487
X32.609 Y106.453 Z-0.489
X32.642 Z-0.49
Y106.547 Z-0.494
X32.609 Z-0.495
X32.576 Y106.5 Z-0.498
X32.609 Y106.453 Z-0.5
X32.642 Z-0.501
Y106.547 Z-0.505
X32.609 Z-0.506
X32.576 Y106.5 Z-0.508
X32.609 Y106.453 Z-0.511
X32.642 Z-0.512
Y106.547 Z-0.516
X32.609 Z-0.517
X32.576 Y106.5 Z-0.519
X32.609 Y106.453 Z-0.522
X32.642 Z-0.523
Y106.547 Z-0.527
X32.609 Z-0.528
X32.576 Y106.5 Z-0.53
X32.609 Y106.453 Z-0.532
X32.642 Z-0.534
Y106.547 Z-0.538
X32.609 Z-0.539
X32.576 Y106.5 Z-0.541
X32.609 Y106.453 Z-0.543
X32.642 Z-0.545
Y106.547 Z-0.549
X32.609 Z-0.55
X32.576 Y106.5 Z-0.552
X32.609 Y106.453 Z-0.554
X32.642 Z-0.555
Y106.547 Z-0.56
X32.609 Z-0.561
X32.576 Y106.5 Z-0.563
X32.609 Y106.453 Z-0.565
X32.642 Z-0.566
Y106.547 Z-0.571
X32.609 Z-0.572
X32.576 Y106.5 Z-0.574
X32.609 Y106.453 Z-0.576
X32.642 Z-0.577
Y106.547 Z-0.582
X32.609 Z-0.583
X32.576 Y106.5 Z-0.585
X32.609 Y106.453 Z-0.587
X32.642 Z-0.588
Y106.547 Z-0.593
X32.609 Z-0.594
X32.576 Y106.5 Z-0.596
X32.609 Y106.453 Z-0.598
X32.642 Z-0.599
Y106.547 Z-0.603
X32.609 Z-0.605
X32.576 Y106.5 Z-0.607
X32.609 Y106.453 Z-0.609
X32.642 Z-0.61
Y106.547 Z-0.614
X32.609 Z-0.616
X32.576 Y106.5 Z-0.618
X32.609 Y106.453 Z-0.62
X32.642 Z-0.621
Y106.547 Z-0.625
X32.609 Z-0.626
X32.576 Y106.5 Z-0.629
X32.609 Y106.453 Z-0.631
X32.642 Z-0.632
Y106.547 Z-0.636
X32.609 Z-0.637
X32.576 Y106.5 Z-0.64
X32.609 Y106.453 Z-0.642
X32.642 Z-0.643
Y106.547 Z-0.647
X32.609 Z-0.648
X32.576 Y106.5 Z-0.65
X32.609 Y106.453 Z-0.653
X32.642 Z-0.654
Y106.547 Z-0.658
X32.609 Z-0.659
X32.576 Y106.5 Z-0.661
X32.609 Y106.453 Z-0.664
X32.642 Z-0.665
Y106.547 Z-0.669
X32.609 Z-0.67
X32.576 Y106.5 Z-0.672
X32.609 Y106.453 Z-0.674
X32.642 Z-0.676
Y106.547 Z-0.68
X32.609 Z-0.681
X32.576 Y106.5 Z-0.683
X32.609 Y106.453 Z-0.685
X32.642 Z-0.687
Y106.547 Z-0.691
X32.609 Z-0.692
X32.576 Y106.5 Z-0.694
X32.609 Y106.453 Z-0.696
X32.642 Z-0.697
Y106.547 Z-0.702
X32.609 Z-0.703
X32.576 Y106.5 Z-0.705
X32.609 Y106.453 Z-0.707
X32.642 Z-0.708
Y106.547 Z-0.713
X32.609 Z-0.714
X32.576 Y106.5 Z-0.716
X32.609 Y106.453 Z-0.718
X32.642 Z-0.719
Y106.547 Z-0.724
X32.609 Z-0.725
X32.576 Y106.5 Z-0.727
X32.609 Y106.453 Z-0.729
X32.642 Z-0.73
Y106.547 Z-0.735
X32.609 Z-0.736
X32.576 Y106.5 Z-0.738
X32.609 Y106.453 Z-0.74
X32.642 Z-0.741
Y106.547 Z-0.745
X32.609 Z-0.747
X32.576 Y106.5 Z-0.749
X32.609 Y106.453 Z-0.751
X32.642 Z-0.752
Y106.547 Z-0.756
X32.609 Z-0.758
X32.576 Y106.5 Z-0.76
X32.609 Y106.453 Z-0.762
X32.642 Z-0.763
Y106.547 Z-0.767
X32.609 Z-0.768
X32.576 Y106.5 Z-0.771
X32.609 Y106.453 Z-0.773
X32.642 Z-0.774
Y106.547 Z-0.778
X32.609 Z-0.779
X32.576 Y106.5 Z-0.782
X32.609 Y106.453 Z-0.784
X32.642 Z-0.785
Y106.547 Z-0.789
X32.609 Z-0.79
X32.576 Y106.5 Z-0.792
X32.609 Y106.453 Z-0.795
X32.642 Z-0.796
Y106.547 Z-0.8
X32.609 Z-0.801
X32.576 Y106.5 Z-0.803
X32.609 Y106.453 Z-0.806
X32.642 Z-0.807
Y106.547 Z-0.811
X32.609 Z-0.812
X32.576 Y106.5 Z-0.814
X32.609 Y106.453 Z-0.816
X32.642 Z-0.818
Y106.547 Z-0.822
X32.609 Z-0.823
X32.576 Y106.5 Z-0.825
X32.609 Y106.453 Z-0.827
X32.642 Z-0.829
Y106.547 Z-0.833
X32.609 Z-0.834
X32.576 Y106.5 Z-0.836
X32.609 Y106.453 Z-0.838
X32.642 Z-0.839
Y106.547 Z-0.844
X32.609 Z-0.845
X32.576 Y106.5 Z-0.847
X32.609 Y106.453 Z-0.849
X32.642 Z-0.85
Y106.547 Z-0.855
X32.609 Z-0.856
X32.576 Y106.5 Z-0.858
X32.609 Y106.453 Z-0.86
X32.642 Z-0.861
Y106.547 Z-0.866
X32.609 Z-0.867
X32.576 Y106.5 Z-0.869
X32.609 Y106.453 Z-0.871
X32.642 Z-0.872
Y106.547 Z-0.877
X32.609 Z-0.878
X32.576 Y106.5 Z-0.88
X32.609 Y106.453 Z-0.882
X32.642 Z-0.883
Y106.547 Z-0.887
X32.609 Z-0.889
X32.576 Y106.5 Z-0.891
X32.609 Y106.453 Z-0.893
X32.642 Z-0.894
Y106.547 Z-0.898
X32.609 Z-0.9
X32.576 Y106.5 Z-0.902
X32.609 Y106.453 Z-0.904
X32.642 Z-0.905
Y106.547 Z-0.909
X32.609 Z-0.91
X32.576 Y106.5 Z-0.913
X32.609 Y106.453 Z-0.915
X32.642 Z-0.916
Y106.547 Z-0.92
X32.609 Z-0.921
X32.576 Y106.5 Z-0.924
X32.609 Y106.453 Z-0.926
X32.642 Z-0.927
Y106.547 Z-0.931
X32.609 Z-0.932
X32.576 Y106.5 Z-0.934
X32.609 Y106.453 Z-0.937
X32.642 Z-0.938
Y106.547 Z-0.942
X32.609 Z-0.943
X32.576 Y106.5 Z-0.945
X32.609 Y106.453 Z-0.948
X32.642 Z-0.949
Y106.547 Z-0.953
X32.609 Z-0.954
X32.576 Y106.5 Z-0.956
X32.609 Y106.453 Z-0.958
X32.642 Z-0.96
Y106.547 Z-0.964
X32.609 Z-0.965
X32.576 Y106.5 Z-0.967
X32.609 Y106.453 Z-0.969
X32.642 Z-0.971
Y106.547 Z-0.975
X32.609 Z-0.976
X32.576 Y106.5 Z-0.978
X32.609 Y106.453 Z-0.98
X32.642 Z-0.981
Y106.547 Z-0.986
X32.609 Z-0.987
X32.576 Y106.5 Z-0.989
X32.609 Y106.453 Z-0.991
X32.642 Z-0.992
Y106.547 Z-0.997
X32.609 Z-0.998
X32.576 Y106.5 Z-1.
X32.609 Y106.453 F600.
X32.642
Y106.547
X32.609
X32.576 Y106.5
Z1. F900.
G0 X32.635 Y126.951
G1 Z0.1 F30.
X32.642 Y127.047 Z0.095 F900.
X32.609 Z0.094
X32.576 Y127. Z0.092
X32.609 Y126.953 Z0.09
X32.642 Z0.089
Y127.047 Z0.085
X32.609 Z0.083
X32.576 Y127. Z0.081
X32.609 Y126.953 Z0.079
X32.642 Z0.078
Y127.047 Z0.074
X32.609 Z0.072
X32.576 Y127. Z0.07
X32.609 Y126.953 Z0.068
X32.642 Z0.067
Y127.047 Z0.063
X32.609 Z0.062
X32.576 Y127. Z0.059
X32.609 Y126.953 Z0.057
X32.642 Z0.056
Y127.047 Z0.052
X32.609 Z0.051
X32.576 Y127. Z0.048
X32.609 Y126.953 Z0.046
X32.642 Z0.045
Y127.047 Z0.041
X32.609 Z0.04
X32.576 Y127. Z0.038
X32.609 Y126.953 Z0.035
X32.642 Z0.034
Y127.047 Z0.03
X32.609 Z0.029
X32.576 Y127. Z0.027
X32.609 Y126.953 Z0.024
X32.642 Z0.023
Y127.047 Z0.019
X32.609 Z0.018
X32.576 Y127. Z0.016
X32.609 Y126.953 Z0.014
X32.642 Z0.012
Y127.047 Z0.008
X32.609 Z0.007
X32.576 Y127. Z0.005
X32.609 Y126.953 Z0.003
X32.642 Z0.001
Y127.047 Z-0.003
X32.609 Z-0.004
X32.576 Y127. Z-0.006
X32.609 Y126.953 Z-0.008
X32.642 Z-0.009
Y127.047 Z-0.014
X32.609 Z-0.015
X32.576 Y127. Z-0.017
X32.609 Y126.953 Z-0.019
X32.642 Z-0.02
Y127.047 Z-0.025
X32.609 Z-0.026
X32.576 Y127. Z-0.028
X32.609 Y126.953 Z-0.03
X32.642 Z-0.031
Y127.047 Z-0.036
X32.609 Z-0.037
X32.576 Y127. Z-0.039
X32.609 Y126.953 Z-0.041
X32.642 Z-0.042
Y127.047 Z-0.047
X32.609 Z-0.048
X32.576 Y127. Z-0.05
X32.609 Y126.953 Z-0.052
X32.642 Z-0.053
Y127.047 Z-0.057
X32.609 Z-0.059
X32.576 Y127. Z-0.061
X32.609 Y126.953 Z-0.063
X32.642 Z-0.064
Y127.047 Z-0.068
X32.609 Z-0.07
X32.576 Y127. Z-0.072
X32.609 Y126.953 Z-0.074
X32.642 Z-0.075
Y127.047 Z-0.079
X32.609 Z-0.08
X32.576 Y127. Z-0.083
X32.609 Y126.953 Z-0.085
X32.642 Z-0.086
Y127.047 Z-0.09
X32.609 Z-0.091
X32.576 Y127. Z-0.094
X32.609 Y126.953 Z-0.096
X32.642 Z-0.097
Y127.047 Z-0.101
X32.609 Z-0.102
X32.576 Y127. Z-0.104
X32.609 Y126.953 Z-0.107
X32.642 Z-0.108
Y127.047 Z-0.112
X32.609 Z-0.113
X32.576 Y127. Z-0.115
X32.609 Y126.953 Z-0.117
X32.642 Z-0.119
Y127.047 Z-0.123
X32.609 Z-0.124
X32.576 Y127. Z-0.126
X32.609 Y126.953 Z-0.128
X32.642 Z-0.13
Y127.047 Z-0.134
X32.609 Z-0.135
X32.576 Y127. Z-0.137
X32.609 Y126.953 Z-0.139
X32.642 Z-0.141
Y127.047 Z-0.145
X32.609 Z-0.146
X32.576 Y127. Z-0.148
X32.609 Y126.953 Z-0.15
X32.642 Z-0.151
Y127.047 Z-0.156
X32.609 Z-0.157
X32.576 Y127. Z-0.159
X32.609 Y126.953 Z-0.161
X32.642 Z-0.162
Y127.047 Z-0.167
X32.609 Z-0.168
X32.576 Y127. Z-0.17
X32.609 Y126.953 Z-0.172
X32.642 Z-0.173
Y127.047 Z-0.178
X32.609 Z-0.179
X32.576 Y127. Z-0.181
X32.609 Y126.953 Z-0.183
X32.642 Z-0.184
Y127.047 Z-0.188
X32.609 Z-0.19
X32.576 Y127. Z-0.192
X32.609 Y126.953 Z-0.194
X32.642 Z-0.195
Y127.047 Z-0.199
X32.609 Z-0.201
X32.576 Y127. Z-0.203
X32.609 Y126.953 Z-0.205
X32.642 Z-0.206
Y127.047 Z-0.21
X32.609 Z-0.211
X32.576 Y127. Z-0.214
X32.609 Y126.953 Z-0.216
X32.642 Z-0.217
Y127.047 Z-0.221
X32.609 Z-0.222
X32.576 Y127. Z-0.225
X32.609 Y126.953 Z-0.227
X32.642 Z-0.228
Y127.047 Z-0.232
X32.609 Z-0.233
X32.576 Y127. Z-0.235
X32.609 Y126.953 Z-0.238
X32.642 Z-0.239
Y127.047 Z-0.243
X32.609 Z-0.244
X32.576 Y127. Z-0.246
X32.609 Y126.953 Z-0.249
X32.642 Z-0.25
Y127.047 Z-0.254
X32.609 Z-0.255
X32.576 Y127. Z-0.257
X32.609 Y126.953 Z-0.259
X32.642 Z-0.261
Y127.047 Z-0.265
X32.609 Z-0.266
X32.576 Y127. Z-0.268
X32.609 Y126.953 Z-0.27
X32.642 Z-0.272
Y127.047 Z-0.276
X32.609 Z-0.277
X32.576 Y127. Z-0.279
X32.609 Y126.953 Z-0.281
X32.642 Z-0.282
Y127.047 Z-0.287
X32.609 Z-0.288
X32.576 Y127. Z-0.29
X32.609 Y126.953 Z-0.292
X32.642 Z-0.293
Y127.047 Z-0.298
X32.609 Z-0.299
X32.576 Y127. Z-0.301
X32.609 Y126.953 Z-0.303
X32.642 Z-0.304
Y127.047 Z-0.309
X32.609 Z-0.31
X32.576 Y127. Z-0.312
X32.609 Y126.953 Z-0.314
X32.642 Z-0.315
Y127.047 Z-0.32
X32.609 Z-0.321
X32.576 Y127. Z-0.323
X32.609 Y126.953 Z-0.325
X32.642 Z-0.326
Y127.047 Z-0.33
X32.609 Z-0.332
X32.576 Y127. Z-0.334
X32.609 Y126.953 Z-0.336
X32.642 Z-0.337
Y127.047 Z-0.341
X32.609 Z-0.343
X32.576 Y127. Z-0.345
X32.609 Y126.953 Z-0.347
X32.642 Z-0.348
Y127.047 Z-0.352
X32.609 Z-0.353
X32.576 Y127. Z-0.356
X32.609 Y126.953 Z-0.358
X32.642 Z-0.359
Y127.047 Z-0.363
X32.609 Z-0.364
X32.576 Y127. Z-0.367
X32.609 Y126.953 Z-0.369
X32.642 Z-0.37
Y127.047 Z-0.374
X32.609 Z-0.375
X32.576 Y127. Z-0.377
X32.609 Y126.953 Z-0.38
X32.642 Z-0.381
Y127.047 Z-0.385
X32.609 Z-0.386
X32.576 Y127. Z-0.388
X32.609 Y126.953 Z-0.391
X32.642 Z-0.392
Y127.047 Z-0.396
X32.609 Z-0.397
X32.576 Y127. Z-0.399
X32.609 Y126.953 Z-0.401
X32.642 Z-0.403
Y127.047 Z-0.407
X32.609 Z-0.408
X32.576 Y127. Z-0.41
X32.609 Y126.953 Z-0.412
X32.642 Z-0.414
Y127.047 Z-0.418
X32.609 Z-0.419
X32.576 Y127. Z-0.421
X32.609 Y126.953 Z-0.423
X32.642 Z-0.424
Y127.047 Z-0.429
X32.609 Z-0.43
X32.576 Y127. Z-0.432
X32.609 Y126.953 Z-0.434
X32.642 Z-0.435
Y127.047 Z-0.44
X32.609 Z-0.441
X32.576 Y127. Z-0.443
X32.609 Y126.953 Z-0.445
X32.642 Z-0.446
Y127.047 Z-0.451
X32.609 Z-0.452
X32.576 Y127. Z-0.454
X32.609 Y126.953 Z-0.456
X32.642 Z-0.457
Y127.047 Z-0.462
X32.609 Z-0.463
X32.576 Y127. Z-0.465
X32.609 Y126.953 Z-0.467
X32.642 Z-0.468
Y127.047 Z-0.472
X32.609 Z-0.474
X32.576 Y127. Z-0.476
X32.609 Y126.953 Z-0.478
X32.642 Z-0.479
Y127.047 Z-0.483
X32.609 Z-0.485
X32.576 Y127. Z-0.487
X32.609 Y126.953 Z-0.489
X32.642 Z-0.49
Y127.047 Z-0.494
X32.609 Z-0.495
X32.576 Y127. Z-0.498
X32.609 Y126.953 Z-0.5
X32.642 Z-0.501
Y127.047 Z-0.505
X32.609 Z-0.506
X32.576 Y127. Z-0.509
X32.609 Y126.953 Z-0.511
X32.642 Z-0.512
Y127.047 Z-0.516
X32.609 Z-0.517
X32.576 Y127. Z-0.519
X32.609 Y126.953 Z-0.522
X32.642 Z-0.523
Y127.047 Z-0.527
X32.609 Z-0.528
X32.576 Y127. Z-0.53
X32.609 Y126.953 Z-0.533
X32.642 Z-0.534
Y127.047 Z-0.538
X32.609 Z-0.539
X32.576 Y127. Z-0.541
X32.609 Y126.953 Z-0.543
X32.642 Z-0.545
Y127.047 Z-0.549
X32.609 Z-0.55
X32.576 Y127. Z-0.552
X32.609 Y126.953 Z-0.554
X32.642 Z-0.556
Y127.047 Z-0.56
X32.609 Z-0.561
X32.576 Y127. Z-0.563
X32.609 Y126.953 Z-0.565
X32.642 Z-0.566
Y127.047 Z-0.571
X32.609 Z-0.572
X32.576 Y127. Z-0.574
X32.609 Y126.953 Z-0.576
X32.642 Z-0.577
Y127.047 Z-0.582
X32.609 Z-0.583
X32.576 Y127. Z-0.585
X32.609 Y126.953 Z-0.587
X32.642 Z-0.588
Y127.047 Z-0.593
X32.609 Z-0.594
X32.576 Y127. Z-0.596
X32.609 Y126.953 Z-0.598
X32.642 Z-0.599
Y127.047 Z-0.604
X32.609 Z-0.605
X32.576 Y127. Z-0.607
X32.609 Y126.953 Z-0.609
X32.642 Z-0.61
Y127.047 Z-0.614
X32.609 Z-0.616
X32.576 Y127. Z-0.618
X32.609 Y126.953 Z-0.62
X32.642 Z-0.621
Y127.047 Z-0.625
X32.609 Z-0.627
X32.576 Y127. Z-0.629
X32.609 Y126.953 Z-0.631
X32.642 Z-0.632
Y127.047 Z-0.636
X32.609 Z-0.637
X32.576 Y127. Z-0.64
X32.609 Y126.953 Z-0.642
X32.642 Z-0.643
Y127.047 Z-0.647
X32.609 Z-0.648
X32.576 Y127. Z-0.651
X32.609 Y126.953 Z-0.653
X32.642 Z-0.654
Y127.047 Z-0.658
X32.609 Z-0.659
X32.576 Y127. Z-0.661
X32.609 Y126.953 Z-0.664
X32.642 Z-0.665
Y127.047 Z-0.669
X32.609 Z-0.67
X32.576 Y127. Z-0.672
X32.609 Y126.953 Z-0.674
X32.642 Z-0.676
Y127.047 Z-0.68
X32.609 Z-0.681
X32.576 Y127. Z-0.683
X32.609 Y126.953 Z-0.685
X32.642 Z-0.687
Y127.047 Z-0.691
X32.609 Z-0.692
X32.576 Y127. Z-0.694
X32.609 Y126.953 Z-0.696
X32.642 Z-0.698
Y127.047 Z-0.702
X32.609 Z-0.703
X32.576 Y127. Z-0.705
X32.609 Y126.953 Z-0.707
X32.642 Z-0.708
Y127.047 Z-0.713
X32.609 Z-0.714
X32.576 Y127. Z-0.716
X32.609 Y126.953 Z-0.718
X32.642 Z-0.719
Y127.047 Z-0.724
X32.609 Z-0.725
X32.576 Y127. Z-0.727
X32.609 Y126.953 Z-0.729
X32.642 Z-0.73
Y127.047 Z-0.735
X32.609 Z-0.736
X32.576 Y127. Z-0.738
X32.609 Y126.953 Z-0.74
X32.642 Z-0.741
Y127.047 Z-0.745
X32.609 Z-0.747
X32.576 Y127. Z-0.749
X32.609 Y126.953 Z-0.751
X32.642 Z-0.752
Y127.047 Z-0.756
X32.609 Z-0.758
X32.576 Y127. Z-0.76
X32.609 Y126.953 Z-0.762
X32.642 Z-0.763
Y127.047 Z-0.767
X32.609 Z-0.769
X32.576 Y127. Z-0.771
X32.609 Y126.953 Z-0.773
X32.642 Z-0.774
Y127.047 Z-0.778
X32.609 Z-0.779
X32.576 Y127. Z-0.782
X32.609 Y126.953 Z-0.784
X32.642 Z-0.785
Y127.047 Z-0.789
X32.609 Z-0.79
X32.576 Y127. Z-0.792
X32.609 Y126.953 Z-0.795
X32.642 Z-0.796
Y127.047 Z-0.8
X32.609 Z-0.801
X32.576 Y127. Z-0.803
X32.609 Y126.953 Z-0.806
X32.642 Z-0.807
Y127.047 Z-0.811
X32.609 Z-0.812
X32.576 Y127. Z-0.814
X32.609 Y126.953 Z-0.816
X32.642 Z-0.818
Y127.047 Z-0.822
X32.609 Z-0.823
X32.576 Y127. Z-0.825
X32.609 Y126.953 Z-0.827
X32.642 Z-0.829
Y127.047 Z-0.833
X32.609 Z-0.834
X32.576 Y127. Z-0.836
X32.609 Y126.953 Z-0.838
X32.642 Z-0.839
Y127.047 Z-0.844
X32.609 Z-0.845
X32.576 Y127. Z-0.847
X32.609 Y126.953 Z-0.849
X32.642 Z-0.85
Y127.047 Z-0.855
X32.609 Z-0.856
X32.576 Y127. Z-0.858
X32.609 Y126.953 Z-0.86
X32.642 Z-0.861
Y127.047 Z-0.866
X32.609 Z-0.867
X32.576 Y127. Z-0.869
X32.609 Y126.953 Z-0.871
X32.642 Z-0.872
Y127.047 Z-0.877
X32.609 Z-0.878
X32.576 Y127. Z-0.88
X32.609 Y126.953 Z-0.882
X32.642 Z-0.883
Y127.047 Z-0.887
X32.609 Z-0.889
X32.576 Y127. Z-0.891
X32.609 Y126.953 Z-0.893
X32.642 Z-0.894
Y127.047 Z-0.898
X32.609 Z-0.9
X32.576 Y127. Z-0.902
X32.609 Y126.953 Z-0.904
X32.642 Z-0.905
Y127.047 Z-0.909
X32.609 Z-0.91
X32.576 Y127. Z-0.913
X32.609 Y126.953 Z-0.915
X32.642 Z-0.916
Y127.047 Z-0.92
X32.609 Z-0.921
X32.576 Y127. Z-0.924
X32.609 Y126.953 Z-0.926
X32.642 Z-0.927
Y127.047 Z-0.931
X32.609 Z-0.932
X32.576 Y127. Z-0.934
X32.609 Y126.953 Z-0.937
X32.642 Z-0.938
Y127.047 Z-0.942
X32.609 Z-0.943
X32.576 Y127. Z-0.945
X32.609 Y126.953 Z-0.948
X32.642 Z-0.949
Y127.047 Z-0.953
X32.609 Z-0.954
X32.576 Y127. Z-0.956
X32.609 Y126.953 Z-0.958
X32.642 Z-0.96
Y127.047 Z-0.964
X32.609 Z-0.965
X32.576 Y127. Z-0.967
X32.609 Y126.953 Z-0.969
X32.642 Z-0.971
Y127.047 Z-0.975
X32.609 Z-0.976
X32.576 Y127. Z-0.978
X32.609 Y126.953 Z-0.98
X32.642 Z-0.981
Y127.047 Z-0.986
X32.609 Z-0.987
X32.576 Y127. Z-0.989
X32.609 Y126.953 Z-0.991
X32.642 Z-0.992
Y127.047 Z-0.997
X32.609 Z-0.998
X32.576 Y127. Z-1.
X32.609 Y126.953 F600.
X32.642
Y127.047
X32.609
X32.576 Y127.
Z1. F900.
G0 X10. Y142.75
G1 Z0.1 F30.
G3 Y140.25 Z0.075 I0. J-1.25 F900.
Y142.75 Z0.05 I0. J1.25
Y140.25 Z0.025 I0. J-1.25
Y142.75 Z0. I0. J1.25
Y140.25 Z-0.025 I0. J-1.25
Y142.75 Z-0.05 I0. J1.25
Y140.25 Z-0.075 I0. J-1.25
Y142.75 Z-0.1 I0. J1.25
Y140.25 Z-0.125 I0. J-1.25
Y142.75 Z-0.15 I0. J1.25
Y140.25 Z-0.175 I0. J-1.25
Y142.75 Z-0.2 I0. J1.25
Y140.25 Z-0.225 I0. J-1.25
Y142.75 Z-0.25 I0. J1.25
Y140.25 Z-0.275 I0. J-1.25
Y142.75 Z-0.3 I0. J1.25
Y140.25 Z-0.325 I0. J-1.25
Y142.75 Z-0.35 I0. J1.25
Y140.25 Z-0.375 I0. J-1.25
Y142.75 Z-0.4 I0. J1.25
Y140.25 Z-0.425 I0. J-1.25
Y142.75 Z-0.45 I0. J1.25
Y140.25 Z-0.475 I0. J-1.25
Y142.75 Z-0.5 I0. J1.25
Y140.25 Z-0.525 I0. J-1.25
Y142.75 Z-0.55 I0. J1.25
Y140.25 Z-0.575 I0. J-1.25
Y142.75 Z-0.6 I0. J1.25
Y140.25 Z-0.625 I0. J-1.25
Y142.75 Z-0.65 I0. J1.25
Y140.25 Z-0.675 I0. J-1.25
Y142.75 Z-0.7 I0. J1.25
Y140.25 Z-0.725 I0. J-1.25
Y142.75 Z-0.75 I0. J1.25
Y140.25 Z-0.775 I0. J-1.25
Y142.75 Z-0.8 I0. J1.25
Y140.25 Z-0.825 I0. J-1.25
Y142.75 Z-0.85 I0. J1.25
Y140.25 Z-0.875 I0. J-1.25
Y142.75 Z-0.9 I0. J1.25
Y140.25 Z-0.925 I0. J-1.25
Y142.75 Z-0.95 I0. J1.25
Y140.25 Z-0.975 I0. J-1.25
Y142.75 Z-1. I0. J1.25
Y140.25 I0. J-1.25 F600.
Y142.75 I0. J1.25
G1 Z1. F900.
G0 Y77.
G1 Z0.1 F30.
G3 Y74.5 Z0.075 I0. J-1.25 F900.
Y77. Z0.05 I0. J1.25
Y74.5 Z0.025 I0. J-1.25
Y77. Z0. I0. J1.25
Y74.5 Z-0.025 I0. J-1.25
Y77. Z-0.05 I0. J1.25
Y74.5 Z-0.075 I0. J-1.25
Y77. Z-0.1 I0. J1.25
Y74.5 Z-0.125 I0. J-1.25
Y77. Z-0.15 I0. J1.25
Y74.5 Z-0.175 I0. J-1.25
Y77. Z-0.2 I0. J1.25
Y74.5 Z-0.225 I0. J-1.25
Y77. Z-0.25 I0. J1.25
Y74.5 Z-0.275 I0. J-1.25
Y77. Z-0.3 I0. J1.25
Y74.5 Z-0.325 I0. J-1.25
Y77. Z-0.35 I0. J1.25
Y74.5 Z-0.375 I0. J-1.25
Y77. Z-0.4 I0. J1.25
Y74.5 Z-0.425 I0. J-1.25
Y77. Z-0.45 I0. J1.25
Y74.5 Z-0.475 I0. J-1.25
Y77. Z-0.5 I0. J1.25
Y74.5 Z-0.525 I0. J-1.25
Y77. Z-0.55 I0. J1.25
Y74.5 Z-0.575 I0. J-1.25
Y77. Z-0.6 I0. J1.25
Y74.5 Z-0.625 I0. J-1.25
Y77. Z-0.65 I0. J1.25
Y74.5 Z-0.675 I0. J-1.25
Y77. Z-0.7 I0. J1.25
Y74.5 Z-0.725 I0. J-1.25
Y77. Z-0.75 I0. J1.25
Y74.5 Z-0.775 I0. J-1.25
Y77. Z-0.8 I0. J1.25
Y74.5 Z-0.825 I0. J-1.25
Y77. Z-0.85 I0. J1.25
Y74.5 Z-0.875 I0. J-1.25
Y77. Z-0.9 I0. J1.25
Y74.5 Z-0.925 I0. J-1.25
Y77. Z-0.95 I0. J1.25
Y74.5 Z-0.975 I0. J-1.25
Y77. Z-1. I0. J1.25
Y74.5 I0. J-1.25 F600.
Y77. I0. J1.25
G1 Z1. F900.
G0 Y11.25
G1 Z0.1 F30.
G3 Y8.75 Z0.075 I0. J-1.25 F900.
Y11.25 Z0.05 I0. J1.25
Y8.75 Z0.025 I0. J-1.25
Y11.25 Z0. I0. J1.25
Y8.75 Z-0.025 I0. J-1.25
Y11.25 Z-0.05 I0. J1.25
Y8.75 Z-0.075 I0. J-1.25
Y11.25 Z-0.1 I0. J1.25
Y8.75 Z-0.125 I0. J-1.25
Y11.25 Z-0.15 I0. J1.25
Y8.75 Z-0.175 I0. J-1.25
Y11.25 Z-0.2 I0. J1.25
Y8.75 Z-0.225 I0. J-1.25
Y11.25 Z-0.25 I0. J1.25
Y8.75 Z-0.275 I0. J-1.25
Y11.25 Z-0.3 I0. J1.25
Y8.75 Z-0.325 I0. J-1.25
Y11.25 Z-0.35 I0. J1.25
Y8.75 Z-0.375 I0. J-1.25
Y11.25 Z-0.4 I0. J1.25
Y8.75 Z-0.425 I0. J-1.25
Y11.25 Z-0.45 I0. J1.25
Y8.75 Z-0.475 I0. J-1.25
Y11.25 Z-0.5 I0. J1.25
Y8.75 Z-0.525 I0. J-1.25
Y11.25 Z-0.55 I0. J1.25
Y8.75 Z-0.575 I0. J-1.25
Y11.25 Z-0.6 I0. J1.25
Y8.75 Z-0.625 I0. J-1.25
Y11.25 Z-0.65 I0. J1.25
Y8.75 Z-0.675 I0. J-1.25
Y11.25 Z-0.7 I0. J1.25
Y8.75 Z-0.725 I0. J-1.25
Y11.25 Z-0.75 I0. J1.25
Y8.75 Z-0.775 I0. J-1.25
Y11.25 Z-0.8 I0. J1.25
Y8.75 Z-0.825 I0. J-1.25
Y11.25 Z-0.85 I0. J1.25
Y8.75 Z-0.875 I0. J-1.25
Y11.25 Z-0.9 I0. J1.25
Y8.75 Z-0.925 I0. J-1.25
Y11.25 Z-0.95 I0. J1.25
Y8.75 Z-0.975 I0. J-1.25
Y11.25 Z-1. I0. J1.25
Y8.75 I0. J-1.25 F600.
Y11.25 I0. J1.25
G1 Z1. F900.
G0 X-1. Y75.75
G1 Z0.1 F30.
Y141.5 Z0.092 F900.
G2 X10. Y152.5 Z0.09 I11. J0.
G1 X50.749 Z0.085
G2 X55.749 Y147.5 Z0.084 I0. J-5.
G1 Y4. Z0.066
G2 X50.749 Y-1. Z0.065 I-5. J0.
G1 X10. Z0.06
G2 X-1. Y10. Z0.058 I0. J11.
G1 Y141.5 Z0.042
G2 X10. Y152.5 Z0.04 I11. J0.
G1 X50.749 Z0.035
G2 X55.749 Y147.5 Z0.034 I0. J-5.
G1 Y4. Z0.016
G2 X50.749 Y-1. Z0.015 I-5. J0.
G1 X10. Z0.01
G2 X-1. Y10. Z0.008 I0. J11.
G1 Y141.5 Z-0.008
G2 X10. Y152.5 Z-0.01 I11. J0.
G1 X50.749 Z-0.015
G2 X55.749 Y147.5 Z-0.016 I0. J-5.
G1 Y4. Z-0.034
G2 X50.749 Y-1. Z-0.035 I-5. J0.
G1 X10. Z-0.04
G2 X-1. Y10. Z-0.042 I0. J11.
G1 Y141.5 Z-0.058
G2 X10. Y152.5 Z-0.06 I11. J0.
G1 X50.749 Z-0.065
G2 X55.749 Y147.5 Z-0.066 I0. J-5.
G1 Y4. Z-0.084
G2 X50.749 Y-1. Z-0.085 I-5. J0.
G1 X10. Z-0.09
G2 X-1. Y10. Z-0.092 I0. J11.
G1 Y141.5 Z-0.108
G2 X10. Y152.5 Z-0.11 I11. J0.
G1 X50.749 Z-0.115
G2 X55.749 Y147.5 Z-0.116 I0. J-5.
G1 Y4. Z-0.134
G2 X50.749 Y-1. Z-0.135 I-5. J0.
G1 X10. Z-0.14
G2 X-1. Y10. Z-0.142 I0. J11.
G1 Y141.5 Z-0.158
G2 X10. Y152.5 Z-0.16 I11. J0.
G1 X50.749 Z-0.165
G2 X55.749 Y147.5 Z-0.166 I0. J-5.
G1 Y4. Z-0.184
G2 X50.749 Y-1. Z-0.185 I-5. J0.
G1 X10. Z-0.19
G2 X-1. Y10. Z-0.192 I0. J11.
G1 Y141.5 Z-0.208
G2 X10. Y152.5 Z-0.21 I11. J0.
G1 X50.749 Z-0.215
G2 X55.749 Y147.5 Z-0.216 I0. J-5.
G1 Y4. Z-0.234
G2 X50.749 Y-1. Z-0.235 I-5. J0.
G1 X10. Z-0.24
G2 X-1. Y10. Z-0.242 I0. J11.
G1 Y141.5 Z-0.258
G2 X10. Y152.5 Z-0.26 I11. J0.
G1 X50.749 Z-0.265
G2 X55.749 Y147.5 Z-0.266 I0. J-5.
G1 Y4. Z-0.284
G2 X50.749 Y-1. Z-0.285 I-5. J0.
G1 X10. Z-0.29
G2 X-1. Y10. Z-0.292 I0. J11.
G1 Y141.5 Z-0.308
G2 X10. Y152.5 Z-0.31 I11. J0.
G1 X50.749 Z-0.315
G2 X55.749 Y147.5 Z-0.316 I0. J-5.
G1 Y4. Z-0.334
G2 X50.749 Y-1. Z-0.335 I-5. J0.
G1 X10. Z-0.34
G2 X-1. Y10. Z-0.342 I0. J11.
G1 Y141.5 Z-0.358
G2 X10. Y152.5 Z-0.36 I11. J0.
G1 X50.749 Z-0.365
G2 X55.749 Y147.5 Z-0.366 I0. J-5.
G1 Y4. Z-0.384
G2 X50.749 Y-1. Z-0.385 I-5. J0.
G1 X10. Z-0.39
G2 X-1. Y10. Z-0.392 I0. J11.
G1 Y141.5 Z-0.408
G2 X10. Y152.5 Z-0.41 I11. J0.
G1 X50.749 Z-0.415
G2 X55.749 Y147.5 Z-0.416 I0. J-5.
G1 Y4. Z-0.434
G2 X50.749 Y-1. Z-0.435 I-5. J0.
G1 X10. Z-0.44
G2 X-1. Y10. Z-0.442 I0. J11.
G1 Y141.5 Z-0.458
G2 X10. Y152.5 Z-0.46 I11. J0.
G1 X50.749 Z-0.465
G2 X55.749 Y147.5 Z-0.466 I0. J-5.
G1 Y4. Z-0.484
G2 X50.749 Y-1. Z-0.485 I-5. J0.
G1 X10. Z-0.49
G2 X-1. Y10. Z-0.492 I0. J11.
G1 Y141.5 Z-0.508
G2 X10. Y152.5 Z-0.51 I11. J0.
G1 X50.749 Z-0.515
G2 X55.749 Y147.5 Z-0.516 I0. J-5.
G1 Y4. Z-0.534
G2 X50.749 Y-1. Z-0.535 I-5. J0.
G1 X10. Z-0.54
G2 X-1. Y10. Z-0.542 I0. J11.
G1 Y141.5 Z-0.558
G2 X10. Y152.5 Z-0.56 I11. J0.
G1 X50.749 Z-0.565
G2 X55.749 Y147.5 Z-0.566 I0. J-5.
G1 Y4. Z-0.584
G2 X50.749 Y-1. Z-0.585 I-5. J0.
G1 X10. Z-0.59
G2 X-1. Y10. Z-0.592 I0. J11.
G1 Y141.5 Z-0.608
G2 X10. Y152.5 Z-0.61 I11. J0.
G1 X50.749 Z-0.615
G2 X55.749 Y147.5 Z-0.616 I0. J-5.
G1 Y4. Z-0.634
G2 X50.749 Y-1. Z-0.635 I-5. J0.
G1 X10. Z-0.64
G2 X-1. Y10. Z-0.642 I0. J11.
G1 Y141.5 Z-0.658
G2 X10. Y152.5 Z-0.66 I11. J0.
G1 X50.749 Z-0.665
G2 X55.749 Y147.5 Z-0.666 I0. J-5.
G1 Y4. Z-0.684
G2 X50.749 Y-1. Z-0.685 I-5. J0.
G1 X10. Z-0.69
G2 X-1. Y10. Z-0.692 I0. J11.
G1 Y85.707 Z-0.701
Y85.708 Z-0.7
Y87.708
Y87.71 Z-0.701 F30.
Y107.62 Z-0.704 F900.
Y107.625 Z-0.7
Y109.625
Y109.631 Z-0.704 F30.
Y129.533 Z-0.707 F900.
Y129.542 Z-0.7
Y131.542
Y131.551 Z-0.707 F30.
Y141.5 Z-0.708 F900.
G2 X10. Y152.5 Z-0.71 I11. J0.
G1 X20.124 Z-0.711
X20.139 Z-0.7
X22.139
X22.155 Z-0.712 F30.
X50.749 Z-0.715 F900.
G2 X55.749 Y147.5 Z-0.716 I0. J-5.
G1 Y138.273 Z-0.717
Y138.25 Z-0.7
Y136.25
Y136.227 Z-0.718 F30.
Y117.776 Z-0.72 F900.
Y117.75 Z-0.7
Y115.75
Y115.723 Z-0.72 F30.
Y97.28 Z-0.722 F900.
Y97.25 Z-0.7
Y95.25
Y95.22 Z-0.723 F30.
Y76.783 Z-0.725 F900.
Y76.75 Z-0.7
Y74.75
Y74.716 Z-0.725 F30.
Y56.287 Z-0.727 F900.
Y56.25 Z-0.7
Y54.25
Y54.213 Z-0.728 F30.
Y35.79 Z-0.73 F900.
Y35.75 Z-0.7
Y33.75
Y33.71 Z-0.73 F30.
Y15.293 Z-0.732 F900.
Y15.25 Z-0.7
Y13.25
Y13.206 Z-0.733 F30.
Y4. Z-0.734 F900.
G2 X50.749 Y-1. Z-0.735 I-5. J0.
G1 X22.191 Z-0.738
X22.139 Z-0.7
X20.139
X20.088 Z-0.739 F30.
X10. Z-0.74 F900.
G2 X-1. Y10. Z-0.742 I0. J11.
G1 Y19.901 Z-0.743
Y19.958 Z-0.7
Y21.958
Y22.016 Z-0.743 F30.
Y41.814 Z-0.746 F900.
Y41.875 Z-0.7
Y43.875
Y43.936 Z-0.746 F30.
Y63.727 Z-0.749 F900.
Y63.792 Z-0.7
Y65.792
Y65.857 Z-0.749 F30.
Y85.64 Z-0.751 F900.
Y85.708 Z-0.7
Y87.708
Y87.777 Z-0.751 F30.
Y107.553 Z-0.754 F900.
Y107.625 Z-0.7
Y109.625
Y109.697 Z-0.754 F30.
Y129.467 Z-0.757 F900.
Y129.542 Z-0.7
Y131.542
Y131.618 Z-0.757 F30.
Y141.5 Z-0.758 F900.
G2 X10. Y152.5 Z-0.76 I11. J0.
G1 X20.058 Z-0.761
X20.139 Z-0.7
X22.139
X22.222 Z-0.762 F30.
X50.749 Z-0.765 F900.
G2 X55.749 Y147.5 Z-0.766 I0. J-5.
G1 Y138.34 Z-0.767
Y138.25 Z-0.7
Y136.25
Y136.16 Z-0.768 F30.
Y117.843 Z-0.77 F900.
Y117.75 Z-0.7
Y115.75
Y115.657 Z-0.77 F30.
Y97.346 Z-0.772 F900.
Y97.25 Z-0.7
Y95.25
Y95.153 Z-0.773 F30.
Y76.85 Z-0.775 F900.
Y76.75 Z-0.7
Y74.75
Y74.65 Z-0.775 F30.
Y56.353 Z-0.777 F900.
Y56.25 Z-0.7
Y54.25
Y54.146 Z-0.778 F30.
Y35.857 Z-0.78 F900.
Y35.75 Z-0.7
Y33.75
Y33.643 Z-0.78 F30.
Y15.36 Z-0.782 F900.
Y15.25 Z-0.7
Y13.25
Y13.14 Z-0.783 F30.
Y4. Z-0.784 F900.
G2 X50.749 Y-1. Z-0.785 I-5. J0.
G1 X22.257 Z-0.788
X22.139 Z-0.7
X20.139
X20.021 Z-0.789 F30.
X10. Z-0.79 F900.
G2 X-1. Y10. Z-0.792 I0. J11.
G1 Y19.834 Z-0.793
Y19.958 Z-0.7
Y21.958
Y22.083 Z-0.793 F30.
Y41.747 Z-0.796 F900.
Y41.875 Z-0.7
Y43.875
Y44.003 Z-0.796 F30.
Y63.66 Z-0.799 F900.
Y63.792 Z-0.7
Y65.792
Y65.923 Z-0.799 F30.
Y85.573 Z-0.801 F900.
Y85.708 Z-0.7
Y87.708
Y87.844 Z-0.801 F30.
Y107.486 Z-0.804 F900.
Y107.625 Z-0.7
Y109.625
Y109.764 Z-0.804 F30.
Y129.4 Z-0.807 F900.
Y129.542 Z-0.7
Y131.542
Y131.684 Z-0.807 F30.
Y141.5 Z-0.808 F900.
G2 X10. Y152.5 Z-0.81 I11. J0.
G1 X19.991 Z-0.811
X20.139 Z-0.7
X22.139
X22.288 Z-0.812 F30.
X50.749 Z-0.815 F900.
G2 X55.749 Y147.5 Z-0.816 I0. J-5.
G1 Y138.406 Z-0.817
Y138.25 Z-0.7
Y136.25
Y136.093 Z-0.818 F30.
Y117.91 Z-0.82 F900.
Y117.75 Z-0.7
Y115.75
Y115.59 Z-0.82 F30.
Y97.413 Z-0.822 F900.
Y97.25 Z-0.7
Y95.25
Y95.087 Z-0.823 F30.
Y76.916 Z-0.825 F900.
Y76.75 Z-0.7
Y74.75
Y74.583 Z-0.825 F30.
Y56.42 Z-0.827 F900.
Y56.25 Z-0.7
Y54.25
Y54.08 Z-0.828 F30.
Y35.923 Z-0.83 F900.
Y35.75 Z-0.7
Y33.75
Y33.576 Z-0.83 F30.
Y15.427 Z-0.832 F900.
Y15.25 Z-0.7
Y13.25
Y13.073 Z-0.833 F30.
Y4. Z-0.834 F900.
G2 X50.749 Y-1. Z-0.835 I-5. J0.
G1 X22.324 Z-0.838
X22.139 Z-0.7
X20.139
X19.955 Z-0.839 F30.
X10. Z-0.84 F900.
G2 X-1. Y10. Z-0.842 I0. J11.
G1 Y19.767 Z-0.843
Y19.958 Z-0.7
Y21.958
Y22.15 Z-0.843 F30.
Y41.681 Z-0.846 F900.
Y41.875 Z-0.7
Y43.875
Y44.07 Z-0.846 F30.
Y63.594 Z-0.849 F900.
Y63.792 Z-0.7
Y65.792
Y65.99 Z-0.849 F30.
Y85.507 Z-0.851 F900.
Y85.708 Z-0.7
Y87.708
Y87.91 Z-0.851 F30.
Y107.42 Z-0.854 F900.
Y107.625 Z-0.7
Y109.625
Y109.831 Z-0.854 F30.
Y129.333 Z-0.857 F900.
Y129.542 Z-0.7
Y131.542
Y131.751 Z-0.857 F30.
Y141.5 Z-0.858 F900.
G2 X10. Y152.5 Z-0.86 I11. J0.
G1 X19.924 Z-0.861
X20.139 Z-0.7
X22.139
X22.355 Z-0.862 F30.
X50.749 Z-0.865 F900.
G2 X55.749 Y147.5 Z-0.866 I0. J-5.
G1 Y138.473 Z-0.867
Y138.25 Z-0.7
Y136.25
Y136.027 Z-0.868 F30.
Y117.976 Z-0.87 F900.
Y117.75 Z-0.7
Y115.75
Y115.523 Z-0.87 F30.
Y97.48 Z-0.872 F900.
Y97.25 Z-0.7
Y95.25
Y95.02 Z-0.873 F30.
Y76.983 Z-0.875 F900.
Y76.75 Z-0.7
Y74.75
Y74.516 Z-0.875 F30.
Y56.486 Z-0.877 F900.
Y56.25 Z-0.7
Y54.25
Y54.013 Z-0.878 F30.
Y35.99 Z-0.88 F900.
Y35.75 Z-0.7
Y33.75
Y33.51 Z-0.88 F30.
Y15.493 Z-0.882 F900.
Y15.25 Z-0.7
Y13.25
Y13.006 Z-0.883 F30.
Y4. Z-0.884 F900.
G2 X50.749 Y-1. Z-0.885 I-5. J0.
G1 X22.391 Z-0.888
X22.139 Z-0.7
X20.139
X19.888 Z-0.889 F30.
X10. Z-0.89 F900.
G2 X-1. Y10. Z-0.892 I0. J11.
G1 Y19.701 Z-0.893
Y19.958 Z-0.7
Y21.958
Y22.216 Z-0.893 F30.
Y41.614 Z-0.896 F900.
Y41.875 Z-0.7
Y43.875
Y44.136 Z-0.896 F30.
Y63.527 Z-0.898 F900.
Y63.792 Z-0.7
Y65.792
Y66.057 Z-0.899 F30.
Y85.44 Z-0.901 F900.
Y85.708 Z-0.7
Y87.708
Y87.977 Z-0.902 F30.
Y107.353 Z-0.904 F900.
Y107.625 Z-0.7
Y109.625
Y109.897 Z-0.904 F30.
Y129.267 Z-0.907 F900.
Y129.542 Z-0.7
Y131.542
Y131.818 Z-0.907 F30.
Y141.5 Z-0.908 F900.
G2 X10. Y152.5 Z-0.91 I11. J0.
G1 X19.858 Z-0.911
X20.139 Z-0.7
X22.139
X22.422 Z-0.912 F30.
X50.749 Z-0.915 F900.
G2 X55.749 Y147.5 Z-0.916 I0. J-5.
G1 Y138.54 Z-0.917
Y138.25 Z-0.7
Y136.25
Y135.96 Z-0.918 F30.
Y118.043 Z-0.92 F900.
Y117.75 Z-0.7
Y115.75
Y115.457 Z-0.92 F30.
Y97.546 Z-0.922 F900.
Y97.25 Z-0.7
Y95.25
Y94.953 Z-0.923 F30.
Y77.05 Z-0.925 F900.
Y76.75 Z-0.7
Y74.75
Y74.45 Z-0.925 F30.
Y56.553 Z-0.927 F900.
Y56.25 Z-0.7
Y54.25
Y53.946 Z-0.928 F30.
Y36.057 Z-0.93 F900.
Y35.75 Z-0.7
Y33.75
Y33.443 Z-0.93 F30.
Y15.56 Z-0.932 F900.
Y15.25 Z-0.7
Y13.25
Y12.94 Z-0.933 F30.
Y4. Z-0.934 F900.
G2 X50.749 Y-1. Z-0.935 I-5. J0.
G1 X22.457 Z-0.938
X22.139 Z-0.7
X20.139
X19.821 Z-0.939 F30.
X10. Z-0.94 F900.
G2 X-1. Y10. Z-0.942 I0. J11.
G1 Y19.634 Z-0.943
Y19.958 Z-0.7
Y21.958
Y22.283 Z-0.943 F30.
Y41.547 Z-0.946 F900.
Y41.875 Z-0.7
Y43.875
Y44.203 Z-0.946 F30.
Y63.46 Z-0.948 F900.
Y63.792 Z-0.7
Y65.792
Y66.123 Z-0.949 F30.
Y85.373 Z-0.951 F900.
Y85.708 Z-0.7
Y87.708
Y88.044 Z-0.952 F30.
Y107.286 Z-0.954 F900.
Y107.625 Z-0.7
Y109.625
Y109.964 Z-0.954 F30.
Y129.2 Z-0.957 F900.
Y129.542 Z-0.7
Y131.542
Y131.885 Z-0.957 F30.
Y141.5 Z-0.958 F900.
G2 X10. Y152.5 Z-0.96 I11. J0.
G1 X19.791 Z-0.961
X20.139 Z-0.7
X22.139
X22.488 Z-0.962 F30.
X50.749 Z-0.965 F900.
G2 X55.749 Y147.5 Z-0.966 I0. J-5.
G1 Y138.606 Z-0.967
Y138.25 Z-0.7
Y136.25
Y135.893 Z-0.968 F30.
Y118.11 Z-0.97 F900.
Y117.75 Z-0.7
Y115.75
Y115.39 Z-0.97 F30.
Y97.613 Z-0.972 F900.
Y97.25 Z-0.7
Y95.25
Y94.886 Z-0.973 F30.
Y77.116 Z-0.975 F900.
Y76.75 Z-0.7
Y74.75
Y74.383 Z-0.975 F30.
Y56.62 Z-0.977 F900.
Y56.25 Z-0.7
Y54.25
Y53.88 Z-0.978 F30.
Y36.123 Z-0.98 F900.
Y35.75 Z-0.7
Y33.75
Y33.376 Z-0.98 F30.
Y15.627 Z-0.982 F900.
Y15.25 Z-0.7
Y13.25
Y12.873 Z-0.983 F30.
Y4. Z-0.984 F900.
G2 X50.749 Y-1. Z-0.985 I-5. J0.
G1 X22.524 Z-0.988
X22.139 Z-0.7
X20.139
X19.755 Z-0.989 F30.
X10. Z-0.99 F900.
G2 X-1. Y10. Z-0.992 I0. J11.
G1 Y19.568 Z-0.993
Y19.958 Z-0.7
Y21.958
Y22.35 Z-0.993 F30.
Y41.481 Z-0.996 F900.
Y41.875 Z-0.7
Y43.875
Y44.27 Z-0.996 F30.
Y63.394 Z-0.998 F900.
Y63.792 Z-0.7
Y65.792
Y66.19 Z-0.999 F30.
Y75.75 Z-1. F900.
Y85.308 F600.
Y85.708 Z-0.7
Y87.708
Y88.108 Z-1. F30.
Y107.225 F600.
Y107.625 Z-0.7
Y109.625
Y110.025 Z-1. F30.
Y129.142 F600.
Y129.542 Z-0.7
Y131.542
Y131.942 Z-1. F30.
Y141.5 F600.
G2 X10. Y152.5 I11. J0.
G1 X19.74
X20.139 Z-0.7
X22.139
X22.539 Z-1. F30.
X50.749 F600.
G2 X55.749 Y147.5 I0. J-5.
G1 Y138.65
Y138.25 Z-0.7
Y136.25
Y135.85 Z-1. F30.
Y118.15 F600.
Y117.75 Z-0.7
Y115.75
Y115.35 Z-1. F30.
Y97.65 F600.
Y97.25 Z-0.7
Y95.25
Y94.85 Z-1. F30.
Y77.15 F600.
Y76.75 Z-0.7
Y74.75
Y74.35 Z-1. F30.
Y56.65 F600.
Y56.25 Z-0.7
Y54.25
Y53.85 Z-1. F30.
Y36.15 F600.
Y35.75 Z-0.7
Y33.75
Y33.35 Z-1. F30.
Y15.65 F600.
Y15.25 Z-0.7
Y13.25
Y12.85 Z-1. F30.
Y4. F600.
G2 X50.749 Y-1. I-5. J0.
G1 X22.539
X22.139 Z-0.7
X20.139
X19.74 Z-1. F30.
X10. F600.
G2 X-1. Y10. I0. J11.
G1 Y19.558
Y19.958 Z-0.7
Y21.958
Y22.358 Z-1. F30.
Y41.475 F600.
Y41.875 Z-0.7
Y43.875
Y44.275 Z-1. F30.
Y63.392 F600.
Y63.792 Z-0.7
Y65.792
Y66.192 Z-1. F30.
Y75.75 F600.
Z1. F900.
G0 Z1.5

M9
M30
